; G-Code generated by Simplify3D(R) Version 3.0.2
; ¶þÔÂ 4, 2021 at 6:15:42 ÏÂÎç
; Settings Summary
;   processName,Process1
;   applyToModels,lk5_br_z6
;   profileName,Z6 (modified)
;   profileVersion,2020-12-22 20:09:04
;   baseProfile,Default (modified)
;   printMaterial,PLA
;   printQuality,Medium
;   printExtruders,
;   extruderName,Primary Extruder
;   extruderToolheadNumber,0
;   extruderDiameter,0.4
;   extruderAutoWidth,1
;   extruderWidth,0.48
;   extrusionMultiplier,1
;   extruderUseRetract,1
;   extruderRetractionDistance,6.5
;   extruderExtraRestartDistance,0.05
;   extruderRetractionZLift,0
;   extruderRetractionSpeed,1200
;   extruderUseCoasting,0
;   extruderCoastingDistance,0.1
;   extruderUseWipe,1
;   extruderWipeDistance,1.5
;   primaryExtruder,0
;   layerHeight,0.2
;   topSolidLayers,2
;   bottomSolidLayers,4
;   perimeterOutlines,3
;   printPerimetersInsideOut,1
;   startPointOption,3
;   startPointOriginX,75
;   startPointOriginY,75
;   startPointOriginZ,300
;   sequentialIslands,0
;   spiralVaseMode,0
;   firstLayerHeightPercentage,100
;   firstLayerWidthPercentage,100
;   firstLayerUnderspeed,0.5
;   useRaft,0
;   raftExtruder,0
;   raftLayers,3
;   raftOffset,3
;   raftSeparationDistance,0.14
;   raftInfill,85
;   disableRaftBaseLayers,0
;   useSkirt,0
;   skirtExtruder,0
;   skirtLayers,1
;   skirtOutlines,5
;   skirtOffset,0
;   usePrimePillar,0
;   primePillarExtruder,999
;   primePillarWidth,12
;   primePillarLocation,7
;   primePillarSpeedMultiplier,1
;   useOozeShield,0
;   oozeShieldExtruder,999
;   oozeShieldOffset,2
;   oozeShieldOutlines,1
;   oozeShieldSidewallShape,1
;   oozeShieldSidewallAngle,30
;   oozeShieldSpeedMultiplier,1
;   infillExtruder,0
;   internalInfillPattern,Rectilinear
;   externalInfillPattern,Rectilinear
;   infillPercentage,20
;   outlineOverlapPercentage,15
;   infillExtrusionWidthPercentage,100
;   minInfillLength,5
;   infillLayerInterval,1
;   infillAngles,45,-45
;   overlapInfillAngles,0
;   generateSupport,0
;   supportExtruder,0
;   supportInfillPercentage,10
;   supportExtraInflation,0
;   denseSupportLayers,2
;   denseSupportInfillPercentage,70
;   supportLayerInterval,1
;   supportHorizontalPartOffset,0.3
;   supportUpperSeparationLayers,1
;   supportLowerSeparationLayers,1
;   supportType,1
;   supportGridSpacing,4
;   maxOverhangAngle,60
;   supportAngles,45
;   temperatureName,Primary Extruder,bed
;   temperatureNumber,0,0
;   temperatureSetpointCount,1,1
;   temperatureSetpointLayers,1,1
;   temperatureSetpointTemperatures,205,60
;   temperatureStabilizeAtStartup,1,1
;   temperatureHeatedBed,0,1
;   temperatureRelayBetweenLayers,0,0
;   temperatureRelayBetweenLoops,0,0
;   fanLayers,1,2
;   fanSpeeds,0,100
;   blipFanToFullPower,0
;   adjustSpeedForCooling,1
;   minSpeedLayerTime,15
;   minCoolingSpeedSlowdown,25
;   increaseFanForCooling,0
;   minFanLayerTime,45
;   maxCoolingFanSpeed,100
;   increaseFanForBridging,0
;   bridgingFanSpeed,100
;   use5D,1
;   relativeEdistances,1
;   allowEaxisZeroing,1
;   independentExtruderAxes,0
;   includeM10123,0
;   stickySupport,1
;   applyToolheadOffsets,0
;   gcodeXoffset,0
;   gcodeYoffset,0
;   gcodeZoffset,0
;   overrideMachineDefinition,1
;   machineTypeOverride,0
;   strokeXoverride,150
;   strokeYoverride,150
;   strokeZoverride,150
;   originOffsetXoverride,0
;   originOffsetYoverride,0
;   originOffsetZoverride,0
;   homeXdirOverride,-1
;   homeYdirOverride,-1
;   homeZdirOverride,-1
;   flipXoverride,1
;   flipYoverride,-1
;   flipZoverride,1
;   toolheadOffsets,0,0|0,0|0,0|0,0|0,0|0,0
;   overrideFirmwareConfiguration,0
;   firmwareTypeOverride,RepRap (Marlin/Repetier/Sprinter)
;   GPXconfigOverride,r2
;   baudRateOverride,115200
;   overridePrinterModels,0
;   printerModelsOverride
;   startingGcode,G28 ; home all axes,G1 Z5 F3000 ; lift,G1 X5 Y10 F1500 ; move to prime,G1 Z0.2 F3000 ; get ready to prime,G92 E0 ; reset extrusion distance,G1 Y120 E10 F600 ; prime nozzle,G1 Y80 F5000 ; quick wipe,G92 E0 ; reset extrusion distance
;   layerChangeGcode,
;   retractionGcode,G10,G11
;   toolChangeGcode,
;   endingGcode,G28 X0 Y0; home x&y axis,M106 S0 ; turn off cooling fan,M104 S0 ; turn off extruder,M140 S0 ; turn off bed,M84 ; disable motors
;   createX3G,0
;   celebration,0
;   celebrationSong,Random Song
;   createMB5G,0
;   postProcessing,
;   defaultSpeed,3000
;   outlineUnderspeed,0.8
;   solidInfillUnderspeed,0.8
;   supportUnderspeed,1
;   rapidXYspeed,4800
;   rapidZspeed,480
;   minBridgingArea,50
;   bridgingExtraInflation,0
;   bridgingExtrusionMultiplier,1
;   bridgingSpeedMultiplier,1
;   filamentDiameter,1.75
;   filamentPricePerKg,46
;   filamentDensity,1.25
;   useMinPrintHeight,0
;   minPrintHeight,0
;   useMaxPrintHeight,0
;   maxPrintHeight,5
;   useDiaphragm,0
;   diaphragmLayerInterval,20
;   robustSlicing,1
;   mergeAllIntoSolid,0
;   onlyRetractWhenCrossingOutline,1
;   retractBetweenLayers,0
;   useRetractionMinTravel,1
;   retractionMinTravel,5
;   retractWhileWiping,0
;   onlyWipeOutlines,1
;   avoidCrossingOutline,1
;   maxMovementDetourFactor,8
;   toolChangeRetractionDistance,12
;   toolChangeExtraRestartDistance,-0.5
;   toolChangeRetractionSpeed,600
;   allowThinWallGapFill,1
;   thinWallAllowedOverlapPercentage,10
;   horizontalSizeCompensation,0
G90
M83
M106 S0
M140 S60
M190 S60
M104 S205 T0
M109 S205 T0
G28 ; home all axes
G1 Z5 F3000 ; lift
G1 X5 Y10 F1500 ; move to prime
G1 Z0.2 F3000 ; get ready to prime
G92 E0 ; reset extrusion distance
G1 Y120 E10 F600 ; prime nozzle
G1 Y80 F5000 ; quick wipe
G92 E0 ; reset extrusion distance
G10
G11
G1 E-6.5000 F1200
G1 Z0.200 F480
; layer 1, Z = 0.2
T0
; tool H0.200 W0.480
; inner perimeter
G1 X75.231 Y97.800 F4800
G1 E6.5500 F360
G1 X75.213 Y97.435 E0.0146 F1400
G1 X75.478 Y97.409 E0.0106
G1 X75.941 Y97.269 E0.0193
G1 X76.365 Y97.041 E0.0192
G1 X76.736 Y96.737 E0.0192
G1 X77.042 Y96.364 E0.0193
G1 X77.269 Y95.939 E0.0192
G1 X77.408 Y95.481 E0.0191
G1 X77.456 Y95.000 E0.0193
G1 X77.408 Y94.519 E0.0193
G1 X77.269 Y94.061 E0.0191
G1 X77.042 Y93.636 E0.0192
G1 X76.736 Y93.263 E0.0193
G1 X76.365 Y92.959 E0.0192
G1 X75.941 Y92.731 E0.0192
G1 X75.478 Y92.591 E0.0193
G1 X75.000 Y92.544 E0.0192
G1 X74.522 Y92.591 E0.0192
G1 X74.059 Y92.731 E0.0193
G1 X73.635 Y92.959 E0.0192
G1 X73.264 Y93.263 E0.0192
G1 X72.958 Y93.636 E0.0193
G1 X72.731 Y94.061 E0.0192
G1 X72.593 Y94.515 E0.0190
G1 X72.544 Y94.999 E0.0194
G1 X72.592 Y95.481 E0.0194
G1 X72.731 Y95.939 E0.0191
G1 X72.958 Y96.364 E0.0192
G1 X73.264 Y96.737 E0.0193
G1 X73.635 Y97.041 E0.0192
G1 X74.059 Y97.269 E0.0192
G1 X74.522 Y97.409 E0.0193
G1 X74.787 Y97.435 E0.0106
G1 X74.769 Y97.800 E0.0146
G1 X68.318 Y97.800 E0.2575
G1 X68.251 Y97.499 E0.0123
G1 X68.401 Y97.429 E0.0066
G1 X68.803 Y97.148 E0.0196
G1 X69.148 Y96.802 E0.0195
G1 X69.428 Y96.403 E0.0195
G1 X69.635 Y95.959 E0.0196
G1 X69.761 Y95.490 E0.0194
G1 X69.805 Y95.000 E0.0196
G1 X69.761 Y94.510 E0.0196
G1 X69.635 Y94.041 E0.0194
G1 X69.428 Y93.597 E0.0196
G1 X69.148 Y93.198 E0.0195
G1 X68.803 Y92.852 E0.0195
G1 X68.402 Y92.571 E0.0196
G1 X67.960 Y92.365 E0.0194
G1 X67.486 Y92.238 E0.0196
G1 X67.000 Y92.196 E0.0195
G1 X66.514 Y92.238 E0.0195
G1 X66.040 Y92.365 E0.0196
G1 X65.598 Y92.571 E0.0194
G1 X65.197 Y92.852 E0.0196
G1 X64.852 Y93.198 E0.0195
G1 X64.572 Y93.597 E0.0195
G1 X64.364 Y94.041 E0.0196
G1 X64.239 Y94.510 E0.0194
G1 X64.195 Y95.000 E0.0196
G1 X64.239 Y95.490 E0.0196
G1 X64.364 Y95.959 E0.0194
G1 X64.572 Y96.403 E0.0196
G1 X64.852 Y96.802 E0.0195
G1 X65.197 Y97.148 E0.0195
G1 X65.599 Y97.429 E0.0196
G1 X65.749 Y97.499 E0.0066
G1 X65.682 Y97.800 E0.0123
G1 X65.037 Y97.800 E0.0258
G1 X64.782 Y97.784 E0.0102
G1 X64.570 Y97.746 E0.0086
G1 X64.362 Y97.681 E0.0087
G1 X64.165 Y97.592 E0.0086
G1 X63.978 Y97.479 E0.0087
G1 X63.808 Y97.346 E0.0086
G1 X63.654 Y97.192 E0.0087
G1 X63.521 Y97.022 E0.0086
G1 X63.408 Y96.835 E0.0087
G1 X63.319 Y96.638 E0.0086
G1 X63.254 Y96.430 E0.0087
G1 X63.216 Y96.218 E0.0086
G1 X63.200 Y95.963 E0.0102
G1 X63.200 Y76.051 E0.7947
G1 X63.174 Y75.600 E0.0181
G1 X63.090 Y75.122 E0.0194
G1 X62.951 Y74.656 E0.0194
G1 X62.759 Y74.209 E0.0194
G1 X62.518 Y73.788 E0.0194
G1 X62.249 Y73.424 E0.0181
G1 X58.640 Y69.093 E0.2250
G1 X58.495 Y68.897 E0.0097
G1 X58.392 Y68.717 E0.0083
G1 X58.309 Y68.526 E0.0083
G1 X58.250 Y68.326 E0.0083
G1 X58.214 Y68.122 E0.0083
G1 X58.200 Y67.879 E0.0097
G1 X58.200 Y60.684 E0.2871
G1 X58.635 Y61.041 E0.0225
G1 X59.059 Y61.269 E0.0192
G1 X59.522 Y61.409 E0.0193
G1 X60.000 Y61.456 E0.0192
G1 X60.478 Y61.409 E0.0192
G1 X60.941 Y61.269 E0.0193
G1 X61.365 Y61.041 E0.0192
G1 X61.736 Y60.737 E0.0192
G1 X62.042 Y60.364 E0.0193
G1 X62.269 Y59.939 E0.0192
G1 X62.408 Y59.481 E0.0191
G1 X62.456 Y59.000 E0.0193
G1 X62.408 Y58.519 E0.0193
G1 X62.269 Y58.061 E0.0191
G1 X62.042 Y57.636 E0.0192
G1 X61.736 Y57.263 E0.0193
G1 X61.365 Y56.959 E0.0192
G1 X60.941 Y56.731 E0.0192
G1 X60.478 Y56.591 E0.0193
G1 X60.000 Y56.544 E0.0192
G1 X59.522 Y56.591 E0.0192
G1 X59.059 Y56.731 E0.0193
G1 X58.635 Y56.959 E0.0192
G1 X58.200 Y57.316 E0.0225
G1 X58.200 Y54.037 E0.1309
G1 X58.216 Y53.782 E0.0102
G1 X58.254 Y53.570 E0.0086
G1 X58.319 Y53.362 E0.0087
G1 X58.408 Y53.165 E0.0086
G1 X58.521 Y52.978 E0.0087
G1 X58.654 Y52.808 E0.0086
G1 X58.808 Y52.654 E0.0087
G1 X58.978 Y52.521 E0.0086
G1 X59.165 Y52.408 E0.0087
G1 X59.362 Y52.319 E0.0086
G1 X59.570 Y52.254 E0.0087
G1 X59.779 Y52.216 E0.0085
G1 X60.037 Y52.200 E0.0103
G1 X73.682 Y52.200 E0.5446
G1 X73.749 Y52.501 E0.0123
G1 X73.598 Y52.571 E0.0066
G1 X73.197 Y52.852 E0.0196
G1 X72.852 Y53.198 E0.0195
G1 X72.572 Y53.597 E0.0195
G1 X72.365 Y54.041 E0.0196
G1 X72.239 Y54.510 E0.0194
G1 X72.195 Y55.000 E0.0196
G1 X72.239 Y55.490 E0.0196
G1 X72.365 Y55.959 E0.0194
G1 X72.572 Y56.403 E0.0196
G1 X72.852 Y56.802 E0.0195
G1 X73.197 Y57.148 E0.0195
G1 X73.598 Y57.429 E0.0196
G1 X74.040 Y57.635 E0.0194
G1 X74.514 Y57.762 E0.0196
G1 X75.000 Y57.804 E0.0195
G1 X75.486 Y57.762 E0.0195
G1 X75.960 Y57.635 E0.0196
G1 X76.402 Y57.429 E0.0194
G1 X76.803 Y57.148 E0.0196
G1 X77.148 Y56.802 E0.0195
G1 X77.428 Y56.403 E0.0195
G1 X77.635 Y55.959 E0.0196
G1 X77.761 Y55.490 E0.0194
G1 X77.805 Y55.000 E0.0196
G1 X77.761 Y54.510 E0.0196
G1 X77.635 Y54.041 E0.0194
G1 X77.428 Y53.597 E0.0196
G1 X77.148 Y53.198 E0.0195
G1 X76.803 Y52.852 E0.0195
G1 X76.402 Y52.571 E0.0196
G1 X76.251 Y52.501 E0.0066
G1 X76.318 Y52.200 E0.0123
G1 X89.963 Y52.200 E0.5446
G1 X90.218 Y52.216 E0.0102
G1 X90.430 Y52.254 E0.0086
G1 X90.638 Y52.319 E0.0087
G1 X90.835 Y52.408 E0.0086
G1 X91.022 Y52.521 E0.0087
G1 X91.192 Y52.654 E0.0086
G1 X91.346 Y52.808 E0.0087
G1 X91.479 Y52.978 E0.0086
G1 X91.592 Y53.165 E0.0087
G1 X91.681 Y53.362 E0.0086
G1 X91.746 Y53.570 E0.0087
G1 X91.784 Y53.782 E0.0086
G1 X91.800 Y54.037 E0.0102
G1 X91.800 Y57.316 E0.1309
G1 X91.365 Y56.959 E0.0225
G1 X90.941 Y56.731 E0.0192
G1 X90.478 Y56.591 E0.0193
G1 X90.000 Y56.544 E0.0192
G1 X89.522 Y56.591 E0.0192
G1 X89.059 Y56.731 E0.0193
G1 X88.635 Y56.959 E0.0192
G1 X88.264 Y57.263 E0.0192
G1 X87.960 Y57.633 E0.0191
G1 X87.732 Y58.059 E0.0193
G1 X87.592 Y58.519 E0.0192
G1 X87.544 Y59.000 E0.0193
G1 X87.592 Y59.481 E0.0193
G1 X87.731 Y59.939 E0.0191
G1 X87.958 Y60.364 E0.0192
G1 X88.264 Y60.737 E0.0193
G1 X88.635 Y61.041 E0.0192
G1 X89.059 Y61.269 E0.0192
G1 X89.522 Y61.409 E0.0193
G1 X90.000 Y61.456 E0.0192
G1 X90.478 Y61.409 E0.0192
G1 X90.941 Y61.269 E0.0193
G1 X91.365 Y61.041 E0.0192
G1 X91.800 Y60.684 E0.0225
G1 X91.800 Y67.879 E0.2871
G1 X91.786 Y68.122 E0.0097
G1 X91.750 Y68.326 E0.0083
G1 X91.691 Y68.526 E0.0083
G1 X91.608 Y68.717 E0.0083
G1 X91.505 Y68.897 E0.0083
G1 X91.360 Y69.093 E0.0097
G1 X87.751 Y73.424 E0.2250
G1 X87.482 Y73.788 E0.0181
G1 X87.241 Y74.209 E0.0194
G1 X87.049 Y74.656 E0.0194
G1 X86.910 Y75.122 E0.0194
G1 X86.826 Y75.600 E0.0194
G1 X86.800 Y76.051 E0.0181
G1 X86.800 Y95.963 E0.7947
G1 X86.784 Y96.218 E0.0102
G1 X86.746 Y96.430 E0.0086
G1 X86.681 Y96.638 E0.0087
G1 X86.592 Y96.835 E0.0086
G1 X86.479 Y97.022 E0.0087
G1 X86.346 Y97.192 E0.0086
G1 X86.192 Y97.346 E0.0087
G1 X86.022 Y97.479 E0.0086
G1 X85.835 Y97.592 E0.0087
G1 X85.638 Y97.681 E0.0086
G1 X85.430 Y97.746 E0.0087
G1 X85.218 Y97.784 E0.0086
G1 X84.963 Y97.800 E0.0102
G1 X84.318 Y97.800 E0.0258
G1 X84.251 Y97.499 E0.0123
G1 X84.402 Y97.429 E0.0066
G1 X84.803 Y97.148 E0.0196
G1 X85.148 Y96.802 E0.0195
G1 X85.428 Y96.403 E0.0195
G1 X85.635 Y95.959 E0.0196
G1 X85.761 Y95.490 E0.0194
G1 X85.805 Y95.000 E0.0196
G1 X85.761 Y94.510 E0.0196
G1 X85.635 Y94.041 E0.0194
G1 X85.428 Y93.597 E0.0196
G1 X85.148 Y93.198 E0.0195
G1 X84.803 Y92.852 E0.0195
G1 X84.402 Y92.571 E0.0196
G1 X83.960 Y92.365 E0.0194
G1 X83.486 Y92.238 E0.0196
G1 X83.000 Y92.196 E0.0195
G1 X82.514 Y92.238 E0.0195
G1 X82.040 Y92.365 E0.0196
G1 X81.598 Y92.571 E0.0194
G1 X81.197 Y92.852 E0.0196
G1 X80.852 Y93.198 E0.0195
G1 X80.572 Y93.597 E0.0195
G1 X80.364 Y94.041 E0.0196
G1 X80.239 Y94.510 E0.0194
G1 X80.195 Y95.000 E0.0196
G1 X80.239 Y95.490 E0.0196
G1 X80.364 Y95.959 E0.0194
G1 X80.572 Y96.403 E0.0196
G1 X80.852 Y96.802 E0.0195
G1 X81.197 Y97.148 E0.0195
G1 X81.599 Y97.429 E0.0196
G1 X81.749 Y97.499 E0.0066
G1 X81.682 Y97.800 E0.0123
G1 X75.231 Y97.800 E0.2575
; inner perimeter
G1 X84.978 Y98.280 F4800
G1 X65.022 Y98.280 E0.7965 F1300
G1 X64.724 Y98.262 E0.0119
G1 X64.455 Y98.213 E0.0109
G1 X64.192 Y98.130 E0.0110
G1 X63.941 Y98.018 E0.0110
G1 X63.705 Y97.875 E0.0110
G1 X63.489 Y97.706 E0.0109
G1 X63.294 Y97.511 E0.0110
G1 X63.125 Y97.295 E0.0109
G1 X62.982 Y97.058 E0.0110
G1 X62.870 Y96.808 E0.0109
G1 X62.787 Y96.545 E0.0110
G1 X62.738 Y96.276 E0.0109
G1 X62.720 Y95.978 E0.0119
G1 X62.720 Y76.065 E0.7948
G1 X62.696 Y75.655 E0.0164
G1 X62.622 Y75.232 E0.0171
G1 X62.499 Y74.819 E0.0172
G1 X62.329 Y74.423 E0.0172
G1 X62.115 Y74.051 E0.0171
G1 X61.871 Y73.721 E0.0164
G1 X58.262 Y69.390 E0.2250
G1 X58.092 Y69.160 E0.0114
G1 X57.961 Y68.932 E0.0105
G1 X57.857 Y68.690 E0.0105
G1 X57.782 Y68.437 E0.0105
G1 X57.737 Y68.178 E0.0105
G1 X57.720 Y67.893 E0.0114
G1 X57.720 Y59.378 E0.3398
G1 X58.048 Y59.330 E0.0132
G1 X58.177 Y59.755 E0.0177
G1 X58.359 Y60.096 E0.0154
G1 X58.605 Y60.396 E0.0155
G1 X58.903 Y60.641 E0.0154
G1 X59.244 Y60.823 E0.0154
G1 X59.616 Y60.936 E0.0155
G1 X60.000 Y60.973 E0.0154
G1 X60.384 Y60.936 E0.0154
G1 X60.756 Y60.823 E0.0155
G1 X61.097 Y60.641 E0.0154
G1 X61.395 Y60.396 E0.0154
G1 X61.641 Y60.096 E0.0155
G1 X61.823 Y59.755 E0.0154
G1 X61.935 Y59.387 E0.0153
G1 X61.974 Y59.000 E0.0155
G1 X61.935 Y58.613 E0.0155
G1 X61.823 Y58.245 E0.0153
G1 X61.641 Y57.904 E0.0154
G1 X61.395 Y57.604 E0.0155
G1 X61.097 Y57.359 E0.0154
G1 X60.756 Y57.177 E0.0154
G1 X60.384 Y57.064 E0.0155
G1 X60.000 Y57.027 E0.0154
G1 X59.616 Y57.064 E0.0154
G1 X59.244 Y57.177 E0.0155
G1 X58.903 Y57.359 E0.0154
G1 X58.605 Y57.604 E0.0154
G1 X58.361 Y57.901 E0.0154
G1 X58.177 Y58.244 E0.0155
G1 X58.048 Y58.670 E0.0178
G1 X57.720 Y58.622 E0.0132
G1 X57.720 Y54.022 E0.1836
G1 X57.738 Y53.724 E0.0119
G1 X57.787 Y53.455 E0.0109
G1 X57.870 Y53.192 E0.0110
G1 X57.982 Y52.941 E0.0110
G1 X58.125 Y52.705 E0.0110
G1 X58.294 Y52.489 E0.0109
G1 X58.489 Y52.294 E0.0110
G1 X58.705 Y52.125 E0.0109
G1 X58.942 Y51.982 E0.0110
G1 X59.192 Y51.870 E0.0109
G1 X59.455 Y51.787 E0.0110
G1 X59.720 Y51.739 E0.0108
G1 X60.022 Y51.720 E0.0121
G1 X89.978 Y51.720 E1.1956
G1 X90.276 Y51.738 E0.0119
G1 X90.545 Y51.787 E0.0109
G1 X90.808 Y51.870 E0.0110
G1 X91.058 Y51.982 E0.0109
G1 X91.295 Y52.125 E0.0110
G1 X91.511 Y52.294 E0.0109
G1 X91.706 Y52.489 E0.0110
G1 X91.875 Y52.705 E0.0109
G1 X92.018 Y52.941 E0.0110
G1 X92.130 Y53.192 E0.0110
G1 X92.213 Y53.455 E0.0110
G1 X92.262 Y53.724 E0.0109
G1 X92.280 Y54.022 E0.0119
G1 X92.280 Y58.622 E0.1836
G1 X91.952 Y58.670 E0.0132
G1 X91.823 Y58.245 E0.0177
G1 X91.641 Y57.904 E0.0154
G1 X91.395 Y57.604 E0.0155
G1 X91.097 Y57.359 E0.0154
G1 X90.756 Y57.177 E0.0154
G1 X90.384 Y57.064 E0.0155
G1 X90.000 Y57.027 E0.0154
G1 X89.616 Y57.064 E0.0154
G1 X89.244 Y57.177 E0.0155
G1 X88.903 Y57.359 E0.0154
G1 X88.605 Y57.604 E0.0154
G1 X88.361 Y57.901 E0.0154
G1 X88.177 Y58.244 E0.0155
