; G-Code generated by Simplify3D(R) Version 3.0.2
; ¶þÔÂ 5, 2021 at 6:55:32 ÏÂÎç
; Settings Summary
;   processName,Process1
;   applyToModels,lk25_phm4v2
;   profileName,ZONESTAR Single Extruder 3D Printer(300x300x400) (modified)
;   profileVersion,2021-02-03 12:23:59
;   baseProfile,Default (modified)
;   printMaterial,PLA
;   printQuality,Medium
;   printExtruders,
;   extruderName,Primary Extruder
;   extruderToolheadNumber,0
;   extruderDiameter,0.4
;   extruderAutoWidth,1
;   extruderWidth,0.48
;   extrusionMultiplier,1.2
;   extruderUseRetract,1
;   extruderRetractionDistance,8
;   extruderExtraRestartDistance,0.05
;   extruderRetractionZLift,0
;   extruderRetractionSpeed,1500
;   extruderUseCoasting,0
;   extruderCoastingDistance,0.2
;   extruderUseWipe,1
;   extruderWipeDistance,1.5
;   primaryExtruder,0
;   layerHeight,0.3
;   topSolidLayers,3
;   bottomSolidLayers,3
;   perimeterOutlines,3
;   printPerimetersInsideOut,1
;   startPointOption,3
;   startPointOriginX,155
;   startPointOriginY,310
;   startPointOriginZ,300
;   sequentialIslands,0
;   spiralVaseMode,0
;   firstLayerHeightPercentage,100
;   firstLayerWidthPercentage,100
;   firstLayerUnderspeed,0.5
;   useRaft,0
;   raftExtruder,0
;   raftLayers,3
;   raftOffset,20
;   raftSeparationDistance,0
;   raftInfill,85
;   disableRaftBaseLayers,0
;   useSkirt,0
;   skirtExtruder,0
;   skirtLayers,1
;   skirtOutlines,10
;   skirtOffset,0
;   usePrimePillar,0
;   primePillarExtruder,999
;   primePillarWidth,12
;   primePillarLocation,7
;   primePillarSpeedMultiplier,1
;   useOozeShield,0
;   oozeShieldExtruder,999
;   oozeShieldOffset,2
;   oozeShieldOutlines,1
;   oozeShieldSidewallShape,1
;   oozeShieldSidewallAngle,30
;   oozeShieldSpeedMultiplier,1
;   infillExtruder,0
;   internalInfillPattern,Fast Honeycomb
;   externalInfillPattern,Concentric
;   infillPercentage,20
;   outlineOverlapPercentage,15
;   infillExtrusionWidthPercentage,90
;   minInfillLength,5
;   infillLayerInterval,1
;   infillAngles,0
;   overlapInfillAngles,0
;   generateSupport,0
;   supportExtruder,0
;   supportInfillPercentage,20
;   supportExtraInflation,0
;   denseSupportLayers,0
;   denseSupportInfillPercentage,70
;   supportLayerInterval,1
;   supportHorizontalPartOffset,0.3
;   supportUpperSeparationLayers,1
;   supportLowerSeparationLayers,1
;   supportType,1
;   supportGridSpacing,4
;   maxOverhangAngle,15
;   supportAngles,0
;   temperatureName,Primary Extruder,bed
;   temperatureNumber,0,0
;   temperatureSetpointCount,1,1
;   temperatureSetpointLayers,1,1
;   temperatureSetpointTemperatures,205,60
;   temperatureStabilizeAtStartup,1,1
;   temperatureHeatedBed,0,1
;   temperatureRelayBetweenLayers,0,0
;   temperatureRelayBetweenLoops,0,0
;   fanLayers,1,3
;   fanSpeeds,0,100
;   blipFanToFullPower,0
;   adjustSpeedForCooling,1
;   minSpeedLayerTime,20
;   minCoolingSpeedSlowdown,20
;   increaseFanForCooling,0
;   minFanLayerTime,45
;   maxCoolingFanSpeed,100
;   increaseFanForBridging,0
;   bridgingFanSpeed,100
;   use5D,1
;   relativeEdistances,0
;   allowEaxisZeroing,1
;   independentExtruderAxes,0
;   includeM10123,0
;   stickySupport,1
;   applyToolheadOffsets,0
;   gcodeXoffset,0
;   gcodeYoffset,0
;   gcodeZoffset,0
;   overrideMachineDefinition,1
;   machineTypeOverride,0
;   strokeXoverride,300
;   strokeYoverride,300
;   strokeZoverride,400
;   originOffsetXoverride,0
;   originOffsetYoverride,0
;   originOffsetZoverride,0
;   homeXdirOverride,-1
;   homeYdirOverride,-1
;   homeZdirOverride,-1
;   flipXoverride,1
;   flipYoverride,-1
;   flipZoverride,1
;   toolheadOffsets,0,0|0,0|0,0|0,0|0,0|0,0
;   overrideFirmwareConfiguration,0
;   firmwareTypeOverride,RepRap (Marlin/Repetier/Sprinter)
;   GPXconfigOverride,r2
;   baudRateOverride,115200
;   overridePrinterModels,0
;   printerModelsOverride
;   startingGcode,G28 ; home all axes,G1 Z5 F3000 ; lift,G1 X5 Y10 F1500 ; move to prime,G1 Z0.2 F3000 ; get ready to prime,G92 E0 ; reset extrusion distance,G1 Y80 E10 F600 ; prime nozzle,G1 Y100 F5000 ; quick wipe,,
;   layerChangeGcode,
;   retractionGcode,
;   toolChangeGcode,
;   endingGcode,G28 X0 Y0,M106 S0 ; turn off FAN,M104 S0 ; turn off extruder,M140 S0 ; turn off bed,M84 ; disable motors
;   createX3G,0
;   celebration,0
;   celebrationSong,Random Song
;   createMB5G,0
;   postProcessing,
;   defaultSpeed,3000
;   outlineUnderspeed,1
;   solidInfillUnderspeed,0.6
;   supportUnderspeed,1
;   rapidXYspeed,3000
;   rapidZspeed,480
;   minBridgingArea,50
;   bridgingExtraInflation,0
;   bridgingExtrusionMultiplier,1
;   bridgingSpeedMultiplier,1
;   filamentDiameter,1.75
;   filamentPricePerKg,46
;   filamentDensity,1.25
;   useMinPrintHeight,0
;   minPrintHeight,0
;   useMaxPrintHeight,0
;   maxPrintHeight,129.81
;   useDiaphragm,0
;   diaphragmLayerInterval,20
;   robustSlicing,1
;   mergeAllIntoSolid,0
;   onlyRetractWhenCrossingOutline,1
;   retractBetweenLayers,0
;   useRetractionMinTravel,1
;   retractionMinTravel,3
;   retractWhileWiping,0
;   onlyWipeOutlines,1
;   avoidCrossingOutline,1
;   maxMovementDetourFactor,3
;   toolChangeRetractionDistance,8
;   toolChangeExtraRestartDistance,-0.5
;   toolChangeRetractionSpeed,600
;   allowThinWallGapFill,1
;   thinWallAllowedOverlapPercentage,10
;   horizontalSizeCompensation,0
G90
M82
M106 S0
M140 S60
M190 S60
M104 S205 T0
M109 S205 T0
G28 ; home all axes
G1 Z5 F3000 ; lift
G1 X5 Y10 F1500 ; move to prime
G1 Z0.2 F3000 ; get ready to prime
G92 E0 ; reset extrusion distance
G1 Y80 E10 F600 ; prime nozzle
G1 Y100 F5000 ; quick wipe
G92 E0
G1 E-8.0000 F1500
G1 Z0.300 F480
; layer 1, Z = 0.3
T0
; tool H0.300 W0.480
; inner perimeter
G1 X163.800 Y162.548 F3000
G1 E0.0500 F450
G92 E0
G1 X136.200 Y162.548 E1.9828 F1500
G1 X136.200 Y137.043 E3.8152
G1 X136.211 Y136.886 E3.8265
G1 X136.235 Y136.776 E3.8346
G1 X136.275 Y136.669 E3.8428
G1 X136.330 Y136.569 E3.8509
G1 X136.398 Y136.478 E3.8591
G1 X136.478 Y136.398 E3.8673
G1 X136.569 Y136.330 E3.8755
G1 X136.669 Y136.275 E3.8836
G1 X136.776 Y136.235 E3.8918
G1 X136.886 Y136.211 E3.8999
G1 X137.035 Y136.201 E3.9106
G1 X149.658 Y136.200 E4.8175
G1 X149.694 Y136.544 E4.8423
G1 X149.042 Y136.683 E4.8902
G1 X148.599 Y136.846 E4.9241
G1 X148.340 Y136.974 E4.9449
G1 X147.961 Y137.216 E4.9772
G1 X147.735 Y137.396 E4.9979
G1 X147.415 Y137.713 E5.0303
G1 X147.233 Y137.937 E5.0510
G1 X146.988 Y138.314 E5.0834
G1 X146.858 Y138.572 E5.1041
G1 X146.699 Y138.993 E5.1364
G1 X146.626 Y139.273 E5.1572
G1 X146.557 Y139.738 E5.1910
G1 X146.556 Y140.225 E5.2259
G1 X146.586 Y140.502 E5.2460
G1 X146.683 Y140.958 E5.2795
G1 X146.846 Y141.401 E5.3134
G1 X146.974 Y141.660 E5.3341
G1 X147.216 Y142.039 E5.3665
G1 X147.396 Y142.265 E5.3872
G1 X147.713 Y142.585 E5.4195
G1 X147.937 Y142.767 E5.4403
G1 X148.314 Y143.012 E5.4726
G1 X148.572 Y143.142 E5.4934
G1 X148.993 Y143.301 E5.5257
G1 X149.252 Y143.368 E5.5449
G1 X149.515 Y143.417 E5.5641
G1 X149.985 Y143.453 E5.5980
G1 X150.477 Y143.419 E5.6334
G1 X150.958 Y143.317 E5.6687
G1 X151.401 Y143.154 E5.7026
G1 X151.660 Y143.026 E5.7234
G1 X152.039 Y142.784 E5.7557
G1 X152.265 Y142.604 E5.7765
G1 X152.585 Y142.287 E5.8088
G1 X152.767 Y142.063 E5.8295
G1 X153.012 Y141.686 E5.8619
G1 X153.142 Y141.428 E5.8826
G1 X153.301 Y141.007 E5.9150
G1 X153.374 Y140.727 E5.9357
G1 X153.439 Y140.285 E5.9679
G1 X153.451 Y139.994 E5.9888
G1 X153.419 Y139.522 E6.0228
G1 X153.317 Y139.042 E6.0580
G1 X153.154 Y138.599 E6.0919
G1 X153.026 Y138.340 E6.1126
G1 X152.784 Y137.961 E6.1450
G1 X152.604 Y137.735 E6.1657
G1 X152.287 Y137.415 E6.1981
G1 X152.063 Y137.233 E6.2188
G1 X151.685 Y136.988 E6.2512
G1 X151.428 Y136.858 E6.2719
G1 X151.007 Y136.699 E6.3042
G1 X150.748 Y136.632 E6.3234
G1 X150.485 Y136.583 E6.3427
G1 X150.309 Y136.569 E6.3553
G1 X150.324 Y136.200 E6.3819
G1 X162.957 Y136.200 E7.2895
G1 X163.114 Y136.211 E7.3008
G1 X163.224 Y136.235 E7.3089
G1 X163.331 Y136.275 E7.3171
G1 X163.431 Y136.330 E7.3252
G1 X163.522 Y136.398 E7.3334
G1 X163.602 Y136.478 E7.3416
G1 X163.670 Y136.569 E7.3497
G1 X163.725 Y136.669 E7.3579
G1 X163.765 Y136.776 E7.3661
G1 X163.789 Y136.886 E7.3742
G1 X163.800 Y137.043 E7.3855
G1 X163.800 Y162.548 E9.2179
; inner perimeter
G1 X164.280 Y163.028 F3000
G92 E0
G1 X135.720 Y163.028 E2.0518 F1500
G1 X135.720 Y137.026 E3.9199
G1 X135.735 Y136.817 E3.9349
G1 X135.774 Y136.640 E3.9479
G1 X135.837 Y136.469 E3.9610
G1 X135.925 Y136.309 E3.9741
G1 X136.034 Y136.163 E3.9872
G1 X136.163 Y136.034 E4.0003
G1 X136.309 Y135.925 E4.0134
G1 X136.469 Y135.837 E4.0265
G1 X136.640 Y135.774 E4.0397
G1 X136.817 Y135.735 E4.0527
G1 X137.017 Y135.721 E4.0671
G1 X162.974 Y135.720 E5.9319
G1 X163.183 Y135.735 E5.9469
G1 X163.360 Y135.774 E5.9599
G1 X163.531 Y135.837 E5.9730
G1 X163.691 Y135.925 E5.9861
G1 X163.837 Y136.034 E5.9992
G1 X163.966 Y136.163 E6.0124
G1 X164.075 Y136.309 E6.0254
G1 X164.163 Y136.469 E6.0385
G1 X164.226 Y136.640 E6.0517
G1 X164.265 Y136.817 E6.0647
G1 X164.280 Y137.026 E6.0797
G1 X164.280 Y163.028 E7.9478
; outer perimeter
G1 X164.760 Y163.508 F3000
G92 E0
G1 X135.240 Y163.508 E2.1208 F1500
G1 X135.240 Y137.009 E4.0246
G1 X135.259 Y136.749 E4.0433
G1 X135.312 Y136.505 E4.0612
G1 X135.400 Y136.269 E4.0793
G1 X135.520 Y136.049 E4.0973
G1 X135.670 Y135.848 E4.1153
G1 X135.848 Y135.670 E4.1334
G1 X136.049 Y135.520 E4.1514
G1 X136.269 Y135.400 E4.1694
G1 X136.505 Y135.312 E4.1875
G1 X136.749 Y135.259 E4.2054
G1 X137.000 Y135.241 E4.2236
G1 X162.991 Y135.240 E6.0908
G1 X163.251 Y135.259 E6.1096
G1 X163.495 Y135.312 E6.1275
G1 X163.731 Y135.400 E6.1456
G1 X163.951 Y135.520 E6.1636
G1 X164.152 Y135.670 E6.1816
G1 X164.330 Y135.848 E6.1997
G1 X164.480 Y136.049 E6.2177
G1 X164.600 Y136.269 E6.2357
G1 X164.688 Y136.505 E6.2538
G1 X164.741 Y136.749 E6.2717
G1 X164.760 Y137.009 E6.2904
G1 X164.760 Y163.508 E8.1942
G1 X163.260 Y163.508 F3000
; inner perimeter
G1 X149.985 Y153.453 F3000
G92 E0
G1 X150.477 Y153.419 E0.0354 F1500
G1 X150.958 Y153.317 E0.0707
G1 X151.401 Y153.154 E0.1046
G1 X151.660 Y153.026 E0.1254
G1 X152.039 Y152.784 E0.1577
G1 X152.265 Y152.604 E0.1785
G1 X152.585 Y152.287 E0.2108
G1 X152.767 Y152.063 E0.2315
G1 X153.012 Y151.686 E0.2639
G1 X153.142 Y151.428 E0.2846
G1 X153.301 Y151.007 E0.3170
G1 X153.374 Y150.727 E0.3377
G1 X153.439 Y150.285 E0.3699
G1 X153.451 Y149.994 E0.3908
G1 X153.419 Y149.522 E0.4248
G1 X153.317 Y149.042 E0.4600
G1 X153.154 Y148.599 E0.4939
G1 X153.026 Y148.340 E0.5146
G1 X152.784 Y147.961 E0.5470
G1 X152.604 Y147.735 E0.5677
G1 X152.287 Y147.415 E0.6001
G1 X152.063 Y147.233 E0.6208
G1 X151.685 Y146.988 E0.6531
G1 X151.428 Y146.858 E0.6739
G1 X151.007 Y146.699 E0.7062
G1 X150.748 Y146.632 E0.7254
G1 X150.485 Y146.583 E0.7447
G1 X150.015 Y146.547 E0.7785
G1 X149.523 Y146.581 E0.8139
G1 X149.042 Y146.683 E0.8493
G1 X148.599 Y146.846 E0.8832
G1 X148.340 Y146.974 E0.9039
G1 X147.961 Y147.216 E0.9363
G1 X147.735 Y147.396 E0.9570
G1 X147.415 Y147.713 E0.9893
G1 X147.233 Y147.937 E1.0101
G1 X146.988 Y148.314 E1.0424
G1 X146.858 Y148.572 E1.0632
G1 X146.699 Y148.993 E1.0955
G1 X146.626 Y149.273 E1.1162
G1 X146.557 Y149.738 E1.1501
G1 X146.556 Y150.225 E1.1850
G1 X146.586 Y150.502 E1.2050
G1 X146.683 Y150.958 E1.2385
G1 X146.846 Y151.401 E1.2724
G1 X146.974 Y151.660 E1.2932
G1 X147.216 Y152.039 E1.3255
G1 X147.396 Y152.265 E1.3463
G1 X147.713 Y152.585 E1.3786
G1 X147.937 Y152.767 E1.3993
G1 X148.314 Y153.012 E1.4317
G1 X148.572 Y153.142 E1.4524
G1 X148.993 Y153.301 E1.4848
G1 X149.252 Y153.368 E1.5040
G1 X149.515 Y153.417 E1.5232
G1 X149.985 Y153.453 E1.5571
; inner perimeter
G1 X149.987 Y152.971 F3000
G92 E0
G1 X150.411 Y152.943 E0.0305 F1500
G1 X150.824 Y152.855 E0.0609
G1 X151.211 Y152.713 E0.0905
G1 X151.424 Y152.607 E0.1075
G1 X151.760 Y152.393 E0.1361
G1 X151.945 Y152.245 E0.1532
G1 X152.228 Y151.964 E0.1818
G1 X152.378 Y151.780 E0.1989
G1 X152.595 Y151.446 E0.2275
G1 X152.702 Y151.234 E0.2446
G1 X152.843 Y150.861 E0.2732
G1 X152.903 Y150.631 E0.2903
G1 X152.961 Y150.239 E0.3187
G1 X152.971 Y150.000 E0.3359
G1 X152.943 Y149.588 E0.3656
G1 X152.855 Y149.175 E0.3959
G1 X152.713 Y148.789 E0.4255
G1 X152.607 Y148.577 E0.4425
G1 X152.393 Y148.240 E0.4712
G1 X152.245 Y148.055 E0.4882
G1 X151.964 Y147.772 E0.5169
G1 X151.780 Y147.622 E0.5339
G1 X151.446 Y147.405 E0.5626
G1 X151.234 Y147.298 E0.5796
G1 X150.861 Y147.157 E0.6082
G1 X150.644 Y147.100 E0.6244
G1 X150.423 Y147.060 E0.6405
G1 X150.013 Y147.028 E0.6701
G1 X149.589 Y147.057 E0.7006
G1 X149.176 Y147.145 E0.7309
G1 X148.789 Y147.287 E0.7605
G1 X148.577 Y147.393 E0.7776
G1 X148.240 Y147.607 E0.8062
G1 X148.055 Y147.755 E0.8233
G1 X147.772 Y148.036 E0.8519
G1 X147.622 Y148.220 E0.8690
G1 X147.405 Y148.554 E0.8976
G1 X147.298 Y148.766 E0.9146
G1 X147.157 Y149.139 E0.9433
G1 X147.097 Y149.368 E0.9603
G1 X147.037 Y149.774 E0.9898
G1 X147.036 Y150.200 E1.0204
G1 X147.060 Y150.426 E1.0367
G1 X147.145 Y150.825 E1.0660
G1 X147.287 Y151.211 E1.0956
G1 X147.393 Y151.423 E1.1126
G1 X147.607 Y151.760 E1.1413
G1 X147.755 Y151.945 E1.1583
G1 X148.036 Y152.228 E1.1870
G1 X148.220 Y152.378 E1.2040
G1 X148.554 Y152.595 E1.2326
G1 X148.766 Y152.702 E1.2497
G1 X149.139 Y152.843 E1.2783
G1 X149.356 Y152.900 E1.2944
G1 X149.577 Y152.940 E1.3106
G1 X149.987 Y152.971 E1.3401
; outer perimeter
G1 X149.989 Y152.490 F3000
G92 E0
G1 X150.344 Y152.466 E0.0255 F1500
G1 X150.691 Y152.392 E0.0510
G1 X151.021 Y152.271 E0.0763
G1 X151.187 Y152.189 E0.0896
G1 X151.480 Y152.002 E0.1146
G1 X151.625 Y151.886 E0.1279
G1 X151.872 Y151.642 E0.1529
G1 X151.989 Y151.498 E0.1662
G1 X152.178 Y151.206 E0.1912
G1 X152.262 Y151.040 E0.2045
G1 X152.385 Y150.715 E0.2295
G1 X152.432 Y150.536 E0.2428
G1 X152.482 Y150.194 E0.2676
G1 X152.490 Y150.007 E0.2811
G1 X152.466 Y149.655 E0.3064
G1 X152.392 Y149.309 E0.3318
G1 X152.271 Y148.979 E0.3571
G1 X152.189 Y148.813 E0.3704
G1 X152.002 Y148.520 E0.3954
G1 X151.886 Y148.375 E0.4087
G1 X151.642 Y148.128 E0.4337
G1 X151.498 Y148.011 E0.4470
G1 X151.206 Y147.822 E0.4720
G1 X151.040 Y147.738 E0.4853
G1 X150.715 Y147.615 E0.5103
G1 X150.540 Y147.569 E0.5233
G1 X150.361 Y147.536 E0.5364
G1 X150.011 Y147.510 E0.5616
G1 X149.656 Y147.534 E0.5872
G1 X149.309 Y147.608 E0.6126
G1 X148.979 Y147.729 E0.6379
G1 X148.813 Y147.811 E0.6512
G1 X148.520 Y147.998 E0.6762
G1 X148.375 Y148.114 E0.6895
G1 X148.128 Y148.358 E0.7145
G1 X148.011 Y148.502 E0.7278
G1 X147.822 Y148.794 E0.7528
G1 X147.738 Y148.960 E0.7661
G1 X147.615 Y149.284 E0.7911
G1 X147.568 Y149.464 E0.8044
G1 X147.517 Y149.810 E0.8296
G1 X147.516 Y150.175 E0.8557
G1 X147.535 Y150.350 E0.8684
G1 X147.608 Y150.691 E0.8935
G1 X147.729 Y151.021 E0.9187
G1 X147.811 Y151.187 E0.9321
G1 X147.998 Y151.480 E0.9570
G1 X148.114 Y151.625 E0.9703
G1 X148.358 Y151.872 E0.9953
G1 X148.502 Y151.989 E1.0086
G1 X148.794 Y152.178 E1.0336
G1 X148.960 Y152.262 E1.0469
G1 X149.284 Y152.385 E1.0719
G1 X149.460 Y152.431 E1.0849
G1 X149.639 Y152.464 E1.0980
G1 X149.989 Y152.490 E1.1232
G1 X150.344 Y152.466 F3000
G1 X150.691 Y152.392 F3000
G1 X151.021 Y152.271 F3000
G1 X151.187 Y152.189 F3000
G1 X151.400 Y152.053 F3000
; inner perimeter
; inner perimeter
G1 X151.400 Y152.048 F3000
G1 X151.478 Y151.998 F3000
G1 X151.622 Y151.883 F3000
G1 X151.869 Y151.638 F3000
G1 X151.985 Y151.495 F3000
G1 X152.174 Y151.204 F3000
G1 X152.258 Y151.038 F3000
G1 X152.380 Y150.714 F3000
G1 X152.427 Y150.535 F3000
G1 X152.477 Y150.194 F3000
G1 X152.485 Y150.007 F3000
G1 X152.461 Y149.655 F3000
G1 X152.388 Y149.310 F3000
G1 X152.267 Y148.981 F3000
G1 X152.184 Y148.815 F3000
G1 X151.998 Y148.522 F3000
G1 X151.883 Y148.378 F3000
G1 X151.638 Y148.131 F3000
G1 X151.495 Y148.015 F3000
G1 X151.204 Y147.826 F3000
G1 X151.038 Y147.742 F3000
G1 X150.714 Y147.620 F3000
G1 X150.710 Y147.619 F3000
G1 X149.987 Y142.971 F3000
G92 E0
G1 X150.411 Y142.943 E0.0305 F1500
G1 X150.824 Y142.855 E0.0609
G1 X151.211 Y142.713 E0.0905
G1 X151.424 Y142.607 E0.1075
G1 X151.760 Y142.393 E0.1361
G1 X151.945 Y142.245 E0.1532
G1 X152.228 Y141.964 E0.1818
G1 X152.378 Y141.780 E0.1989
G1 X152.595 Y141.446 E0.2275
G1 X152.702 Y141.234 E0.2446
G1 X152.843 Y140.861 E0.2732
