M106 S0 ;laser power off
;========START========
;Generated with ZONESTAR Laser Cut Gcode generator V1
G90 ;
G28	;Home all
G21 ;units in mm
M0 turn on laser power and press knob ;Wait for laser turn on 
G1 Z20 F400 ;Move up Z axis
G1 F1200
G1  X57.4742 Y12.0916
M106 S255
G4 P20
G1 F480.000000
G1  X56.4588 Y12.2884
G1  X55.458 Y13.0958
G1  X54.4572 Y13.9033
G1  X54.3722 Y14.6155
G1  X54.2871 Y15.3277
G1  X53.8895 Y15.3277
G1  X53.4919 Y15.3277
G1  X52.8321 Y15.9875
G1  X52.1723 Y16.6473
G1  X52.1723 Y17.2788
G1  X52.1723 Y17.9104
G1  X51.2691 Y18.7857
G1  X50.366 Y19.6611
G1  X50.0286 Y20.7874
G1  X49.6913 Y21.9137
G1  X48.8616 Y22.9889
G1  X48.032 Y24.0642
G1  X44.8997 Y27.5698
G1  X41.7675 Y31.0755
G1  X41.4591 Y31.6516
G1  X41.1508 Y32.2278
G1  X41.1508 Y32.778
G1  X41.1508 Y33.3281
G1  X40.4116 Y33.4918
G1  X39.6723 Y33.6555
G1  X38.7314 Y33.9361
G1  X37.7906 Y34.2167
G1  X37.054 Y34.5895
G1  X36.3174 Y34.9624
G1  X35.7771 Y36.0214
G1  X35.2368 Y37.0804
G1  X35.2368 Y37.8036
G1  X35.2368 Y38.5267
G1  X35.9444 Y39.973
G1  X36.652 Y41.4192
G1  X36.5224 Y43.2299
G1  X36.3929 Y45.0406
G1  X35.8451 Y46.2788
G1  X35.2974 Y47.5171
G1  X34.2591 Y48.668
G1  X33.2207 Y49.819
G1  X30.0792 Y52.4653
G1  X26.9377 Y55.1116
G1  X26.1123 Y56.7922
G1  X25.287 Y58.4727
G1  X24.8856 Y60.5797
G1  X24.4842 Y62.6867
G1  X24.48 Y63.6711
G1  X24.4759 Y64.6555
G1  X24.2413 Y65.026
G1  X24.0066 Y65.3964
G1  X23.7059 Y65.2106
G1  X23.4051 Y65.0247
G1  X22.9748 Y64.1927
G1  X22.5446 Y63.3607
G1  X22.0291 Y61.5004
G1  X21.5136 Y59.6401
G1  X20.7303 Y58.0884
G1  X19.947 Y56.5367
G1  X19.2341 Y55.6895
G1  X18.5212 Y54.8423
G1  X18.2769 Y54.9933
G1  X18.0325 Y55.1443
G1  X18.0325 Y55.8408
G1  X18.0325 Y56.5373
G1  X17.2605 Y55.4715
G1  X16.4885 Y54.4058
G1  X15.4002 Y53.5438
G1  X14.3119 Y52.6819
G1  X13.1058 Y52.1484
G1  X11.8998 Y51.6149
G1  X10.2887 Y51.4465
G1  X8.6776 Y51.2781
G1  X6.8901 Y51.6154
G1  X5.1026 Y51.9527
G1  X5.1832 Y52.3681
G1  X5.2638 Y52.7835
G1  X6.675 Y53.176
G1  X8.0863 Y53.5685
G1  X8.0863 Y53.8029
G1  X8.0863 Y54.0373
G1  X7.6159 Y54.0401
G1  X7.1455 Y54.0429
G1  X5.7474 Y54.6938
G1  X4.3493 Y55.3448
G1  X3.3507 Y56.3713
G1  X2.3521 Y57.3979
G1  X1.5986 Y59.0108
G1  X0.845 Y60.6237
G1  X0.6652 Y62.1694
G1  X0.4854 Y63.7151
G1  X0.7778 Y63.7151
G1  X1.0701 Y63.7151
G1  X2.2261 Y62.9356
G1  X3.382 Y62.1561
G1  X4.799 Y61.6931
G1  X6.2161 Y61.2301
G1  X7.6216 Y61.3505
G1  X9.0272 Y61.4708
G1  X10.3667 Y62.0679
G1  X11.7063 Y62.665
G1  X11.3098 Y62.91
G1  X10.9134 Y63.155
G1  X11.18 Y63.3849
G1  X11.4465 Y63.6148
G1  X12.9638 Y64.0729
G1  X14.481 Y64.531
G1  X15.5175 Y65.7982
G1  X16.5541 Y67.0654
G1  X17.3605 Y67.7922
G1  X18.167 Y68.5191
G1  X19.3766 Y69.1412
G1  X20.5863 Y69.7634
G1  X23.4345 Y69.7636
G1  X26.2828 Y69.7638
G1  X28.4268 Y71.7808
G1  X30.5709 Y73.7978
G1  X32.299 Y74.6334
G1  X34.0271 Y75.469
G1  X35.5056 Y75.8394
G1  X36.9841 Y76.2098
G1  X40.6132 Y76.1886
G1  X44.2422 Y76.1673
G1  X48.5432 Y75.2591
G1  X52.8443 Y74.3509
G1  X57.1454 Y74.3571
G1  X61.4464 Y74.3633
G1  X63.9348 Y74.976
G1  X66.4231 Y75.5887
G1  X66.2957 Y75.7948
G1  X66.1683 Y76.0009
G1  X64.9498 Y76.4663
G1  X63.7314 Y76.9316
G1  X63.7314 Y77.447
G1  X63.7314 Y77.9624
G1  X65.6803 Y77.9681
G1  X67.6292 Y77.9737
G1  X69.511 Y78.6389
G1  X71.3927 Y79.3041
G1  X71.91 Y79.3053
G1  X72.4272 Y79.3064
G1  X71.8518 Y79.9189
G1  X71.2764 Y80.5314
G1  X70.9057 Y81.599
G1  X70.5349 Y82.6666
G1  X70.3678 Y83.5298
G1  X70.2006 Y84.3931
G1  X70.4631 Y84.5553
G1  X70.7257 Y84.7176
G1  X72.4491 Y84.0281
G1  X74.1725 Y83.3386
G1  X74.9919 Y83.3386
G1  X75.8113 Y83.3386
G1  X75.6644 Y83.7213
G1  X75.5176 Y84.1039
G1  X76.0187 Y84.3721
G1  X76.5199 Y84.6403
G1  X78.7553 Y85.0643
G1  X80.9906 Y85.4883
G1  X82.1056 Y85.9879
G1  X83.2206 Y86.4874
G1  X84.6902 Y87.6
G1  X86.1598 Y88.7125
G1  X87.017 Y88.8733
G1  X87.8741 Y89.0341
G1  X89.5313 Y88.9417
G1  X91.1886 Y88.8494
G1  X91.0636 Y89.5009
G1  X90.9386 Y90.1524
G1  X91.3239 Y91.4498
G1  X91.7091 Y92.7473
G1  X92.23 Y92.7473
G1  X92.7507 Y92.7473
G1  X93.2829 Y91.7392
G1  X93.8151 Y90.7311
G1  X93.8269 Y91.5828
G1  X93.8388 Y92.4345
G1  X94.002 Y92.8597
G1  X94.1651 Y93.2849
G1  X94.6678 Y93.2849
G1  X95.1705 Y93.2849
G1  X95.5479 Y92.6801
G1  X95.9254 Y92.0752
G1  X96.0871 Y91.3749
G1  X96.2489 Y90.6746
G1  X97.7658 Y89.2244
G1  X99.2827 Y87.7742
G1  X100.2914 Y85.6236
G1  X101.3001 Y83.4731
G1  X103.2193 Y81.0537
G1  X105.1385 Y78.6344
G1  X106.9882 Y76.215
G1  X108.8379 Y73.7957
G1  X109.8061 Y72.8693
G1  X110.7742 Y71.9429
G1  X110.7742 Y70.6857
G1  X110.7742 Y69.4286
G1  X110.2464 Y68.2352
G1  X109.7185 Y67.0419
G1  X109.1991 Y66.5718
G1  X108.6798 Y66.1018
G1  X106.9151 Y65.8519
G1  X105.1504 Y65.602
G1  X104.5239 Y65.8402
G1  X103.8973 Y66.0784
G1  X103.594 Y66.4439
G1  X103.2906 Y66.8095
G1  X103.1038 Y67.5539
G1  X102.9169 Y68.2984
G1  X101.7699 Y68.9706
G1  X100.623 Y69.6428
G1  X98.9571 Y70.2053
G1  X97.2913 Y70.7679
G1  X96.1004 Y71.677
G1  X94.9094 Y72.586
G1  X94.6646 Y72.586
G1  X94.4197 Y72.586
G1  X92.9564 Y71.2486
G1  X91.493 Y69.9112
G1  X90.5418 Y68.09
G1  X89.5905 Y66.2688
G1  X88.8873 Y64.5215
G1  X88.1841 Y62.7742
G1  X86.117 Y58.7059
G1  X84.0498 Y54.6375
G1  X85.2053 Y53.1071
G1  X86.3608 Y51.5767
G1  X88.9573 Y48.9694
G1  X91.5539 Y46.362
G1  X94.305 Y44.1417
G1  X97.0562 Y41.9213
G1  X97.3061 Y41.4544
G1  X97.5559 Y40.9875
G1  X98.0042 Y39.2465
G1  X98.4526 Y37.5054
G1  X99.8894 Y34.4141
G1  X101.3263 Y31.3227
G1  X101.7565 Y29.8442
G1  X102.1868 Y28.3657
G1  X102.3364 Y26.3496
G1  X102.4859 Y24.3334
G1  X102.9762 Y23.1238
G1  X103.4665 Y21.9141
G1  X103.6466 Y20.4356
G1  X103.8267 Y18.9571
G1  X103.5437 Y18.2178
G1  X103.2607 Y17.4786
G1  X102.6029 Y17.4786
G1  X101.9451 Y17.4786
G1  X100.8067 Y18.3523
G1  X99.6683 Y19.2259
G1  X99.1804 Y19.898
G1  X98.6924 Y20.57
G1  X98.5245 Y21.6608
G1  X98.3565 Y22.7517
G1  X99.0431 Y23.5677
G1  X99.7298 Y24.3837
G1  X98.9393 Y24.9682
G1  X98.1487 Y25.5526
G1  X97.717 Y26.3875
G1  X97.2853 Y27.2223
G1  X97.0571 Y29.6548
G1  X96.829 Y32.0872
G1  X95.5069 Y34.7963
G1  X94.1847 Y37.5054
G1  X93.4739 Y38.2083
G1  X92.7631 Y38.9111
G1  X91.4864 Y39.3758
G1  X90.2098 Y39.8405
G1  X88.3281 Y40.527
G1  X86.4463 Y41.2134
G1  X85.4467 Y41.7127
G1  X84.4471 Y42.212
G1  X82.8511 Y42.5843
G1  X81.2552 Y42.9567
G1  X81.7807 Y41.0603
G1  X82.3062 Y39.1639
G1  X82.8596 Y37.6626
G1  X83.4129 Y36.1614
G1  X83.8119 Y35.0861
G1  X84.2109 Y34.0108
G1  X84.0816 Y32.8408
G1  X83.9524 Y31.6707
G1  X82.6456 Y30.3371
G1  X81.3388 Y29.0035
G1  X79.2563 Y27.9158
G1  X77.1738 Y26.8281
G1  X75.5645 Y25.3922
G1  X73.9552 Y23.9562
G1  X73.0771 Y23.819
G1  X72.1991 Y23.6819
G1  X69.6453 Y23.5177
G1  X67.0915 Y23.3535
G1  X66.3663 Y23.6299
G1  X65.6412 Y23.9062
G1  X64.5518 Y24.8903
G1  X63.4625 Y25.8745
G1  X63.4625 Y26.2768
G1  X63.4625 Y26.679
G1  X65.231 Y28.396
G1  X66.9994 Y30.113
G1  X67.6307 Y30.113
G1  X68.2621 Y30.113
G1  X69.0668 Y29.1367
G1  X69.8715 Y28.1605
G1  X70.6321 Y28.3432
G1  X71.3926 Y28.526
G1  X73.2743 Y28.8664
G1  X75.156 Y29.2068
G1  X76.2313 Y29.7704
G1  X77.3066 Y30.3341
G1  X78.2286 Y31.1644
G1  X79.1507 Y31.9947
G1  X79.5055 Y31.9947
G1  X79.8603 Y31.9947
G1  X79.8603 Y32.8933
G1  X79.8603 Y33.7919
G1  X79.2555 Y34.8978
G1  X78.6507 Y36.0038
G1  X76.3657 Y38.5992
G1  X74.0808 Y41.1947
G1  X73.1399 Y42.4511
G1  X72.1991 Y43.7075
G1  X71.7958 Y44.2902
G1  X71.3926 Y44.8728
G1  X70.0485 Y44.5817
G1  X68.7044 Y44.2906
G1  X64.5378 Y44.2583
G1  X60.3711 Y44.2259
G1  X58.6238 Y44.602
G1  X56.8765 Y44.9781
G1  X55.1292 Y45.662
G1  X53.3819 Y46.3459
G1  X51.8786 Y47.2228
G1  X50.3752 Y48.0998
G1  X48.9783 Y49.3558
G1  X47.5814 Y50.6117
G1  X47.3902 Y50.421
G1  X47.1991 Y50.2304
G1  X47.205 Y48.0346
G1  X47.2109 Y45.8388
G1  X47.5571 Y41.9409
G1  X47.9033 Y38.0431
G1  X48.0439 Y36.3552
G1  X48.1845 Y34.6672
G1  X50.1111 Y33.7005
G1  X52.0378 Y32.7337
G1  X52.7845 Y32.2062
G1  X53.5312 Y31.6787
G1  X54.1718 Y30.4254
G1  X54.8124 Y29.1721
G1  X55.7799 Y28.2432
G1  X56.7474 Y27.3143
G1  X57.0121 Y26.3615
G1  X57.2768 Y25.4087
G1  X57.2785 Y23.4818
G1  X57.2801 Y21.5548
G1  X57.117 Y21.1296
G1  X56.9538 Y20.7044
G1  X56.2645 Y20.7044
G1  X55.5752 Y20.7044
G1  X55.0288 Y21.1748
G1  X54.4824 Y21.6453
G1  X55.8141 Y20.0918
G1  X57.1457 Y18.5384
G1  X58.5359 Y17.732
G1  X59.926 Y16.9257
G1  X60.7404 Y15.9982
G1  X61.5547 Y15.0707
G1  X61.7319 Y14.1262
G1  X61.9091 Y13.1816
G1  X61.752 Y12.7723
G1  X61.595 Y12.363
G1  X60.8986 Y12.0982
G1  X60.2021 Y11.8335
G1  X59.346 Y11.8644
G1  X58.4898 Y11.8953
G1  X57.4745 Y12.092
G1  X57.4742 Y12.0916
M106 S0 ;
G4 P100
G1 F1200
G1  X60.618 Y12.8027
M106 S255
G4 P20
G1 F480.000000
G1  X61.0432 Y12.9658
G1  X61.0432 Y13.4801
G1  X61.0432 Y13.9943
G1  X60.4097 Y14.997
G1  X59.7762 Y15.9997
G1  X57.9765 Y17.0513
G1  X56.1769 Y18.1029
G1  X55.9461 Y18.534
G1  X55.7154 Y18.9651
G1  X53.7126 Y21.0006
G1  X51.7099 Y23.0362
G1  X50.3661 Y25.0287
G1  X49.0223 Y27.0212
G1  X48.3124 Y28.4235
G1  X47.6024 Y29.8259
G1  X47.6024 Y30.2381
G1  X47.6024 Y30.6502
G1  X48.2295 Y30.6502
G1  X48.8565 Y30.6502
G1  X49.7388 Y29.5524
G1  X50.621 Y28.4545
G1  X51.9576 Y27.4943
G1  X53.2942 Y26.534
G1  X53.1635 Y25.8504
G1  X53.0328 Y25.1667
G1  X53.2671 Y24.5503
G1  X53.5015 Y23.9339
G1  X54.6184 Y22.7222
G1  X55.7354 Y21.5105
G1  X56.1044 Y21.5105
G1  X56.4733 Y21.5105
G1  X56.4733 Y23.5091
G1  X56.4733 Y25.5077
G1  X56.1889 Y26.2644
G1  X55.9045 Y27.0212
G1  X54.8818 Y28.0965
G1  X53.859 Y29.1717
G1  X53.2346 Y30.3149
G1  X52.6101 Y31.4581
G1  X50.0018 Y32.7979
G1  X47.3934 Y34.1377
G1  X47.2098 Y37.4343
G1  X47.0261 Y40.7308
G1  X46.7659 Y43.0158
G1  X46.5057 Y45.3007
G1  X46.3436 Y47.2447
G1  X46.1815 Y49.1886
G1  X46.6454 Y50.4033
G1  X47.1092 Y51.6179
G1  X47.3799 Y51.6179
G1  X47.6506 Y51.6179
G1  X49.1722 Y50.2527
G1  X50.6938 Y48.8875
G1  X52.4411 Y47.8453
G1  X54.1884 Y46.803
G1  X56.7422 Y45.9662
G1  X59.2959 Y45.1293
G1  X62.6561 Y44.9775
G1  X66.0163 Y44.8257
G1  X68.4357 Y45.1458
G1  X70.855 Y45.466
G1  X71.3945 Y45.5977
G1  X71.9339 Y45.7294
G1  X73.0552 Y44.0366
G1  X74.1765 Y42.3437
G1  X77.0097 Y39.1179
G1  X79.8429 Y35.8921
G1  X80.2549 Y34.7018
G1  X80.6669 Y33.5114
G1  X80.6669 Y32.8696
G1  X80.6669 Y32.2278
G1  X80.3886 Y31.7078
G1  X80.1103 Y31.1879
G1  X79.7837 Y31.1864
G1  X79.4572 Y31.185
G1  X78.5862 Y30.3687
G1  X77.7152 Y29.5524
G1  X76.3012 Y28.8941
G1  X74.8873 Y28.2358
G1  X73.8706 Y28.233
G1  X72.8539 Y28.2301
G1  X71.8888 Y27.8269
G1  X70.9238 Y27.4237
G1  X70.1694 Y27.4237
G1  X69.4149 Y27.4237
G1  X69.0597 Y27.7969
G1  X68.7045 Y28.1702
G1  X68.2367 Y28.7378
G1  X67.7689 Y29.3054
G1  X67.5406 Y29.3054
G1  X67.3124 Y29.3054
G1  X66.3376 Y28.2519
G1  X65.3629 Y27.1984
G1  X64.7487 Y26.7652
G1  X64.1346 Y26.3319
G1  X65.0755 Y25.5036
G1  X66.0163 Y24.6753
G1  X66.6415 Y24.4355
G1  X67.2667 Y24.1957
G1  X70.1152 Y24.3466
G1  X72.9638 Y24.4974
G1  X73.5223 Y24.7819
G1  X74.0808 Y25.0665
G1  X75.2905 Y26.2203
G1  X76.5002 Y27.3742
G1  X78.7851 Y28.6264
G1  X81.0701 Y29.8787
G1  X82.2125 Y31.0521
G1  X83.355 Y32.2255
G1  X83.355 Y33.1645
G1  X83.355 Y34.1035
G1  X82.5174 Y36.1954
G1  X81.6798 Y38.2872
G1  X81.0126 Y40.9385
G1  X80.3455 Y43.5898
G1  X80.4903 Y43.7346
G1  X80.6351 Y43.8793
G1  X82.0622 Y43.5529
G1  X83.4894 Y43.2265
G1  X84.9679 Y42.6878
G1  X86.4464 Y42.1492
G1  X89.6722 Y40.9458
G1  X92.898 Y39.7424
G1  X93.7045 Y39.1282
G1  X94.5109 Y38.5139
G1  X95.7597 Y36.1274
G1  X97.0086 Y33.7409
G1  X97.4398 Y32.2808
G1  X97.8711 Y30.8207
G1  X97.8771 Y29.4582
G1  X97.883 Y28.0957
G1  X98.4014 Y26.9535
G1  X98.9199 Y25.8114
G1  X99.6116 Y25.4962
G1  X100.3034 Y25.181
G1  X100.4624 Y24.5474
G1  X100.6214 Y23.9139
G1  X99.9183 Y23.2623
G1  X99.2152 Y22.6107
G1  X99.2152 Y22.0345
G1  X99.2152 Y21.4583
G1  X99.6409 Y20.7448
G1  X100.0665 Y20.0312
G1  X101.2129 Y19.1576
G1  X102.3592 Y18.2839
G1  X102.7073 Y18.2839
G1  X103.0553 Y18.2839
G1  X102.8841 Y19.9219
G1  X102.7129 Y21.5598
G1  X102.1737 Y22.7786
G1  X101.6346 Y23.9974
G1  X101.6346 Y25.5331
G1  X101.6346 Y27.0689
G1  X101.1166 Y29.0943
G1  X100.5985 Y31.1198
G1  X99.3701 Y33.5656
G1  X98.1418 Y36.0115
G1  X97.4646 Y38.3484
G1  X96.7874 Y40.6853
G1  X96.4561 Y41.1109
G1  X96.1249 Y41.5366
G1  X95.6803 Y41.9398
G1  X95.2357 Y42.343
G1  X93.2604 Y43.9547
G1  X91.2852 Y45.5664
G1  X89.3108 Y47.4493
G1  X87.3364 Y49.3323
G1  X85.4996 Y51.4928
G1  X83.6628 Y53.6533
G1  X83.4914 Y54.3365
G1  X83.3199 Y55.0197
G1  X85.4208 Y59.1652
G1  X87.5217 Y63.311
G1  X88.6924 Y66.0751
G1  X89.863 Y68.8392
G1  X91.0288 Y70.4229
G1  X92.1947 Y72.0066
G1  X93.3764 Y72.6991
G1  X94.5582 Y73.3917
G1  X95.0925 Y73.3917
G1  X95.6269 Y73.3917
G1  X96.2786 Y72.6935
G1  X96.9303 Y71.9953
G1  X97.8711 Y71.5219
G1  X98.812 Y71.0485
G1  X100.3308 Y70.5788
G1  X101.8497 Y70.1092
G1  X102.8174 Y69.3115
G1  X103.7851 Y68.5138
G1  X103.7851 Y67.9958
G1  X103.7851 Y67.4777
G1  X104.3248 Y66.938
G1  X104.8646 Y66.3982
G1  X106.4082 Y66.5715
G1  X107.9518 Y66.7449
G1  X108.3886 Y66.9683
G1  X108.8254 Y67.1918
G1  X109.3966 Y68.4071
G1  X109.9679 Y69.6224
G1  X109.9679 Y70.6478
G1  X109.9679 Y71.6733
G1  X108.9983 Y72.5997
G1  X108.0286 Y73.5261
G1  X106.5456 Y75.5422
G1  X105.0627 Y77.5583
G1  X104.0524 Y78.6336
G1  X103.0422 Y79.7089
G1  X101.7859 Y81.4387
G1  X100.5296 Y83.1685
G1  X99.6299 Y85.1159
G1  X98.7301 Y87.0633
G1  X97.091 Y88.6672
G1  X95.4518 Y90.2712
G1  X95.4422 Y90.7696
G1  X95.4326 Y91.268
G1  X95.0484 Y91.94
G1  X94.6643 Y92.6121
G1  X94.6547 Y91.2166
G1  X94.6451 Y89.8212
G1  X94.3818 Y89.6585
G1  X94.1185 Y89.4958
G1  X93.5927 Y89.7772
G1  X93.0668 Y90.0587
G1  X92.728 Y90.9957
G1  X92.3892 Y91.9328
G1  X92.0457 Y91.1159
G1  X91.7022 Y90.299
G1  X91.8629 Y89.1265
G1  X92.0236 Y87.954
G1  X89.8687 Y88.1017
G1  X87.7139 Y88.2494
G1  X87.08 Y88.0878
G1  X86.4461 Y87.9262
G1  X84.9677 Y86.8032
G1  X83.4892 Y85.6802
G1  X82.4095 Y85.1963
G1  X81.3298 Y84.7123
G1  X79.4734 Y84.4158
G1  X77.617 Y84.1192
G1  X77.3273 Y83.9302
G1  X77.0375 Y83.7411
G1  X77.0375 Y83.2035
G1  X77.0375 Y82.6658
G1  X75.1558 Y82.6864
G1  X73.2741 Y82.7069
G1  X72.1644 Y83.251
G1  X71.0547 Y83.7951
G1  X71.3204 Y82.8272
G1  X71.5861 Y81.8594
G1  X71.9543 Y81.1439
G1  X72.3225 Y80.4284
G1  X72.9999 Y79.8955
G1  X73.6773 Y79.3627
G1  X73.6773 Y79.0654
G1  X73.6773 Y78.768
G1  X73.1177 Y78.768
G1  X72.558 Y78.768
G1  X70.6311 Y78.1032
G1  X68.7042 Y77.4384
G1  X67.2257 Y77.216
G1  X65.7472 Y76.9937
G1  X66.7553 Y76.6503
G1  X67.7634 Y76.307
G1  X67.7634 Y75.8118
G1  X67.7634 Y75.3166
G1  X66.4808 Y74.8906
G1  X65.1983 Y74.4646
G1  X63.3222 Y74.0659
G1  X61.4462 Y73.6672
G1  X58.4892 Y73.5071
G1  X55.5322 Y73.347
G1  X52.5752 Y73.7734
G1  X49.6183 Y74.1997
G1  X47.1989 Y74.7479
G1  X44.7796 Y75.2961
G1  X41.5538 Y75.4463
G1  X38.328 Y75.5964
G1  X36.3639 Y75.1774
G1  X34.3999 Y74.7584
G1  X33.1381 Y74.1481
G1  X31.8764 Y73.5378
G1  X30.3979 Y72.4192
G1  X28.9194 Y71.3006
G1  X27.8138 Y70.0615
G1  X26.7083 Y68.8224
G1  X24.2983 Y68.9935
G1  X21.8882 Y69.1646
G1  X20.4553 Y68.6886
G1  X19.0223 Y68.2126
G1  X17.6536 Y66.8316
G1  X16.285 Y65.4505
G1  X15.5282 Y64.5879
G1  X14.7713 Y63.7253
G1  X13.7356 Y63.415
G1  X12.6998 Y63.1047
G1  X12.5676 Y62.5989
G1  X12.4353 Y62.0931
G1  X10.9517 Y61.437
G1  X9.4681 Y60.7809
G1  X8.1406 Y60.6048
G1  X6.8132 Y60.4287
G1  X5.3663 Y60.7369
G1  X3.9194 Y61.0451
G1  X2.6425 Y61.7103
G1  X1.3657 Y62.3754
G1  X1.3657 Y62.1562
G1  X1.3657 Y61.937
G1  X1.9171 Y60.3042
G1  X2.4685 Y58.6714
G1  X3.4181 Y57.5619
G1  X4.3678 Y56.4525
G1  X5.4942 Y55.7923
G1  X6.6206 Y55.1322
G1  X8.0926 Y54.7559
G1  X9.5646 Y54.3796
G1  X9.6465 Y53.9654
G1  X9.7284 Y53.5511
G1  X8.6384 Y53.0702
G1  X7.5484 Y52.5893
G1  X7.5484 Y52.3338
G1  X7.5484 Y52.0783
G1  X9.6513 Y52.2225
G1  X11.7542 Y52.3666
G1  X13.0993 Y53.0482
G1  X14.4444 Y53.7298
G1  X15.9695 Y55.3772
G1  X17.4947 Y57.0245
G1  X17.4947 Y57.278
G1  X17.4947 Y57.5315
G1  X17.8095 Y57.5315
G1  X18.1244 Y57.5315
G1  X18.5989 Y57.1021
G1  X19.0734 Y56.6727
G1  X19.8692 Y58.2491
G1  X20.665 Y59.8256
G1  X21.3804 Y62.1711
