M106 S0 ;laser power off
;========START========
;Generated with ZONESTAR Laser Cut Gcode generator V1
G90 ;
G28	;Home all
G21 ;units in mm
M0 turn on laser power and press knob ;Wait for laser turn on 
G1 Z20 F400 ;Move up Z axis
G1 F1200
G1  X3.3683 Y13.2152
M106 S255
G4 P20
G1 F480.000000
G1  X2.8088 Y13.4415
G1  X2.0635 Y14.3272
G1  X1.3183 Y15.2128
G1  X1.4234 Y16.8391
G1  X1.5285 Y18.4655
G1  X3.0692 Y21.7417
G1  X4.6099 Y25.018
G1  X4.8187 Y26.1772
G1  X5.0276 Y27.3364
G1  X4.8406 Y28.2773
G1  X4.6536 Y29.2181
G1  X4.2282 Y31.0998
G1  X3.8028 Y32.9816
G1  X3.7981 Y35.7017
G1  X3.7935 Y38.4219
G1  X4.209 Y40.8092
G1  X4.6245 Y43.1966
G1  X5.5249 Y45.8848
G1  X6.4253 Y48.5729
G1  X7.7499 Y51.3955
G1  X9.0746 Y54.2181
G1  X10.7787 Y57.0406
G1  X12.4829 Y59.8632
G1  X13.9749 Y62.0137
G1  X15.4669 Y64.1643
G1  X16.7927 Y65.9116
G1  X18.1185 Y67.6589
G1  X20.065 Y70.0782
G1  X22.0116 Y72.4976
G1  X23.5098 Y74.1756
G1  X25.0081 Y75.8537
G1  X25.297 Y76.9982
G1  X25.5858 Y78.1427
G1  X26.2615 Y80.3737
G1  X26.9373 Y82.6046
G1  X27.8707 Y84.6528
G1  X28.8041 Y86.701
G1  X30.3137 Y88.9698
G1  X31.8233 Y91.2386
G1  X33.4356 Y92.9622
G1  X35.0479 Y94.6858
G1  X36.6922 Y95.9822
G1  X38.3364 Y97.2787
G1  X40.3525 Y98.4915
G1  X42.3687 Y99.7044
G1  X44.5994 Y100.6843
G1  X46.8302 Y101.6642
G1  X47.4797 Y101.6642
G1  X48.1293 Y101.6642
G1  X48.4076 Y101.1442
G1  X48.6858 Y100.6243
G1  X48.6858 Y100.1137
G1  X48.6858 Y99.603
G1  X47.1643 Y98.5551
G1  X45.6427 Y97.5071
G1  X44.6357 Y96.2332
G1  X43.6287 Y94.9592
G1  X43.1692 Y93.7559
G1  X42.7096 Y92.5527
G1  X42.8134 Y90.7157
G1  X42.9172 Y88.8787
G1  X44.0601 Y86.4967
G1  X45.2031 Y84.1148
G1  X44.8156 Y83.5235
G1  X44.4282 Y82.9322
G1  X42.3332 Y82.1884
G1  X40.2383 Y81.4447
G1  X39.3234 Y80.823
G1  X38.4084 Y80.2013
G1  X42.0014 Y80.3466
G1  X45.5945 Y80.4919
G1  X48.462 Y80.1979
G1  X51.3295 Y79.9039
G1  X53.3974 Y79.4768
G1  X55.4654 Y79.0496
G1  X58.0568 Y78.1655
G1  X60.6482 Y77.2813
G1  X63.2019 Y75.9959
G1  X65.7557 Y74.7104
G1  X67.3686 Y73.6278
G1  X68.9815 Y72.5451
G1  X71.2664 Y70.7361
G1  X73.5514 Y68.9271
G1  X75.9735 Y66.4113
G1  X78.3955 Y63.8955
G1  X80.0968 Y61.7854
G1  X81.798 Y59.6752
G1  X83.9004 Y56.5434
G1  X86.0028 Y53.4116
G1  X87.6135 Y50.5926
G1  X89.2243 Y47.7737
G1  X89.5867 Y47.5987
G1  X89.9492 Y47.4237
G1  X92.5071 Y46.8835
G1  X95.065 Y46.3433
G1  X97.2114 Y45.5143
G1  X99.3578 Y44.6853
G1  X101.0563 Y43.679
G1  X102.7548 Y42.6727
G1  X104.8739 Y40.9772
G1  X106.993 Y39.2818
G1  X108.8768 Y36.9381
G1  X110.7606 Y34.5945
G1  X111.2381 Y33.7168
G1  X111.7155 Y32.8391
G1  X111.4235 Y32.3727
G1  X111.1315 Y31.9063
G1  X110.4549 Y31.8246
G1  X109.7782 Y31.743
G1  X107.9966 Y32.7223
G1  X106.215 Y33.7016
G1  X104.8025 Y34.0776
G1  X103.39 Y34.4537
G1  X100.914 Y34.4568
G1  X98.438 Y34.46
G1  X95.7254 Y34.1649
G1  X93.0129 Y33.8698
G1  X91.3741 Y34.1585
G1  X89.7353 Y34.4472
G1  X88.6691 Y35.0029
G1  X87.6029 Y35.5586
G1  X86.0734 Y34.0997
G1  X84.5439 Y32.6408
G1  X83.1146 Y31.9165
G1  X81.6854 Y31.1923
G1  X78.9865 Y30.6691
G1  X76.2876 Y30.1459
G1  X75.1397 Y29.6382
G1  X73.9918 Y29.1304
G1  X73.2053 Y28.0446
G1  X72.4188 Y26.9589
G1  X72.0779 Y25.7415
G1  X71.7371 Y24.524
G1  X71.3861 Y24.2328
G1  X71.0352 Y23.9415
G1  X70.0083 Y24.026
G1  X68.9815 Y24.1106
G1  X68.4957 Y25.1044
G1  X68.0099 Y26.0983
G1  X67.4538 Y27.6582
G1  X66.8976 Y29.2181
G1  X66.7622 Y31.6711
G1  X66.6268 Y34.124
G1  X66.9676 Y35.5689
G1  X67.3083 Y37.0138
G1  X68.0786 Y38.5537
G1  X68.849 Y40.0935
G1  X70.4203 Y41.9139
G1  X71.9916 Y43.7342
G1  X73.5093 Y44.9398
G1  X75.0269 Y46.1455
G1  X73.7911 Y46.7736
G1  X72.5552 Y47.4016
G1  X70.5699 Y48.1966
G1  X68.5845 Y48.9916
G1  X66.4981 Y49.5174
G1  X64.4116 Y50.0431
G1  X61.4386 Y50.0473
G1  X58.4656 Y50.0514
G1  X56.1967 Y49.4892
G1  X53.9278 Y48.9269
G1  X51.1808 Y47.628
G1  X48.4338 Y46.329
G1  X46.0733 Y44.6933
G1  X43.7127 Y43.0575
G1  X43.1079 Y42.5463
G1  X42.5031 Y42.0352
G1  X42.5031 Y41.7651
G1  X42.5031 Y41.495
G1  X43.7341 Y40.4114
G1  X44.9651 Y39.3278
G1  X46.3322 Y38.8737
G1  X47.6993 Y38.4196
G1  X50.4103 Y38.5933
G1  X53.1213 Y38.7671
G1  X53.7934 Y38.8313
G1  X54.4654 Y38.8955
G1  X54.551 Y38.0043
G1  X54.6365 Y37.1131
G1  X54.2976 Y36.7048
G1  X53.9587 Y36.2964
G1  X52.1959 Y35.4127
G1  X50.4332 Y34.5289
G1  X48.4061 Y33.8516
G1  X46.3791 Y33.1744
G1  X44.2395 Y32.7572
G1  X42.0998 Y32.34
G1  X39.6805 Y32.1696
G1  X37.2611 Y31.9992
G1  X33.8557 Y32.3095
G1  X30.4502 Y32.6198
G1  X26.5976 Y30.2798
G1  X22.745 Y27.9398
G1  X19.9225 Y26.0511
G1  X17.0999 Y24.1624
G1  X14.9947 Y22.415
G1  X12.8896 Y20.6676
G1  X11.2816 Y18.7601
G1  X9.6736 Y16.8526
G1  X8.8685 Y15.4485
G1  X8.0634 Y14.0445
G1  X7.3707 Y13.4996
G1  X6.6779 Y12.9547
G1  X5.3029 Y12.9718
G1  X3.9279 Y12.9888
G1  X3.3683 Y13.2152
G1  X3.3683 Y13.2152
M106 S0
G4 P100G1 F1200
G1  X6.0812 Y13.7622
M106 S255
G4 P20
G1 F480.000000
G1  X6.7909 Y14.0321
G1  X7.1186 Y14.367
G1  X7.4463 Y14.702
G1  X8.4508 Y16.3638
G1  X9.4553 Y18.0257
G1  X11.3535 Y20.0582
G1  X13.2517 Y22.0908
G1  X15.2544 Y23.7018
G1  X17.257 Y25.3129
G1  X20.2698 Y27.2857
G1  X23.2827 Y29.2585
G1  X26.7284 Y31.352
G1  X30.1741 Y33.4455
G1  X33.0456 Y33.1456
G1  X35.9171 Y32.8457
G1  X38.0874 Y32.8465
G1  X40.2578 Y32.8474
G1  X42.7917 Y33.2795
G1  X45.3256 Y33.7117
G1  X47.4762 Y34.3867
G1  X49.6267 Y35.0617
G1  X51.6758 Y36.0909
G1  X53.7249 Y37.12
G1  X53.8999 Y37.5759
G1  X54.0748 Y38.0318
G1  X54.0013 Y38.1002
G1  X53.9278 Y38.1686
G1  X52.3149 Y37.905
G1  X50.702 Y37.6414
G1  X48.5403 Y37.747
G1  X46.3787 Y37.8526
G1  X45.0685 Y38.4869
G1  X43.7582 Y39.1211
G1  X42.7274 Y40.1833
G1  X41.6966 Y41.2455
G1  X41.6966 Y41.8606
G1  X41.6966 Y42.4757
G1  X43.3767 Y43.7841
G1  X45.0568 Y45.0926
G1  X46.5458 Y46.0703
G1  X48.0347 Y47.0481
G1  X50.4627 Y48.2386
G1  X52.8907 Y49.4291
G1  X55.1565 Y50.0515
G1  X57.4224 Y50.6738
G1  X60.4515 Y50.7999
G1  X63.4805 Y50.9261
G1  X65.1558 Y50.6054
G1  X66.831 Y50.2846
G1  X68.7127 Y49.7345
G1  X70.5944 Y49.1843
G1  X73.0827 Y48.0226
G1  X75.5709 Y46.8609
G1  X75.7225 Y46.4658
G1  X75.8742 Y46.0707
G1  X72.7923 Y43.0208
G1  X69.7104 Y39.971
G1  X68.9811 Y38.5117
G1  X68.2517 Y37.0523
G1  X67.8627 Y35.9579
G1  X67.4738 Y34.8635
G1  X67.4651 Y32.6687
G1  X67.4565 Y30.4739
G1  X68.1428 Y28.2332
G1  X68.829 Y25.9925
G1  X69.2565 Y25.3877
G1  X69.684 Y24.7829
G1  X70.3099 Y24.7829
G1  X70.9357 Y24.7829
G1  X71.3956 Y26.1887
G1  X71.8554 Y27.5945
G1  X72.4247 Y28.4064
G1  X72.994 Y29.2183
G1  X73.4071 Y29.5598
G1  X73.8202 Y29.9013
G1  X74.5375 Y30.2946
G1  X75.2549 Y30.688
G1  X78.3744 Y31.3487
G1  X81.494 Y32.0094
G1  X82.7602 Y32.63
G1  X84.0264 Y33.2506
G1  X85.7527 Y34.9676
G1  X87.4791 Y36.6845
G1  X88.1765 Y36.2298
G1  X88.8739 Y35.775
G1  X89.8148 Y35.3199
G1  X90.7557 Y34.8647
G1  X94.3847 Y34.986
G1  X98.0137 Y35.1072
G1  X101.2395 Y35.1185
G1  X104.4653 Y35.1299
G1  X105.842 Y34.6505
G1  X107.2187 Y34.1712
G1  X108.7058 Y33.2757
G1  X110.1929 Y32.3803
G1  X110.516 Y32.58
G1  X110.8392 Y32.7797
G1  X110.3429 Y33.5528
G1  X109.8466 Y34.3258
G1  X108.7301 Y35.8043
G1  X107.6136 Y37.2828
G1  X105.7706 Y39.0486
G1  X103.9277 Y40.8143
G1  X102.3148 Y41.9016
G1  X100.7019 Y42.9888
G1  X99.0334 Y43.83
G1  X97.365 Y44.6713
G1  X95.4044 Y45.3236
G1  X93.4438 Y45.976
G1  X91.0833 Y46.4393
G1  X88.7228 Y46.9027
G1  X87.748 Y48.6788
G1  X86.7732 Y50.4548
G1  X85.5462 Y52.471
G1  X84.3191 Y54.4871
G1  X82.8568 Y56.6376
G1  X81.3946 Y58.7882
G1  X79.3748 Y61.3419
G1  X77.3551 Y63.8957
G1  X74.5612 Y66.6349
G1  X71.7674 Y69.3741
G1  X69.2992 Y71.2329
G1  X66.831 Y73.0918
G1  X64.9449 Y74.1568
G1  X63.0589 Y75.2219
G1  X61.4946 Y75.9619
G1  X59.9304 Y76.7018
G1  X57.1979 Y77.596
G1  X54.4654 Y78.4902
G1  X52.0461 Y78.9846
G1  X49.6267 Y79.4791
G1  X43.3767 Y79.4831
G1  X37.1267 Y79.4871
G1  X37.1267 Y79.7728
G1  X37.1267 Y80.0585
G1  X37.866 Y80.7634
G1  X38.6052 Y81.4683
G1  X40.2216 Y82.268
G1  X41.838 Y83.0678
G1  X42.833 Y83.2545
G1  X43.828 Y83.4411
G1  X44.0865 Y83.7526
G1  X44.345 Y84.0641
G1  X43.2224 Y86.3228
G1  X42.0998 Y88.5816
G1  X42.0998 Y91.158
G1  X42.0998 Y93.7343
G1  X42.8834 Y95.1485
G1  X43.6669 Y96.5627
G1  X45.0656 Y97.8367
G1  X46.4643 Y99.1105
G1  X47.1718 Y99.5935
G1  X47.8794 Y100.0765
G1  X47.8794 Y100.5008
G1  X47.8794 Y100.925
G1  X47.0301 Y100.7552
G1  X46.1808 Y100.5853
G1  X44.1403 Y99.6058
G1  X42.0998 Y98.6263
G1  X40.3525 Y97.5402
G1  X38.6052 Y96.4541
G1  X36.5891 Y94.7809
G1  X34.573 Y93.1077
G1  X34.0415 Y92.4801
G1  X33.5101 Y91.8525
G1  X31.8165 Y89.6142
G1  X30.1228 Y87.3758
G1  X29.0888 Y85.3131
G1  X28.0548 Y83.2503
G1  X27.3868 Y81.3686
G1  X26.7188 Y79.4869
G1  X26.2357 Y77.4708
G1  X25.7526 Y75.4547
G1  X24.1015 Y73.5729
G1  X22.4505 Y71.6912
G1  X20.7046 Y69.5407
G1  X18.9588 Y67.3902
G1  X17.3329 Y65.2396
G1  X15.707 Y63.0891
G1  X14.0839 Y60.6697
G1  X12.4607 Y58.2504
G1  X11.1899 Y56.0999
G1  X9.919 Y53.9493
G1  X8.9899 Y52.108
G1  X8.0607 Y50.2666
G1  X7.1182 Y47.9413
G1  X6.1758 Y45.616
G1  X5.5015 Y43.1967
G1  X4.8272 Y40.7773
G1  X4.6872 Y37.0139
G1  X4.5472 Y33.2505
G1  X5.0336 Y31.2343
G1  X5.5201 Y29.2182
G1  X5.5304 Y27.2021
G1  X5.5408 Y25.186
G1  X3.8607 Y21.5188
G1  X2.1806 Y17.8517
G1  X2.1806 Y16.6727
G1  X2.1806 Y15.4938
G1  X2.6183 Y14.8688
G1  X3.056 Y14.2439
G1  X3.8951 Y13.8787
G1  X4.7343 Y13.5135
G1  X5.0528 Y13.503
G1  X5.3714 Y13.4924
G1  X6.0811 Y13.7623
G1  X6.0812 Y13.7622
M106 S0
G4 P100G1 F1200
G1  X21.0102 Y36.2879
M106 S255
G4 P20
G1 F480.000000
G1  X20.1913 Y37.1068
G1  X20.1913 Y37.9547
G1  X20.1913 Y38.8025
G1  X20.9771 Y39.5882
G1  X21.7628 Y40.374
G1  X22.5507 Y40.374
G1  X23.3386 Y40.374
G1  X24.0499 Y39.7148
G1  X24.7612 Y39.0556
G1  X24.7612 Y37.9973
G1  X24.7612 Y36.939
G1  X24.2907 Y36.3634
G1  X23.8203 Y35.7878
G1  X22.8247 Y35.6284
G1  X21.8291 Y35.469
G1  X21.0102 Y36.2879
M106 S0
G4 P100G1 F1200
G1  X23.6664 Y37.0501
M106 S255
G4 P20
G1 F480.000000
G1  X24.2235 Y37.7583
G1  X24.2235 Y38.0031
G1  X24.2235 Y38.2479
G1  X23.5637 Y38.9077
G1  X22.9039 Y39.5676
G1  X22.4884 Y39.5676
G1  X22.073 Y39.5676
G1  X21.5354 Y39.0299
G1  X20.9977 Y38.4923
G1  X20.9977 Y37.9547
G1  X20.9977 Y37.417
G1  X21.5354 Y36.8794
G1  X22.073 Y36.3418
G1  X22.5911 Y36.3418
G1  X23.1092 Y36.3418
G1  X23.6664 Y37.0501
M106 S0
G4 P100
G1 F1200
G91
G1 Z-1
G90
G1  X3.3683 Y13.2152
M106 S255
G4 P20
G1 F480.000000
G1  X2.8088 Y13.4415
G1  X2.0635 Y14.3272
G1  X1.3183 Y15.2128
G1  X1.4234 Y16.8391
G1  X1.5285 Y18.4655
G1  X3.0692 Y21.7417
G1  X4.6099 Y25.018
G1  X4.8187 Y26.1772
G1  X5.0276 Y27.3364
G1  X4.8406 Y28.2773
G1  X4.6536 Y29.2181
G1  X4.2282 Y31.0998
G1  X3.8028 Y32.9816
G1  X3.7981 Y35.7017
G1  X3.7935 Y38.4219
G1  X4.209 Y40.8092
G1  X4.6245 Y43.1966
G1  X5.5249 Y45.8848
G1  X6.4253 Y48.5729
G1  X7.7499 Y51.3955
G1  X9.0746 Y54.2181
G1  X10.7787 Y57.0406
G1  X12.4829 Y59.8632
G1  X13.9749 Y62.0137
G1  X15.4669 Y64.1643
G1  X16.7927 Y65.9116
G1  X18.1185 Y67.6589
G1  X20.065 Y70.0782
G1  X22.0116 Y72.4976
G1  X23.5098 Y74.1756
G1  X25.0081 Y75.8537
G1  X25.297 Y76.9982
G1  X25.5858 Y78.1427
G1  X26.2615 Y80.3737
G1  X26.9373 Y82.6046
G1  X27.8707 Y84.6528
G1  X28.8041 Y86.701
G1  X30.3137 Y88.9698
G1  X31.8233 Y91.2386
G1  X33.4356 Y92.9622
G1  X35.0479 Y94.6858
G1  X36.6922 Y95.9822
G1  X38.3364 Y97.2787
G1  X40.3525 Y98.4915
G1  X42.3687 Y99.7044
G1  X44.5994 Y100.6843
G1  X46.8302 Y101.6642
G1  X47.4797 Y101.6642
G1  X48.1293 Y101.6642
G1  X48.4076 Y101.1442
G1  X48.6858 Y100.6243
G1  X48.6858 Y100.1137
G1  X48.6858 Y99.603
G1  X47.1643 Y98.5551
G1  X45.6427 Y97.5071
G1  X44.6357 Y96.2332
G1  X43.6287 Y94.9592
G1  X43.1692 Y93.7559
G1  X42.7096 Y92.5527
G1  X42.8134 Y90.7157
G1  X42.9172 Y88.8787
G1  X44.0601 Y86.4967
G1  X45.2031 Y84.1148
G1  X44.8156 Y83.5235
G1  X44.4282 Y82.9322
G1  X42.3332 Y82.1884
G1  X40.2383 Y81.4447
G1  X39.3234 Y80.823
G1  X38.4084 Y80.2013
G1  X42.0014 Y80.3466
G1  X45.5945 Y80.4919
G1  X48.462 Y80.1979
G1  X51.3295 Y79.9039
G1  X53.3974 Y79.4768
G1  X55.4654 Y79.0496
G1  X58.0568 Y78.1655
G1  X60.6482 Y77.2813
G1  X63.2019 Y75.9959
G1  X65.7557 Y74.7104
G1  X67.3686 Y73.6278
G1  X68.9815 Y72.5451
G1  X71.2664 Y70.7361
G1  X73.5514 Y68.9271
G1  X75.9735 Y66.4113
G1  X78.3955 Y63.8955
G1  X80.0968 Y61.7854
G1  X81.798 Y59.6752
G1  X83.9004 Y56.5434
G1  X86.0028 Y53.4116
G1  X87.6135 Y50.5926
G1  X89.2243 Y47.7737
G1  X89.5867 Y47.5987
G1  X89.9492 Y47.4237
G1  X92.5071 Y46.8835
G1  X95.065 Y46.3433
G1  X97.2114 Y45.5143
G1  X99.3578 Y44.6853
G1  X101.0563 Y43.679
G1  X102.7548 Y42.6727
G1  X104.8739 Y40.9772
G1  X106.993 Y39.2818
G1  X108.8768 Y36.9381
G1  X110.7606 Y34.5945
G1  X111.2381 Y33.7168
G1  X111.7155 Y32.8391
G1  X111.4235 Y32.3727
G1  X111.1315 Y31.9063
G1  X110.4549 Y31.8246
G1  X109.7782 Y31.743
G1  X107.9966 Y32.7223
G1  X106.215 Y33.7016
G1  X104.8025 Y34.0776
G1  X103.39 Y34.4537
G1  X100.914 Y34.4568
G1  X98.438 Y34.46
G1  X95.7254 Y34.1649
G1  X93.0129 Y33.8698
G1  X91.3741 Y34.1585
G1  X89.7353 Y34.4472
G1  X88.6691 Y35.0029
G1  X87.6029 Y35.5586
G1  X86.0734 Y34.0997
G1  X84.5439 Y32.6408
G1  X83.1146 Y31.9165
G1  X81.6854 Y31.1923
G1  X78.9865 Y30.6691
G1  X76.2876 Y30.1459
G1  X75.1397 Y29.6382
G1  X73.9918 Y29.1304
G1  X73.2053 Y28.0446
G1  X72.4188 Y26.9589
G1  X72.0779 Y25.7415
G1  X71.7371 Y24.524
G1  X71.3861 Y24.2328
G1  X71.0352 Y23.9415
G1  X70.0083 Y24.026
G1  X68.9815 Y24.1106
G1  X68.4957 Y25.1044
G1  X68.0099 Y26.0983
G1  X67.4538 Y27.6582
G1  X66.8976 Y29.2181
G1  X66.7622 Y31.6711
G1  X66.6268 Y34.124
G1  X66.9676 Y35.5689
G1  X67.3083 Y37.0138
G1  X68.0786 Y38.5537
G1  X68.849 Y40.0935
G1  X70.4203 Y41.9139
G1  X71.9916 Y43.7342
G1  X73.5093 Y44.9398
G1  X75.0269 Y46.1455
G1  X73.7911 Y46.7736
G1  X72.5552 Y47.4016
G1  X70.5699 Y48.1966
G1  X68.5845 Y48.9916
G1  X66.4981 Y49.5174
G1  X64.4116 Y50.0431
G1  X61.4386 Y50.0473
G1  X58.4656 Y50.0514
G1  X56.1967 Y49.4892
G1  X53.9278 Y48.9269
G1  X51.1808 Y47.628
G1  X48.4338 Y46.329
G1  X46.0733 Y44.6933
G1  X43.7127 Y43.0575
G1  X43.1079 Y42.5463
G1  X42.5031 Y42.0352
G1  X42.5031 Y41.7651
G1  X42.5031 Y41.495
G1  X43.7341 Y40.4114
G1  X44.9651 Y39.3278
G1  X46.3322 Y38.8737
G1  X47.6993 Y38.4196
G1  X50.4103 Y38.5933
G1  X53.1213 Y38.7671
G1  X53.7934 Y38.8313
G1  X54.4654 Y38.8955
G1  X54.551 Y38.0043
G1  X54.6365 Y37.1131
G1  X54.2976 Y36.7048
G1  X53.9587 Y36.2964
G1  X52.1959 Y35.4127
G1  X50.4332 Y34.5289
G1  X48.4061 Y33.8516
G1  X46.3791 Y33.1744
G1  X44.2395 Y32.7572
G1  X42.0998 Y32.34
G1  X39.6805 Y32.1696
G1  X37.2611 Y31.9992
G1  X33.8557 Y32.3095
G1  X30.4502 Y32.6198
G1  X26.5976 Y30.2798
G1  X22.745 Y27.9398
G1  X19.9225 Y26.0511
G1  X17.0999 Y24.1624
G1  X14.9947 Y22.415
G1  X12.8896 Y20.6676
G1  X11.2816 Y18.7601
G1  X9.6736 Y16.8526
G1  X8.8685 Y15.4485
G1  X8.0634 Y14.0445
G1  X7.3707 Y13.4996
G1  X6.6779 Y12.9547
G1  X5.3029 Y12.9718
G1  X3.9279 Y12.9888
G1  X3.3683 Y13.2152
G1  X3.3683 Y13.2152
M106 S0
G4 P100
G1 F1200
G1  X6.0812 Y13.7622
M106 S255
G4 P20
G1 F480.000000
G1  X6.7909 Y14.0321
G1  X7.1186 Y14.367
G1  X7.4463 Y14.702
G1  X8.4508 Y16.3638
G1  X9.4553 Y18.0257
G1  X11.3535 Y20.0582
G1  X13.2517 Y22.0908
G1  X15.2544 Y23.7018
G1  X17.257 Y25.3129
G1  X20.2698 Y27.2857
G1  X23.2827 Y29.2585
G1  X26.7284 Y31.352
G1  X30.1741 Y33.4455
G1  X33.0456 Y33.1456
G1  X35.9171 Y32.8457
G1  X38.0874 Y32.8465
G1  X40.2578 Y32.8474
G1  X42.7917 Y33.2795
G1  X45.3256 Y33.7117
G1  X47.4762 Y34.3867
G1  X49.6267 Y35.0617
G1  X51.6758 Y36.0909
G1  X53.7249 Y37.12
G1  X53.8999 Y37.5759
G1  X54.0748 Y38.0318
G1  X54.0013 Y38.1002
G1  X53.9278 Y38.1686
G1  X52.3149 Y37.905
G1  X50.702 Y37.6414
G1  X48.5403 Y37.747
G1  X46.3787 Y37.8526
G1  X45.0685 Y38.4869
G1  X43.7582 Y39.1211
G1  X42.7274 Y40.1833
G1  X41.6966 Y41.2455
G1  X41.6966 Y41.8606
G1  X41.6966 Y42.4757
G1  X43.3767 Y43.7841
G1  X45.0568 Y45.0926
G1  X46.5458 Y46.0703
G1  X48.0347 Y47.0481
G1  X50.4627 Y48.2386
G1  X52.8907 Y49.4291
G1  X55.1565 Y50.0515
G1  X57.4224 Y50.6738
G1  X60.4515 Y50.7999
G1  X63.4805 Y50.9261
G1  X65.1558 Y50.6054
G1  X66.831 Y50.2846
