;FLAVOR:Marlin
;TIME:5217
;Filament used: 2.22247m, 1.02733m, 0.848254m, 0.874285m
;Layer height: 0.2
;MINX:128.2
;MINY:126.103
;MINZ:0.3
;MAXX:190.463
;MAXY:231.8
;MAXZ:6.1
;Generated with Cura_SteamEngine 4.12.1
T0
M140 S60
M105
M190 S60
M104 S200
M105
M109 S200
M82 ;absolute extrusion mode
G28
G1 Z15 F300
M107
;Prime the extruder
G92 E0
G1 F200 E3
G92 E0
G1 X5 Y10 F1500 ; move to prime
G1 Z0.2 F3000 ; get ready to prime
G92 E0 ; reset extrusion distance
G1 Y250 E15 F600 ; prime nozzle
G1 Y100 F5000 ; quick wipe

G92 E0
;start gcode of Extruder 1 
M163 S0 P100
M163 S1 P0
M163 S2 P0
M163 S3 P0
G92 E0
G1 F2100 E-16
;LAYER_COUNT:25
;LAYER:0
M107
G0 F3000 X135.254 Y130.291 Z0.3
;TYPE:SKIRT
G1 F2100 E0
G1 F1500 X135.853 Y129.776 E0.03941
G1 X136.501 Y129.325 E0.0788
G1 X137.192 Y128.941 E0.11824
G1 X137.917 Y128.629 E0.15762
G1 X138.67 Y128.392 E0.197
G1 X139.444 Y128.233 E0.23642
G1 X140.229 Y128.152 E0.27579
G1 X140.631 Y128.142 E0.29586
G1 X159.918 Y128.142 E1.25809
G1 X160.005 Y128.13 E1.26247
G1 X160.794 Y128.103 E1.30186
G1 X161.385 Y128.142 E1.33141
G1 X180.631 Y128.142 E2.29159
G1 X181.42 Y128.182 E2.33101
G1 X182.2 Y128.301 E2.37037
G1 X182.965 Y128.499 E2.40979
G1 X183.705 Y128.773 E2.44916
G1 X184.414 Y129.121 E2.48857
G1 X185.085 Y129.539 E2.52801
G1 X185.709 Y130.022 E2.56737
G1 X186.282 Y130.565 E2.60676
G1 X186.797 Y131.164 E2.64617
G1 X187.248 Y131.812 E2.68556
G1 X187.632 Y132.503 E2.725
G1 X187.944 Y133.228 E2.76437
G1 X188.181 Y133.981 E2.80376
G1 X188.34 Y134.755 E2.84318
G1 X188.421 Y135.54 E2.88255
G1 X188.431 Y135.942 E2.90261
G1 X188.431 Y155.352 E3.87098
G1 X188.468 Y155.815 E3.89416
G1 X188.45 Y156.604 E3.93353
G1 X188.431 Y156.758 E3.94127
G1 X188.431 Y175.942 E4.89836
G1 X188.391 Y176.731 E4.93778
G1 X188.272 Y177.511 E4.97714
G1 X188.074 Y178.276 E5.01657
G1 X187.8 Y179.016 E5.05593
G1 X187.452 Y179.725 E5.09534
G1 X187.034 Y180.396 E5.13478
G1 X186.551 Y181.02 E5.17415
G1 X186.008 Y181.593 E5.21353
G1 X185.409 Y182.108 E5.25294
G1 X184.761 Y182.559 E5.29233
G1 X184.07 Y182.943 E5.33177
G1 X183.345 Y183.255 E5.37115
G1 X182.592 Y183.492 E5.41053
G1 X181.878 Y183.639 E5.4469
G1 X182.489 Y184.383 E5.49493
G1 X182.958 Y185.018 E5.53432
G1 X183.337 Y185.652 E5.57117
G1 X185.28 Y189.285 E5.77671
G1 X185.617 Y190 E5.81615
G1 X185.866 Y190.7 E5.85321
G1 X187.06 Y194.637 E6.05847
G1 X187.251 Y195.404 E6.0979
G1 X187.358 Y196.136 E6.13481
G1 X187.762 Y200.233 E6.3402
G1 X187.8 Y201.021 E6.37956
G1 X187.762 Y201.763 E6.41663
G1 X187.358 Y205.862 E6.62212
G1 X187.241 Y206.643 E6.66151
G1 X187.06 Y207.36 E6.69841
G1 X185.866 Y211.298 E6.90371
G1 X185.599 Y212.041 E6.9431
G1 X185.28 Y212.713 E6.98021
G1 X183.338 Y216.345 E7.18569
G1 X182.931 Y217.022 E7.2251
G1 X182.49 Y217.615 E7.26197
G1 X179.88 Y220.796 E7.46725
G1 X179.349 Y221.38 E7.50663
G1 X178.798 Y221.878 E7.54368
G1 X175.616 Y224.489 E7.74904
G1 X174.981 Y224.958 E7.78842
G1 X174.347 Y225.337 E7.82527
G1 X170.714 Y227.28 E8.03082
G1 X169.999 Y227.617 E8.07025
G1 X169.298 Y227.866 E8.10736
G1 X165.36 Y229.06 E8.31266
G1 X164.594 Y229.251 E8.35205
G1 X163.862 Y229.358 E8.38896
G1 X159.765 Y229.762 E8.59435
G1 X158.977 Y229.8 E8.63371
G1 X158.235 Y229.762 E8.67078
G1 X154.137 Y229.358 E8.87622
G1 X153.356 Y229.241 E8.91562
G1 X152.639 Y229.06 E8.95251
G1 X148.701 Y227.866 E9.15781
G1 X147.958 Y227.599 E9.1972
G1 X147.285 Y227.28 E9.23436
G1 X143.652 Y225.337 E9.4399
G1 X142.976 Y224.93 E9.47927
G1 X142.383 Y224.489 E9.51614
G1 X139.201 Y221.878 E9.72149
G1 X138.617 Y221.347 E9.76087
G1 X138.119 Y220.796 E9.79792
G1 X135.509 Y217.615 E10.00321
G1 X135.04 Y216.98 E10.04259
G1 X134.661 Y216.345 E10.07949
G1 X132.719 Y212.713 E10.28496
G1 X132.382 Y211.999 E10.32435
G1 X132.133 Y211.298 E10.36147
G1 X130.939 Y207.36 E10.56677
G1 X130.748 Y206.594 E10.60615
G1 X130.64 Y205.861 E10.64312
G1 X130.237 Y201.766 E10.8484
G1 X130.2 Y200.977 E10.88781
G1 X130.237 Y200.239 E10.92468
G1 X130.64 Y196.138 E11.13026
G1 X130.757 Y195.357 E11.16966
G1 X130.939 Y194.637 E11.20671
G1 X132.133 Y190.7 E11.41196
G1 X132.4 Y189.957 E11.45135
G1 X132.719 Y189.285 E11.48846
G1 X134.662 Y185.652 E11.69401
G1 X135.069 Y184.976 E11.73338
G1 X135.51 Y184.384 E11.7702
G1 X136.843 Y182.76 E11.87502
G1 X136.177 Y182.345 E11.91417
G1 X135.553 Y181.862 E11.95354
G1 X134.98 Y181.319 E11.99293
G1 X134.465 Y180.72 E12.03234
G1 X134.014 Y180.072 E12.07173
G1 X133.63 Y179.381 E12.11116
G1 X133.318 Y178.656 E12.15054
G1 X133.081 Y177.903 E12.18993
G1 X132.922 Y177.129 E12.22935
G1 X132.841 Y176.344 E12.26872
G1 X132.831 Y175.942 E12.28878
G1 X132.831 Y156.655 E13.25101
G1 X132.819 Y156.568 E13.2554
G1 X132.792 Y155.779 E13.29478
G1 X132.831 Y155.188 E13.32433
G1 X132.831 Y135.942 E14.28452
G1 X132.871 Y135.153 E14.32393
G1 X132.99 Y134.373 E14.3633
G1 X133.188 Y133.608 E14.40272
G1 X133.462 Y132.868 E14.44209
G1 X133.81 Y132.159 E14.48149
G1 X134.228 Y131.488 E14.52093
G1 X134.711 Y130.864 E14.5603
G1 X135.254 Y130.291 E14.59968
G0 F3000 X135.647 Y130.472
G1 F1500 X136.242 Y129.984 E14.63808
G1 X136.884 Y129.561 E14.67643
G1 X137.567 Y129.206 E14.71484
G1 X138.282 Y128.925 E14.75316
G1 X139.024 Y128.719 E14.79158
G1 X139.782 Y128.591 E14.82993
G1 X140.631 Y128.542 E14.87236
G1 X159.958 Y128.542 E15.83659
G1 X160.079 Y128.526 E15.84268
G1 X160.848 Y128.504 E15.88106
G1 X161.351 Y128.542 E15.90623
G1 X180.631 Y128.542 E16.86811
G1 X181.399 Y128.582 E16.90648
G1 X182.159 Y128.701 E16.94486
G1 X182.902 Y128.899 E16.98322
G1 X183.621 Y129.173 E17.02161
G1 X184.307 Y129.52 E17.05996
G1 X184.954 Y129.936 E17.09833
G1 X185.554 Y130.417 E17.1367
G1 X186.101 Y130.958 E17.17508
G1 X186.589 Y131.553 E17.21347
G1 X187.012 Y132.195 E17.25183
G1 X187.367 Y132.878 E17.29023
G1 X187.648 Y133.593 E17.32856
G1 X187.854 Y134.335 E17.36698
G1 X187.982 Y135.093 E17.40533
G1 X188.031 Y135.942 E17.44776
G1 X188.031 Y155.363 E18.41668
G1 X188.069 Y155.866 E18.44184
G1 X188.047 Y156.635 E18.48023
G1 X188.031 Y156.755 E18.48627
G1 X188.031 Y175.942 E19.44351
G1 X187.991 Y176.71 E19.48188
G1 X187.872 Y177.47 E19.52025
G1 X187.674 Y178.213 E19.55862
G1 X187.4 Y178.932 E19.597
G1 X187.053 Y179.618 E19.63536
G1 X186.637 Y180.265 E19.67373
G1 X186.156 Y180.865 E19.7121
G1 X185.615 Y181.412 E19.75048
G1 X185.02 Y181.9 E19.78887
G1 X184.378 Y182.323 E19.82723
G1 X183.695 Y182.678 E19.86563
G1 X182.98 Y182.959 E19.90396
G1 X182.238 Y183.165 E19.94238
G1 X181.48 Y183.293 E19.98073
G1 X181.095 Y183.315 E19.99997
G1 X182.18 Y184.637 E20.08529
G1 X182.636 Y185.256 E20.12365
G1 X182.984 Y185.841 E20.15761
G1 X184.927 Y189.474 E20.36316
G1 X185.254 Y190.17 E20.40152
G1 X185.483 Y190.816 E20.43572
G1 X186.677 Y194.753 E20.64097
G1 X186.862 Y195.5 E20.67936
G1 X186.96 Y196.175 E20.71339
G1 X187.364 Y200.272 E20.91878
G1 X187.4 Y201.04 E20.95714
G1 X187.364 Y201.724 E20.99131
G1 X186.96 Y205.823 E21.1968
G1 X186.845 Y206.583 E21.23515
G1 X186.678 Y207.244 E21.26916
G1 X185.484 Y211.182 E21.47446
G1 X185.223 Y211.906 E21.51286
G1 X184.928 Y212.524 E21.54702
G1 X182.986 Y216.156 E21.7525
G1 X182.588 Y216.815 E21.79091
G1 X182.181 Y217.361 E21.82489
G1 X179.571 Y220.542 E22.03017
G1 X179.053 Y221.11 E22.06852
G1 X178.544 Y221.569 E22.10272
G1 X175.362 Y224.18 E22.30807
G1 X174.743 Y224.636 E22.34643
G1 X174.158 Y224.984 E22.38039
G1 X170.525 Y226.927 E22.58593
G1 X169.829 Y227.254 E22.6243
G1 X169.182 Y227.484 E22.65855
G1 X165.244 Y228.678 E22.86385
G1 X164.497 Y228.862 E22.90224
G1 X163.823 Y228.96 E22.93622
G1 X159.726 Y229.364 E23.14161
G1 X158.958 Y229.4 E23.17996
G1 X158.274 Y229.364 E23.21414
G1 X154.176 Y228.96 E23.41958
G1 X153.416 Y228.845 E23.45793
G1 X152.755 Y228.678 E23.49194
G1 X148.817 Y227.484 E23.69724
G1 X148.093 Y227.223 E23.73564
G1 X147.474 Y226.927 E23.76987
G1 X143.841 Y224.984 E23.97541
G1 X143.183 Y224.587 E24.01375
G1 X142.637 Y224.18 E24.04773
G1 X139.455 Y221.569 E24.25308
G1 X138.886 Y221.05 E24.2915
G1 X138.428 Y220.542 E24.32563
G1 X135.818 Y217.361 E24.53091
G1 X135.362 Y216.742 E24.56927
G1 X135.013 Y216.156 E24.6033
G1 X133.071 Y212.524 E24.80877
G1 X132.744 Y211.828 E24.84714
G1 X132.515 Y211.182 E24.88133
G1 X131.321 Y207.244 E25.08663
G1 X131.137 Y206.497 E25.12501
G1 X131.039 Y205.822 E25.15904
G1 X130.636 Y201.727 E25.36433
G1 X130.6 Y200.958 E25.40274
G1 X130.635 Y200.278 E25.43671
G1 X131.038 Y196.177 E25.64229
G1 X131.153 Y195.417 E25.68064
G1 X131.322 Y194.753 E25.71483
G1 X132.516 Y190.816 E25.92008
G1 X132.777 Y190.093 E25.95843
G1 X133.072 Y189.474 E25.99264
G1 X135.015 Y185.841 E26.19818
G1 X135.412 Y185.183 E26.23652
G1 X135.819 Y184.637 E26.2705
G1 X137.47 Y182.625 E26.40034
G1 X136.955 Y182.364 E26.42915
G1 X136.308 Y181.948 E26.46752
G1 X135.708 Y181.467 E26.50589
G1 X135.161 Y180.926 E26.54427
G1 X134.673 Y180.331 E26.58266
G1 X134.25 Y179.689 E26.62102
G1 X133.895 Y179.006 E26.65942
G1 X133.614 Y178.291 E26.69775
G1 X133.408 Y177.549 E26.73617
G1 X133.28 Y176.791 E26.77452
G1 X133.231 Y175.942 E26.81695
G1 X133.231 Y156.615 E27.78118
G1 X133.215 Y156.494 E27.78727
G1 X133.193 Y155.725 E27.82565
G1 X133.231 Y155.222 E27.85081
G1 X133.231 Y135.942 E28.8127
G1 X133.271 Y135.174 E28.85107
G1 X133.39 Y134.414 E28.88944
G1 X133.588 Y133.671 E28.92781
G1 X133.862 Y132.952 E28.96619
G1 X134.209 Y132.266 E29.00455
G1 X134.625 Y131.619 E29.04292
G1 X135.106 Y131.019 E29.08129
G1 X135.647 Y130.472 E29.11967
G0 F3000 X136.039 Y130.658
G1 F1500 X136.629 Y130.199 E29.15696
G1 X137.265 Y129.804 E29.19432
G1 X137.939 Y129.48 E29.23163
G1 X138.644 Y129.23 E29.26894
G1 X139.372 Y129.056 E29.30629
G1 X140.114 Y128.961 E29.34361
G1 X140.631 Y128.942 E29.36942
G1 X159.99 Y128.942 E30.33524
G1 X160.152 Y128.921 E30.34339
G1 X160.9 Y128.906 E30.38072
G1 X161.319 Y128.942 E30.4017
G1 X180.631 Y128.942 E31.36518
G1 X181.378 Y128.982 E31.4025
G1 X182.116 Y129.101 E31.4398
G1 X182.838 Y129.299 E31.47715
G1 X183.534 Y129.572 E31.51445
G1 X184.197 Y129.919 E31.55178
G1 X184.82 Y130.334 E31.58913
G1 X185.394 Y130.813 E31.62642
G1 X185.915 Y131.35 E31.66375
G1 X186.374 Y131.94 E31.70105
G1 X186.769 Y132.576 E31.7384
G1 X187.093 Y133.25 E31.77571
G1 X187.343 Y133.955 E31.81303
G1 X187.517 Y134.683 E31.85037
G1 X187.612 Y135.425 E31.88769
G1 X187.631 Y135.942 E31.9135
G1 X187.631 Y155.367 E32.88262
G1 X187.67 Y155.916 E32.91008
G1 X187.643 Y156.664 E32.94742
G1 X187.631 Y156.747 E32.9516
G1 X187.631 Y175.942 E33.90924
G1 X187.591 Y176.689 E33.94657
G1 X187.472 Y177.427 E33.98386
G1 X187.274 Y178.149 E34.02121
G1 X187.001 Y178.845 E34.05851
G1 X186.654 Y179.508 E34.09584
G1 X186.239 Y180.131 E34.13319
G1 X185.76 Y180.705 E34.17049
G1 X185.223 Y181.226 E34.20782
G1 X184.633 Y181.685 E34.24511
G1 X183.997 Y182.08 E34.28246
G1 X183.323 Y182.404 E34.31977
G1 X182.618 Y182.654 E34.35709
G1 X181.89 Y182.828 E34.39443
G1 X181.148 Y182.923 E34.43175
G1 X180.631 Y182.942 E34.45756
G1 X180.271 Y182.942 E34.47552
G1 X181.87 Y184.891 E34.6013
G1 X182.313 Y185.493 E34.63859
G1 X182.632 Y186.03 E34.66975
G1 X184.575 Y189.663 E34.87529
G1 X184.892 Y190.34 E34.91259
G1 X185.101 Y190.932 E34.94391
G1 X186.295 Y194.869 E35.14916
G1 X186.473 Y195.596 E35.1865
G1 X186.562 Y196.214 E35.21765
G1 X186.966 Y200.311 E35.42305
G1 X187 Y201.058 E35.46035
G1 X186.966 Y201.685 E35.49168
G1 X186.562 Y205.784 E35.69717
G1 X186.449 Y206.523 E35.73447
G1 X186.295 Y207.128 E35.76561
G1 X185.101 Y211.066 E35.97091
G1 X184.846 Y211.769 E36.00822
G1 X184.575 Y212.336 E36.03957
G1 X182.633 Y215.968 E36.24505
G1 X182.246 Y216.608 E36.28236
G1 X181.872 Y217.107 E36.31348
G1 X179.262 Y220.288 E36.51876
G1 X178.757 Y220.84 E36.55609
G1 X178.29 Y221.259 E36.58739
G1 X175.108 Y223.87 E36.79274
G1 X174.506 Y224.313 E36.83003
G1 X173.969 Y224.632 E36.86119
G1 X170.336 Y226.575 E37.06674
G1 X169.659 Y226.892 E37.10403
G1 X169.066 Y227.101 E37.1354
G1 X165.128 Y228.295 E37.3407
G1 X164.402 Y228.473 E37.37799
G1 X163.784 Y228.562 E37.40914
G1 X159.687 Y228.966 E37.61454
G1 X158.94 Y229 E37.65184
G1 X158.313 Y228.966 E37.68317
G1 X154.215 Y228.562 E37.88861
G1 X153.476 Y228.449 E37.92591
G1 X152.871 Y228.295 E37.95705
G1 X148.933 Y227.101 E38.16235
G1 X148.23 Y226.846 E38.19966
G1 X147.663 Y226.575 E38.23102
G1 X144.03 Y224.632 E38.43656
G1 X143.39 Y224.244 E38.4739
G1 X142.891 Y223.87 E38.50501
G1 X139.709 Y221.259 E38.71037
G1 X139.157 Y220.755 E38.74766
G1 X138.737 Y220.288 E38.77899
G1 X136.127 Y217.107 E38.98428
G1 X135.685 Y216.504 E39.02158
G1 X135.366 Y215.968 E39.05269
G1 X133.424 Y212.336 E39.25817
G1 X133.107 Y211.658 E39.29551
G1 X132.898 Y211.066 E39.32683
G1 X131.704 Y207.128 E39.53213
G1 X131.526 Y206.402 E39.56943
G1 X131.437 Y205.783 E39.60063
G1 X131.034 Y201.688 E39.80591
G1 X131 Y200.94 E39.84327
G1 X131.034 Y200.317 E39.8744
G1 X131.437 Y196.216 E40.07998
G1 X131.549 Y195.477 E40.11727
G1 X131.704 Y194.869 E40.14858
G1 X132.898 Y190.932 E40.35383
G1 X133.153 Y190.229 E40.39114
G1 X133.424 Y189.663 E40.42244
G1 X135.367 Y186.03 E40.62799
G1 X135.755 Y185.39 E40.66533
G1 X136.128 Y184.891 E40.69641
G1 X138.118 Y182.465 E40.85295
G1 X137.728 Y182.312 E40.87386
G1 X137.065 Y181.965 E40.91119
G1 X136.442 Y181.55 E40.94854
G1 X135.868 Y181.071 E40.98583
G1 X135.347 Y180.534 E41.02316
G1 X134.888 Y179.944 E41.06046
G1 X134.493 Y179.308 E41.09781
G1 X134.169 Y178.634 E41.13512
G1 X133.919 Y177.929 E41.17244
G1 X133.745 Y177.201 E41.20978
G1 X133.65 Y176.459 E41.2471
G1 X133.631 Y175.942 E41.27291
G1 X133.631 Y156.583 E42.23873
G1 X133.61 Y156.421 E42.24688
G1 X133.595 Y155.673 E42.28421
G1 X133.631 Y155.254 E42.30519
G1 X133.631 Y135.942 E43.26867
G1 X133.671 Y135.195 E43.30599
G1 X133.79 Y134.457 E43.34329
G1 X133.988 Y133.735 E43.38064
G1 X134.261 Y133.039 E43.41794
G1 X134.608 Y132.376 E43.45527
G1 X135.023 Y131.753 E43.49262
G1 X135.502 Y131.179 E43.52991
G1 X136.039 Y130.658 E43.56724
G0 F3000 X135.896 Y131.344
G1 F1500 X136.43 Y130.851 E43.6035
G1 X137.015 Y130.421 E43.63972
G1 X137.644 Y130.057 E43.67598
G1 X138.309 Y129.764 E43.71223
G1 X139.002 Y129.546 E43.74848
G1 X139.714 Y129.406 E43.78468
G1 X140.631 Y129.342 E43.83054
G1 X160.021 Y129.342 E44.79791
G1 X160.224 Y129.317 E44.80812
G1 X160.95 Y129.308 E44.84434
G1 X161.301 Y129.342 E44.86193
G1 X180.631 Y129.342 E45.82631
G1 X181.356 Y129.382 E45.86254
G1 X182.073 Y129.501 E45.8988
G1 X182.772 Y129.699 E45.93504
G1 X183.445 Y129.972 E45.97128
G1 X184.084 Y130.317 E46.0075
G1 X184.681 Y130.731 E46.04375
G1 X185.229 Y131.207 E46.07996
G1 X185.722 Y131.741 E46.11622
G1 X186.152 Y132.326 E46.15244
G1 X186.516 Y132.955 E46.1887
G1 X186.809 Y133.62 E46.22496
G1 X187.027 Y134.313 E46.2612
G1 X187.167 Y135.025 E46.2974
G1 X187.231 Y135.942 E46.34326
G1 X187.231 Y155.361 E47.31208
G1 X187.271 Y155.965 E47.34228
G1 X187.239 Y156.691 E47.37854
G1 X187.231 Y156.742 E47.38111
G1 X187.231 Y175.942 E48.339
G1 X187.191 Y176.667 E48.37523
G1 X187.072 Y177.384 E48.41149
G1 X186.874 Y178.083 E48.44773
G1 X186.601 Y178.756 E48.48397
G1 X186.256 Y179.395 E48.5202
G1 X185.842 Y179.992 E48.55644
G1 X185.366 Y180.54 E48.59266
G1 X184.832 Y181.033 E48.62892
G1 X184.247 Y181.463 E48.66514
G1 X183.618 Y181.827 E48.70139
G1 X182.953 Y182.12 E48.73765
G1 X182.26 Y182.338 E48.77389
G1 X181.548 Y182.478 E48.81009
G1 X180.631 Y182.542 E48.85596
G1 X179.426 Y182.542 E48.91607
G1 X181.561 Y185.144 E49.08399
G1 X181.99 Y185.73 E49.12023
G1 X182.279 Y186.218 E49.14852
G1 X184.222 Y189.851 E49.35407
G1 X184.529 Y190.51 E49.39034
G1 X184.718 Y191.049 E49.41883
G1 X185.912 Y194.986 E49.62408
G1 X186.084 Y195.691 E49.66029
G1 X186.164 Y196.253 E49.68861
G1 X186.568 Y200.35 E49.894
G1 X186.6 Y201.076 E49.93026
G1 X186.568 Y201.645 E49.95869
G1 X186.164 Y205.744 E50.16418
G1 X186.053 Y206.462 E50.20043
G1 X185.912 Y207.012 E50.22875
G1 X184.718 Y210.95 E50.43405
G1 X184.469 Y211.632 E50.47028
G1 X184.222 Y212.147 E50.49877
G1 X182.28 Y215.779 E50.70425
G1 X181.903 Y216.4 E50.74049
G1 X181.562 Y216.853 E50.76878
G1 X178.952 Y220.034 E50.97406
G1 X178.461 Y220.57 E51.01033
G1 X178.037 Y220.95 E51.03874
G1 X174.855 Y223.561 E51.24409
G1 X174.269 Y223.99 E51.28032
G1 X173.781 Y224.279 E51.30862
