;FLAVOR:Marlin
;TIME:7330
;Filament used: 3.37709m, 1.01264m, 0.833371m, 0.859191m
;Layer height: 0.2
;MINX:133.205
;MINY:131.103
;MINZ:0.36
;MAXX:185.47
;MAXY:226.794
;MAXZ:7.31
;Generated with Cura_SteamEngine 4.12.1
T0
M140 S70
M105
M190 S70
M104 S215
M105
M109 S215
M82 ;absolute extrusion mode
G28
G1 Z15 F300
M107
;Prime the extruder
T4
G92 E0
G1 F200 E3
G92 E0
G1 X5 Y10 F1500 ; move to prime
G1 Z0.2 F3000 ; get ready to prime
G92 E0 ; reset extrusion distance
G1 Y250 E15 F600 ; prime nozzle
G1 Y100 F5000 ; quick wipe
G92 E0
;start gcode of Extruder 1 
M163 S0 P100
M163 S1 P0
M163 S2 P0
M163 S3 P0
G92 E0
G1 F2100 E-16
;LAYER_COUNT:25
;LAYER:-6
M107
G0 F6000 X137.19 Y132.902 Z0.36
;TYPE:SUPPORT-INTERFACE
G1 F2100 E0
G1 F900 X137.612 Y132.482 E0.07129
G1 X138.07 Y132.13 E0.14045
G1 X138.568 Y131.84 E0.20946
G1 X139.104 Y131.611 E0.27925
G1 X139.628 Y131.462 E0.34448
G1 X139.984 Y131.402 E0.3877
G1 X140.538 Y131.352 E0.45431
G1 X140.76 Y131.342 E0.48092
G1 X159.875 Y131.342 E2.76968
G1 X160.637 Y131.304 E2.86103
G1 X161.454 Y131.342 E2.95896
G1 X180.555 Y131.342 E5.24605
G1 X180.681 Y131.346 E5.26114
G1 X181.356 Y131.407 E5.34229
G1 X181.931 Y131.538 E5.41291
G1 X182.468 Y131.733 E5.48131
G1 X182.984 Y131.998 E5.55077
G1 X183.47 Y132.332 E5.62138
G1 X183.904 Y132.721 E5.69116
G1 X184.279 Y133.153 E5.75966
G1 X184.605 Y133.64 E5.82983
G1 X184.86 Y134.154 E5.89853
G1 X185.057 Y134.718 E5.97006
G1 X185.171 Y135.295 E6.04049
G1 X185.221 Y135.849 E6.10709
G1 X185.231 Y136.071 E6.1337
G1 X185.231 Y155.241 E8.42905
G1 X185.269 Y156.003 E8.5204
G1 X185.231 Y156.82 E8.61833
G1 X185.231 Y175.866 E10.89883
G1 X185.203 Y176.369 E10.95915
G1 X185.111 Y176.951 E11.0297
G1 X184.951 Y177.5 E11.09817
G1 X184.718 Y178.037 E11.16826
G1 X184.423 Y178.534 E11.23747
G1 X184.069 Y178.986 E11.30621
G1 X183.65 Y179.402 E11.37691
G1 X183.192 Y179.754 E11.44607
G1 X182.769 Y180.004 E11.50491
G1 X182.2 Y180.359 E11.58521
G1 X181.672 Y180.791 E11.66689
G1 X181.202 Y181.287 E11.74871
G1 X180.798 Y181.838 E11.83052
G1 X180.468 Y182.435 E11.9122
G1 X180.215 Y183.069 E11.99393
G1 X180.044 Y183.73 E12.07568
G1 X179.958 Y184.408 E12.15751
G1 X179.958 Y185.09 E12.23917
G1 X180.044 Y185.768 E12.32101
G1 X180.216 Y186.433 E12.40325
G1 X180.578 Y187.279 E12.51343
G1 X182.406 Y190.698 E12.97765
G1 X182.657 Y191.234 E13.04852
G1 X182.812 Y191.658 E13.10257
G1 X183.98 Y195.507 E13.58419
G1 X184.106 Y196.027 E13.64825
G1 X184.179 Y196.5 E13.70556
G1 X184.569 Y200.452 E14.18106
G1 X184.594 Y201.043 E14.25188
G1 X184.578 Y201.452 E14.30089
G1 X184.18 Y205.483 E14.7859
G1 X184.097 Y206.011 E14.8499
G1 X183.983 Y206.481 E14.9078
G1 X182.824 Y210.304 E15.38613
G1 X182.628 Y210.837 E15.45413
G1 X182.432 Y211.251 E15.50897
G1 X180.546 Y214.779 E15.98798
G1 X180.266 Y215.239 E16.05246
G1 X180.01 Y215.592 E16.10467
G1 X177.463 Y218.697 E16.58553
G1 X177.068 Y219.127 E16.65544
G1 X176.73 Y219.435 E16.7102
G1 X173.66 Y221.954 E17.18569
G1 X173.212 Y222.283 E17.25224
G1 X172.807 Y222.531 E17.30911
G1 X169.29 Y224.412 E17.78667
G1 X168.773 Y224.653 E17.85496
G1 X168.341 Y224.812 E17.91008
G1 X164.486 Y225.982 E18.39246
G1 X163.968 Y226.107 E18.45626
G1 X163.499 Y226.179 E18.51308
G1 X159.532 Y226.57 E18.99037
G1 X158.962 Y226.594 E19.05868
G1 X158.524 Y226.575 E19.11118
G1 X154.515 Y226.18 E19.59352
G1 X153.983 Y226.097 E19.65799
G1 X153.527 Y225.986 E19.71419
G1 X149.695 Y224.823 E20.19369
G1 X149.162 Y224.628 E20.26164
G1 X148.744 Y224.43 E20.31702
G1 X145.22 Y222.546 E20.79549
G1 X144.756 Y222.263 E20.86057
G1 X144.398 Y222.002 E20.91361
G1 X141.292 Y219.455 E21.39457
G1 X140.872 Y219.069 E21.46287
G1 X140.561 Y218.726 E21.51831
G1 X138.037 Y215.65 E21.99474
G1 X137.711 Y215.205 E22.06079
G1 X137.465 Y214.802 E22.11732
G1 X135.584 Y211.283 E22.59509
G1 X135.342 Y210.765 E22.66355
G1 X135.187 Y210.341 E22.7176
G1 X134.017 Y206.485 E23.20009
G1 X133.895 Y205.981 E23.26218
G1 X133.821 Y205.511 E23.31915
G1 X133.43 Y201.529 E23.79824
G1 X133.406 Y200.953 E23.86727
G1 X133.43 Y200.464 E23.92589
G1 X133.817 Y196.53 E24.3992
G1 X133.905 Y195.97 E24.46708
G1 X134.017 Y195.515 E24.52319
G1 X135.175 Y191.695 E25.00113
G1 X135.373 Y191.158 E25.06966
G1 X135.567 Y190.748 E25.12397
G1 X137.453 Y187.22 E25.60298
G1 X137.736 Y186.756 E25.66805
G1 X137.998 Y186.395 E25.72146
G1 X138.369 Y185.838 E25.80159
G1 X138.673 Y185.227 E25.88331
G1 X138.898 Y184.581 E25.96522
G1 X139.039 Y183.913 E26.04696
G1 X139.095 Y183.233 E26.12866
G1 X139.064 Y182.551 E26.2104
G1 X138.948 Y181.878 E26.29217
G1 X138.748 Y181.225 E26.37395
G1 X138.467 Y180.602 E26.45578
G1 X138.11 Y180.021 E26.53743
G1 X137.685 Y179.493 E26.61859
G1 X137.171 Y178.961 E26.70716
G1 X136.819 Y178.503 E26.77633
G1 X136.529 Y178.005 E26.84533
G1 X136.3 Y177.469 E26.91512
G1 X136.149 Y176.937 E26.98133
G1 X136.091 Y176.589 E27.02358
G1 X136.041 Y176.035 E27.09018
G1 X136.031 Y175.813 E27.11679
G1 X136.031 Y156.698 E29.40555
G1 X135.993 Y155.937 E29.49679
G1 X136.031 Y155.119 E29.59484
G1 X136.031 Y136.018 E31.88192
G1 X136.059 Y135.515 E31.94224
G1 X136.151 Y134.933 E32.0128
G1 X136.311 Y134.384 E32.08127
G1 X136.544 Y133.847 E32.15136
G1 X136.839 Y133.35 E32.22056
G1 X137.19 Y132.902 E32.2887
G0 F6000 X137.6 Y132.493
G1 F900 X137.6 Y179.405 E37.90578
G0 F6000 X138.498 Y181.984
G0 X138.633 Y183.219
G0 X138.471 Y184.337
G0 X137.6 Y186.978
G1 F900 X137.6 Y215.023 E41.26379
G0 F6000 X139.2 Y217.067
G1 F900 X139.2 Y131.583 E51.49934
G0 F6000 X140.8 Y131.342
G1 F900 X140.8 Y218.989 E61.99389
G0 F6000 X142.4 Y220.363
G1 F900 X142.4 Y131.342 E72.65295
G0 F6000 X144 Y131.342
G1 F900 X144 Y221.675 E83.46911
G0 F6000 X145.6 Y222.749
G1 F900 X145.6 Y131.342 E94.41386
G0 F6000 X147.2 Y131.342
G1 F900 X147.2 Y223.604 E105.46099
G0 F6000 X148.8 Y224.456
G1 F900 X148.8 Y131.342 E116.61013
G0 F6000 X150.4 Y131.342
G1 F900 X150.4 Y225.036 E127.82872
G0 F6000 X152 Y225.522
G1 F900 X152 Y131.342 E139.1055
G0 F6000 X153.6 Y131.342
G1 F900 X153.6 Y226.003 E150.43988
G0 F6000 X155.2 Y226.247
G1 F900 X155.2 Y131.342 E161.80347
G0 F6000 X156.8 Y131.342
G1 F900 X156.8 Y226.405 E173.18598
G0 F6000 X158.4 Y226.562
G1 F900 X158.4 Y131.342 E184.58729
G0 F6000 X160 Y131.335
G1 F900 X160 Y226.524 E195.98488
G0 F6000 X161.6 Y226.367
G1 F900 X161.6 Y131.342 E207.36284
G0 F6000 X163.2 Y131.342
G1 F900 X163.2 Y226.209 E218.72188
G0 F6000 X164.8 Y225.887
G1 F900 X164.8 Y131.342 E230.04237
G0 F6000 X166.4 Y131.342
G1 F900 X166.4 Y225.402 E241.30478
G0 F6000 X168 Y224.916
G1 F900 X168 Y131.342 E252.50901
G0 F6000 X169.6 Y131.342
G1 F900 X169.6 Y224.247 E263.63312
G0 F6000 X171.2 Y223.391
G1 F900 X171.2 Y131.342 E274.65475
G0 F6000 X172.8 Y131.342
G1 F900 X172.8 Y222.535 E285.57388
G0 F6000 X174.4 Y221.347
G1 F900 X174.4 Y131.342 E296.35076
G0 F6000 X176 Y131.342
G1 F900 X176 Y220.034 E306.97043
G0 F6000 X177.6 Y218.53
G1 F900 X177.6 Y131.342 E317.41001
G0 F6000 X179.2 Y131.342
G1 F900 X179.2 Y216.58 E327.61611
G0 F6000 X180.8 Y214.304
G1 F900 X180.8 Y187.695 E330.80218
G0 F6000 X182.4 Y190.687
G1 F900 X182.4 Y211.311 E333.27163
G0 F6000 X184 Y206.411
G1 F900 X184 Y195.59 E334.56729
G0 F6000 X180.654 Y186.285
G0 X180.419 Y185.062
G0 X180.8 Y181.836
G1 F900 X180.8 Y131.357 E340.61147
G0 F6000 X182.4 Y131.709
G1 F900 X182.4 Y180.235 E346.4218
G0 F6000 X184 Y179.055
G1 F900 X184 Y132.832 E351.95638
G0 F6000 X136 Y155.786
G1 F900 X136 Y156.077 E351.99123
G0 F6000 X138.633 Y183.219
G0 X138.452 Y184.462
G0 X136 Y189.938
G1 F900 X136 Y212.061 E354.64016
G0 F6000 X134.4 Y207.747
G1 F900 X134.4 Y194.251 E356.25612
G0 F600 X134.4 Y194.251 Z0.66
G0 F6000 X138.811 Y216.593
;TIME_ELAPSED:206.884285
;LAYER:-5
;TYPE:SUPPORT
G1 F900 X143.406 Y221.188 E356.90453
G1 X141.291 Y219.454 E357.17742
G1 X141.176 Y219.353 E357.19269
G1 X140.871 Y219.068 E357.23434
G1 X140.738 Y218.93 E357.25347
G1 X140.56 Y218.725 E357.28056
G0 F6000 X143.406 Y221.188
G1 F900 X144.397 Y222.001 E357.40846
G1 X144.573 Y222.137 E357.43065
G1 X144.756 Y222.262 E357.45276
G1 X145.128 Y222.493 E357.49646
G1 X145.219 Y222.544 E357.50687
G1 X147.276 Y223.644 E357.73962
G1 X136.352 Y212.719 E359.28118
G1 X135.584 Y211.282 E359.44376
G1 X135.502 Y211.115 E359.46232
G1 X135.341 Y210.764 E359.50086
G1 X135.258 Y210.55 E359.52376
G1 X135.187 Y210.34 E359.54588
G1 X135.1 Y210.053 E359.5758
G1 X149.944 Y224.898 E361.67052
G1 X151.974 Y225.514 E361.8822
G1 X134.483 Y208.023 E364.35036
G1 X134.017 Y206.484 E364.51081
G1 X133.988 Y206.373 E364.52226
G1 X133.906 Y206.031 E364.55735
G1 X153.968 Y226.093 E367.38832
G1 X153.983 Y226.096 E367.38984
G1 X154.421 Y226.167 E367.43412
G1 X154.515 Y226.179 E367.44357
G1 X155.572 Y226.283 E367.54955
G1 X133.713 Y204.424 E370.63409
G1 X133.559 Y202.856 E370.7913
G1 X157.141 Y226.438 E374.11897
G1 X158.524 Y226.574 E374.25764
G1 X158.704 Y226.586 E374.27564
G1 X133.417 Y201.299 E377.84391
G1 X133.406 Y200.951 E377.87865
G1 X133.409 Y200.749 E377.8988
G1 X133.429 Y200.463 E377.92741
G1 X133.479 Y199.947 E377.97914
G1 X160.05 Y226.518 E381.72859
G1 X161.337 Y226.39 E381.85764
G1 X133.607 Y198.66 E385.77065
G1 X133.733 Y197.373 E385.89968
G1 X162.624 Y226.264 E389.97651
G1 X163.498 Y226.178 E390.06414
G1 X163.746 Y226.146 E390.08909
G1 X163.893 Y226.119 E390.104
G1 X133.882 Y196.107 E394.33895
G1 X133.904 Y195.968 E394.35299
G1 X133.947 Y195.768 E394.3734
G1 X134.017 Y195.514 E394.39969
G1 X134.176 Y194.987 E394.45462
G1 X165.01 Y225.821 E398.80563
G1 X166.095 Y225.492 E398.91876
G1 X134.505 Y193.902 E403.37645
G1 X134.833 Y192.816 E403.48965
G1 X167.18 Y225.163 E408.05416
G1 X168.265 Y224.834 E408.16729
G1 X135.162 Y191.731 E412.83848
G1 X135.174 Y191.693 E412.84245
G1 X135.211 Y191.589 E412.85347
G1 X135.373 Y191.157 E412.8995
G1 X135.442 Y190.995 E412.91707
G1 X135.521 Y190.833 E412.93506
G1 X135.576 Y190.73 E412.94671
G1 X169.267 Y224.422 E417.70094
G1 X169.289 Y224.411 E417.7034
G1 X170.189 Y223.93 E417.80522
G1 X136.068 Y189.808 E422.62013
G1 X136.561 Y188.887 E422.72437
G1 X171.111 Y223.437 E427.59975
G1 X172.032 Y222.944 E427.70398
G1 X137.053 Y187.965 E432.6399
G1 X137.453 Y187.219 E432.72436
G1 X137.502 Y187.131 E432.73441
G1 X137.552 Y187.05 E432.74391
G1 X172.95 Y222.448 E437.73895
G1 X172.992 Y222.423 E437.74382
G1 X173.212 Y222.282 E437.7699
G1 X173.526 Y222.057 E437.80844
G1 X173.659 Y221.953 E437.82529
G1 X173.775 Y221.858 E437.84025
G1 X138.122 Y186.205 E442.87127
G1 X138.368 Y185.836 E442.91552
G1 X138.633 Y185.302 E442.975
G1 X174.552 Y221.221 E448.04356
G1 X175.328 Y220.583 E448.1438
G1 X138.972 Y184.227 E453.27403
G1 X139.039 Y183.912 E453.30616
G1 X139.094 Y183.232 E453.37423
G1 X139.08 Y182.921 E453.4053
G1 X176.104 Y219.945 E458.62978
G1 X176.73 Y219.433 E458.71048
G1 X176.878 Y219.304 E458.73007
G1 X138.707 Y181.133 E464.11641
G1 X138.467 Y180.6 E464.17473
G1 X138.109 Y180.02 E464.24274
G1 X137.685 Y179.491 E464.31039
G1 X137.412 Y179.214 E464.34919
G1 X137.366 Y179.17 E464.35555
G1 X137.171 Y178.96 E464.38414
G1 X136.979 Y178.725 E464.41442
G1 X136.818 Y178.502 E464.44186
G1 X136.656 Y178.243 E464.47235
G1 X136.529 Y178.004 E464.49935
G1 X136.401 Y177.729 E464.52962
G1 X136.3 Y177.468 E464.55754
G1 X136.228 Y177.24 E464.5814
G1 X177.562 Y218.575 E470.41414
G1 X178.2 Y217.798 E470.51446
G1 X136.031 Y175.629 E476.46496
G1 X136.031 Y174.214 E476.60615
G1 X178.837 Y217.02 E482.64654
G1 X179.475 Y216.244 E482.74678
G1 X136.031 Y172.8 E488.8772
G1 X136.031 Y171.386 E489.01829
G1 X180.108 Y215.463 E495.23803
G1 X180.138 Y215.424 E495.24294
G1 X180.266 Y215.238 E495.26547
G1 X180.496 Y214.865 E495.30919
G1 X180.545 Y214.778 E495.31915
G1 X180.647 Y214.588 E495.34067
G1 X136.031 Y169.972 E501.63647
G1 X136.031 Y168.557 E501.77766
G1 X181.139 Y213.666 E508.14296
G1 X181.632 Y212.745 E508.24719
G1 X136.031 Y167.143 E514.68206
G1 X136.031 Y165.729 E514.82315
G1 X182.124 Y211.823 E521.32744
G1 X182.476 Y211.164 E521.40199
G1 X182.555 Y211.001 E521.42006
G1 X182.605 Y210.889 E521.4323
G1 X136.031 Y164.315 E528.00439
G1 X136.031 Y162.901 E528.14548
G1 X182.966 Y209.836 E534.76852
G1 X183.294 Y208.75 E534.88171
G1 X136.031 Y161.486 E541.5511
G1 X136.031 Y160.072 E541.69219
G1 X183.623 Y207.665 E548.40801
G1 X183.953 Y206.58 E548.52117
G1 X136.031 Y158.658 E555.28348
G1 X136.031 Y157.244 E555.42457
G1 X184.188 Y205.401 E562.22004
G1 X184.315 Y204.114 E562.34908
G1 X135.997 Y155.796 E569.16727
G1 X136.021 Y155.446 E569.20228
G1 X136.031 Y155.118 E569.23502
G1 X136.03 Y154.415 E569.30517
G1 X184.442 Y202.827 E576.13662
G1 X184.569 Y201.54 E576.26567
G1 X136.03 Y153 E583.11511
G1 X136.03 Y151.586 E583.2562
G1 X184.533 Y200.09 E590.10057
G1 X184.378 Y198.52 E590.25799
G1 X136.03 Y150.172 E597.08041
G1 X136.03 Y148.758 E597.2215
G1 X184.223 Y196.951 E604.02206
G1 X184.178 Y196.499 E604.06738
G1 X184.148 Y196.258 E604.09161
G1 X184.105 Y196.026 E604.11515
G1 X184.008 Y195.609 E604.15787
G1 X183.979 Y195.505 E604.16865
G1 X183.888 Y195.201 E604.20031
G1 X136.03 Y147.344 E610.95352
G1 X136.03 Y145.929 E611.09471
G1 X183.271 Y193.17 E617.76093
G1 X182.811 Y191.657 E617.91872
G1 X182.782 Y191.564 E617.92844
G1 X182.734 Y191.43 E617.94264
G1 X182.656 Y191.232 E617.96387
G1 X182.58 Y191.065 E617.98218
G1 X136.03 Y144.515 E624.55089
G1 X136.03 Y143.101 E624.69198
G1 X181.004 Y188.075 E631.0383
G1 X180.578 Y187.278 E631.12847
G1 X180.215 Y186.432 E631.22032
G1 X180.044 Y185.767 E631.28884
G1 X180.035 Y185.691 E631.29647
G1 X136.03 Y141.687 E637.50598
G1 X136.03 Y140.273 E637.64707
G1 X179.981 Y184.223 E643.84896
G1 X180.044 Y183.729 E643.89865
G1 X180.214 Y183.068 E643.96676
G1 X180.222 Y183.05 E643.96872
G1 X136.03 Y138.858 E650.20469
G1 X136.03 Y137.444 E650.34578
G1 X180.665 Y182.079 E656.64426
G1 X180.798 Y181.837 E656.67181
G1 X181.201 Y181.286 E656.73993
G1 X181.243 Y181.243 E656.74593
G1 X136.03 Y136.03 E663.12597
G1 X136.03 Y136.017 E663.12727
G1 X136.034 Y135.891 E663.13984
G1 X136.057 Y135.514 E663.17753
G1 X136.095 Y135.217 E663.20741
G1 X136.15 Y134.932 E663.23637
G1 X136.19 Y134.776 E663.25244
G1 X181.964 Y180.55 E669.71164
G1 X182.198 Y180.358 E669.74185
G1 X182.768 Y180.003 E669.80885
G1 X182.809 Y179.981 E669.81349
G1 X136.59 Y133.761 E676.33556
G1 X136.689 Y133.583 E676.35589
G1 X136.838 Y133.349 E676.38357
G1 X137.02 Y133.102 E676.41418
G1 X137.168 Y132.925 E676.4372
G1 X183.646 Y179.403 E682.99575
G0 F6000 X183.649 Y179.402
G1 F900 X183.854 Y179.211 E683.02371
G1 X184.068 Y178.985 E683.05476
G1 X184.249 Y178.769 E683.08288
G1 X184.324 Y178.667 E683.09552
G1 X137.904 Y132.248 E689.64581
G1 X138.069 Y132.129 E689.66611
G1 X138.327 Y131.968 E689.69645
G1 X138.567 Y131.84 E689.72359
G1 X138.802 Y131.731 E689.74944
G1 X184.842 Y177.771 E696.24618
G1 X184.95 Y177.5 E696.27529
G1 X185.034 Y177.241 E696.30246
G1 X185.109 Y176.951 E696.33235
G1 X185.163 Y176.678 E696.36011
G1 X139.901 Y131.415 E702.74714
G1 X139.983 Y131.401 E702.75544
G1 X140.537 Y131.352 E702.81094
G1 X140.759 Y131.342 E702.83311
G1 X141.241 Y131.342 E702.8812
G1 X185.23 Y175.331 E709.08853
G1 X185.23 Y173.917 E709.22962
G1 X142.655 Y131.342 E715.23741
G1 X144.07 Y131.342 E715.3786
G1 X185.23 Y172.502 E721.18672
G1 X185.23 Y171.088 E721.32781
G1 X145.484 Y131.342 E726.9364
G1 X146.898 Y131.342 E727.07749
G1 X185.23 Y169.674 E732.48655
G1 X185.23 Y168.26 E732.62764
G1 X148.312 Y131.342 E737.83717
G1 X149.727 Y131.342 E737.97836
G1 X185.23 Y166.846 E742.98828
G1 X185.23 Y165.431 E743.12947
G1 X151.141 Y131.342 E747.9398
G1 X152.555 Y131.342 E748.08089
G1 X185.23 Y164.017 E752.69168
G1 X185.23 Y162.603 E752.83277
G1 X153.969 Y131.342 E757.24404
G1 X155.383 Y131.342 E757.38513
G1 X185.23 Y161.189 E761.59686
G1 X185.23 Y159.775 E761.73795
G1 X156.798 Y131.342 E765.75008
G1 X158.212 Y131.342 E765.89117
G1 X185.23 Y158.36 E769.7037
G1 X185.23 Y156.946 E769.84479
G1 X159.626 Y131.342 E773.45779
G1 X159.874 Y131.342 E773.48254
G1 X160.34 Y131.321 E773.52909
G1 X160.446 Y131.311 E773.53971
G1 X160.636 Y131.304 E773.55868
G1 X160.721 Y131.305 E773.56716
G1 X161.024 Y131.325 E773.59746
G1 X185.244 Y155.545 E777.01516
G1 X185.23 Y155.241 E777.04553
G1 X185.23 Y154.118 E777.15758
