;FLAVOR:Marlin
;TIME:7001
;Filament used: 4.30729m, 0m, 0m, 0m
;Layer height: 0.2
;MINX:111
;MINY:88
;MINZ:0.3
;MAXX:189
;MAXY:212
;MAXZ:11.7
;Generated with Cura_SteamEngine 4.7.1
T0
M140 S90
M105
M190 S90
M104 S235
M105
M109 S235
M82 ;absolute extrusion mode
G28
G1 Z15 F300
M107
;Prime the extruder
G92 E0
G1 F200 E3
G92 E0
T17
G1 X5 Y10 F1500 ; move to prime
G1 Z0.2 F3000 ; get ready to prime
G92 E0 ; reset extrusion distance
G1 Y250 E15 F600 ; prime nozzle
G1 Y100 F5000 ; quick wipe
T0

G92 E0
;Extruder 1 start code

G92 E0
G1 F1500 E-10
;LAYER_COUNT:59
;LAYER:0
M107
G0 F2400 X112.461 Y90.746 Z0.3
;TYPE:SKIRT
G1 F1500 E0
G1 F1200 X112.84 Y90.294 E0.02943
G1 X113.115 Y90.012 E0.04908
G1 X113.242 Y89.887 E0.05797
G1 X113.703 Y89.498 E0.08806
G1 X114.167 Y89.163 E0.11662
G1 X114.221 Y89.126 E0.11988
G1 X114.727 Y88.831 E0.1491
G1 X115.063 Y88.667 E0.16776
G1 X115.337 Y88.543 E0.18276
G1 X115.885 Y88.344 E0.21185
G1 X116.272 Y88.236 E0.23189
G1 X116.447 Y88.191 E0.24091
G1 X117.024 Y88.087 E0.27016
G1 X117.557 Y88.032 E0.29689
G1 X117.659 Y88.024 E0.30199
G1 X117.912 Y88.012 E0.31463
G1 X118.714 Y88 E0.35465
G1 X184.35 Y88 E3.62924
G1 X185.048 Y88.01 E3.66407
G1 X185.612 Y88.058 E3.69231
G1 X186.162 Y88.185 E3.72047
G1 X186.69 Y88.389 E3.74871
G1 X187.184 Y88.664 E3.77692
G1 X187.633 Y89.007 E3.80511
G1 X188.03 Y89.409 E3.83329
G1 X188.367 Y89.864 E3.86154
G1 X188.635 Y90.361 E3.88971
G1 X188.831 Y90.891 E3.9179
G1 X188.951 Y91.444 E3.94614
G1 X188.989 Y91.896 E3.96877
G1 X189 Y92.326 E3.99023
G1 X189 Y207.314 E9.727
G1 X188.991 Y208.041 E9.76327
G1 X188.944 Y208.604 E9.79146
G1 X188.818 Y209.155 E9.81966
G1 X188.616 Y209.683 E9.84786
G1 X188.341 Y210.177 E9.87607
G1 X187.999 Y210.627 E9.90427
G1 X187.597 Y211.025 E9.93249
G1 X187.144 Y211.362 E9.96066
G1 X186.647 Y211.632 E9.98888
G1 X186.117 Y211.829 E10.01709
G1 X185.565 Y211.95 E10.04528
G1 X185.103 Y211.989 E10.06841
G1 X184.67 Y212 E10.09002
G1 X118.653 Y212 E13.38362
G1 X117.986 Y211.991 E13.4169
G1 X117.747 Y211.98 E13.42884
G1 X117.284 Y211.945 E13.452
G1 X117.12 Y211.929 E13.46022
G1 X116.522 Y211.824 E13.49051
G1 X116.06 Y211.706 E13.5143
G1 X115.932 Y211.671 E13.52092
G1 X115.343 Y211.46 E13.55214
G1 X115.048 Y211.327 E13.56828
G1 X114.797 Y211.207 E13.58216
G1 X114.291 Y210.917 E13.61126
G1 X113.942 Y210.681 E13.63228
G1 X113.791 Y210.574 E13.64151
G1 X113.313 Y210.176 E13.67254
G1 X113.005 Y209.876 E13.69399
G1 X112.857 Y209.726 E13.70451
G1 X112.483 Y209.281 E13.73351
G1 X112.261 Y208.974 E13.75241
G1 X112.194 Y208.879 E13.75821
G1 X112.126 Y208.779 E13.76424
G1 X111.839 Y208.283 E13.79283
G1 X111.641 Y207.877 E13.81537
G1 X111.584 Y207.756 E13.82204
G1 X111.542 Y207.662 E13.82718
G1 X111.344 Y207.115 E13.8562
G1 X111.236 Y206.728 E13.87624
G1 X111.191 Y206.553 E13.88526
G1 X111.087 Y205.976 E13.91451
G1 X111.042 Y205.549 E13.93593
G1 X111.025 Y205.349 E13.94594
G1 X111.012 Y205.09 E13.95888
G1 X111 Y204.286 E13.999
G1 X111 Y95.653 E19.41872
G1 X111.009 Y94.985 E19.45205
G1 X111.02 Y94.746 E19.46399
G1 X111.055 Y94.284 E19.4871
G1 X111.071 Y94.12 E19.49532
G1 X111.176 Y93.522 E19.52561
G1 X111.296 Y93.052 E19.54981
G1 X111.331 Y92.925 E19.55639
G1 X111.539 Y92.348 E19.58699
G1 X111.703 Y91.985 E19.60686
G1 X111.779 Y91.825 E19.6157
G1 X112.082 Y91.295 E19.64615
G1 X112.325 Y90.937 E19.66774
G1 X112.461 Y90.746 E19.67944
G0 F2400 X112.785 Y90.98
G1 F1200 X113.126 Y90.573 E19.70593
G1 X113.396 Y90.297 E19.72519
G1 X113.523 Y90.172 E19.73408
G1 X113.937 Y89.822 E19.76113
G1 X114.393 Y89.493 E19.78918
G1 X114.447 Y89.456 E19.79245
G1 X114.903 Y89.191 E19.81876
G1 X115.239 Y89.027 E19.83741
G1 X115.348 Y88.976 E19.84342
G1 X115.5 Y88.908 E19.85172
G1 X115.993 Y88.729 E19.87789
G1 X116.371 Y88.623 E19.89748
G1 X116.546 Y88.578 E19.90649
G1 X117.066 Y88.485 E19.93285
G1 X117.589 Y88.431 E19.95908
G1 X117.691 Y88.423 E19.96418
G1 X117.918 Y88.412 E19.97552
G1 X118.72 Y88.4 E20.01554
G1 X184.345 Y88.4 E23.28958
G1 X185.043 Y88.41 E23.32441
G1 X185.577 Y88.458 E23.35116
G1 X186.098 Y88.584 E23.3779
G1 X186.595 Y88.787 E23.40468
G1 X187.056 Y89.061 E23.43144
G1 X187.471 Y89.4 E23.45817
G1 X187.831 Y89.798 E23.48495
G1 X188.128 Y90.244 E23.51168
G1 X188.356 Y90.73 E23.53846
G1 X188.508 Y91.244 E23.5652
G1 X188.59 Y91.908 E23.59858
G1 X188.599 Y92.224 E23.61435
G1 X188.6 Y207.309 E29.35597
G1 X188.591 Y208.036 E29.39224
G1 X188.544 Y208.57 E29.41899
G1 X188.419 Y209.091 E29.44572
G1 X188.217 Y209.588 E29.47248
G1 X187.944 Y210.05 E29.49925
G1 X187.606 Y210.466 E29.526
G1 X187.209 Y210.827 E29.55277
G1 X186.763 Y211.125 E29.57953
G1 X186.278 Y211.353 E29.60626
G1 X185.764 Y211.507 E29.63303
G1 X185.092 Y211.59 E29.66681
G1 X184.771 Y211.599 E29.68284
G1 X118.658 Y211.6 E32.98123
G1 X117.991 Y211.591 E33.01451
G1 X117.777 Y211.581 E33.02519
G1 X117.322 Y211.547 E33.04796
G1 X117.158 Y211.531 E33.05618
G1 X116.62 Y211.437 E33.08343
G1 X116.165 Y211.321 E33.10685
G1 X116.037 Y211.286 E33.11347
G1 X115.507 Y211.095 E33.14158
G1 X115.212 Y210.962 E33.15772
G1 X114.971 Y210.847 E33.17105
G1 X114.515 Y210.585 E33.19728
G1 X114.101 Y210.304 E33.22225
G1 X114.022 Y210.248 E33.22708
G1 X113.592 Y209.89 E33.25499
G1 X113.284 Y209.59 E33.27644
G1 X113.144 Y209.447 E33.28643
G1 X112.807 Y209.047 E33.31252
G1 X112.585 Y208.74 E33.33142
G1 X112.457 Y208.554 E33.34269
G1 X112.198 Y208.108 E33.36842
G1 X112 Y207.702 E33.39095
G1 X111.907 Y207.499 E33.40209
G1 X111.729 Y207.007 E33.4282
G1 X111.623 Y206.629 E33.44778
G1 X111.578 Y206.454 E33.4568
G1 X111.485 Y205.934 E33.48315
G1 X111.431 Y205.417 E33.50909
G1 X111.423 Y205.317 E33.51409
G1 X111.412 Y205.084 E33.52573
G1 X111.4 Y204.28 E33.56584
G1 X111.4 Y95.659 E38.98497
G1 X111.409 Y94.991 E39.0183
G1 X111.419 Y94.775 E39.02909
G1 X111.453 Y94.322 E39.05175
G1 X111.469 Y94.158 E39.05997
G1 X111.563 Y93.62 E39.08722
G1 X111.681 Y93.159 E39.11096
G1 X111.716 Y93.032 E39.11753
G1 X111.903 Y92.512 E39.1451
G1 X112.064 Y92.156 E39.16459
G1 X112.14 Y91.996 E39.17343
G1 X112.413 Y91.519 E39.20085
G1 X112.656 Y91.161 E39.22244
G1 X112.785 Y90.98 E39.23352
G0 F2400 X113.11 Y91.213
G1 F1200 X113.413 Y90.852 E39.25704
G1 X113.676 Y90.582 E39.27584
G1 X113.803 Y90.457 E39.28473
G1 X114.172 Y90.146 E39.30881
G1 X114.619 Y89.823 E39.33632
G1 X114.673 Y89.786 E39.33959
G1 X115.078 Y89.55 E39.36297
G1 X115.414 Y89.386 E39.38163
G1 X115.663 Y89.273 E39.39527
G1 X116.102 Y89.114 E39.41856
G1 X116.471 Y89.011 E39.43768
G1 X116.646 Y88.966 E39.44669
G1 X117.108 Y88.883 E39.47011
G1 X117.62 Y88.83 E39.49579
G1 X117.722 Y88.822 E39.5009
G1 X117.924 Y88.812 E39.51099
G1 X118.726 Y88.8 E39.551
G1 X184.339 Y88.8 E42.82445
G1 X185.037 Y88.81 E42.85927
G1 X185.54 Y88.857 E42.88448
G1 X186.03 Y88.983 E42.90972
G1 X186.494 Y89.185 E42.93497
G1 X186.92 Y89.457 E42.96018
G1 X187.298 Y89.792 E42.98538
G1 X187.618 Y90.183 E43.01059
G1 X187.873 Y90.62 E43.03583
G1 X188.056 Y91.091 E43.06104
G1 X188.163 Y91.585 E43.08626
G1 X188.19 Y91.919 E43.10298
G1 X188.199 Y92.235 E43.11875
G1 X188.2 Y207.304 E48.85956
G1 X188.191 Y208.031 E48.89584
G1 X188.145 Y208.534 E48.92104
G1 X188.02 Y209.024 E48.94627
G1 X187.819 Y209.488 E48.97149
G1 X187.548 Y209.915 E48.99672
G1 X187.213 Y210.294 E49.02196
G1 X186.823 Y210.615 E49.04716
G1 X186.387 Y210.871 E49.07239
G1 X185.916 Y211.054 E49.0976
G1 X185.422 Y211.162 E49.12282
G1 X185.081 Y211.19 E49.13989
G1 X184.76 Y211.199 E49.15591
G1 X118.664 Y211.2 E52.45346
G1 X117.997 Y211.191 E52.48674
G1 X117.806 Y211.182 E52.49628
G1 X117.361 Y211.149 E52.51854
G1 X117.197 Y211.133 E52.52676
G1 X116.719 Y211.049 E52.55097
G1 X116.271 Y210.935 E52.57404
G1 X116.143 Y210.9 E52.58066
G1 X115.672 Y210.73 E52.60564
G1 X115.304 Y210.563 E52.6258
G1 X115.144 Y210.486 E52.63466
G1 X114.739 Y210.254 E52.65794
G1 X114.332 Y209.978 E52.68248
G1 X114.253 Y209.922 E52.68731
G1 X113.871 Y209.603 E52.71214
G1 X113.502 Y209.243 E52.73786
G1 X113.43 Y209.169 E52.74301
G1 X113.131 Y208.812 E52.76624
G1 X112.909 Y208.505 E52.78514
G1 X112.788 Y208.329 E52.7958
G1 X112.558 Y207.933 E52.81864
G1 X112.36 Y207.527 E52.84118
G1 X112.272 Y207.335 E52.85172
G1 X112.114 Y206.898 E52.8749
G1 X112.011 Y206.529 E52.89401
G1 X111.966 Y206.354 E52.90303
G1 X111.883 Y205.892 E52.92645
G1 X111.83 Y205.385 E52.95188
G1 X111.822 Y205.285 E52.95688
G1 X111.812 Y205.078 E52.96722
G1 X111.8 Y204.274 E53.00734
G1 X111.8 Y95.664 E58.42591
G1 X111.809 Y94.996 E58.45924
G1 X111.818 Y94.804 E58.46883
G1 X111.851 Y94.361 E58.491
G1 X111.867 Y94.197 E58.49922
G1 X111.951 Y93.719 E58.52343
G1 X112.067 Y93.265 E58.54681
G1 X112.102 Y93.138 E58.55338
G1 X112.268 Y92.676 E58.57787
G1 X112.397 Y92.389 E58.59357
G1 X112.502 Y92.168 E58.60578
G1 X112.744 Y91.744 E58.63013
G1 X113.038 Y91.313 E58.65616
G1 X113.11 Y91.213 E58.66231
G0 F2400 X121.429 Y98.95
G1 F1200 X121.509 Y98.913 E58.66671
G1 X121.587 Y98.984 E58.67197
G1 X121.536 Y99.08 E58.67739
G1 X121.433 Y99.056 E58.68267
G1 X121.429 Y98.95 E58.68796
G0 F2400 X121.084 Y98.742
G1 F1200 X121.207 Y98.608 E58.69704
G1 X121.36 Y98.531 E58.70558
G1 X121.545 Y98.513 E58.71486
G1 X121.715 Y98.56 E58.72366
G1 X121.86 Y98.669 E58.73271
G1 X121.957 Y98.824 E58.74183
G1 X121.988 Y98.988 E58.75015
G1 X121.979 Y99.096 E58.75556
G1 X121.916 Y99.257 E58.76419
G1 X121.793 Y99.392 E58.7733
G1 X121.64 Y99.469 E58.78184
G1 X121.455 Y99.487 E58.79112
G1 X121.285 Y99.44 E58.79992
G1 X121.14 Y99.331 E58.80897
G1 X121.043 Y99.176 E58.81809
G1 X121.012 Y99.012 E58.82642
G1 X121.021 Y98.908 E58.83162
G1 X121.084 Y98.742 E58.84048
G0 F2400 X120.744 Y98.53
G1 F1200 X120.841 Y98.401 E58.84853
G1 X120.965 Y98.288 E58.8569
G1 X121.108 Y98.2 E58.86528
G1 X121.255 Y98.143 E58.87315
G1 X121.415 Y98.113 E58.88127
G1 X121.585 Y98.113 E58.88975
G1 X121.745 Y98.143 E58.89787
G1 X121.892 Y98.2 E58.90574
G1 X122.035 Y98.288 E58.91411
G1 X122.161 Y98.403 E58.92262
G1 X122.257 Y98.53 E58.93057
G1 X122.333 Y98.684 E58.93914
G1 X122.376 Y98.835 E58.94697
G1 X122.39 Y98.991 E58.95478
G1 X122.375 Y99.166 E58.96354
G1 X122.33 Y99.324 E58.97174
G1 X122.259 Y99.468 E58.97975
G1 X122.161 Y99.597 E58.98783
G1 X122.035 Y99.712 E58.99634
G1 X121.892 Y99.8 E59.00472
G1 X121.745 Y99.857 E59.01259
G1 X121.585 Y99.887 E59.02071
G1 X121.415 Y99.887 E59.02919
G1 X121.255 Y99.857 E59.03731
G1 X121.108 Y99.8 E59.04518
G1 X120.965 Y99.712 E59.05355
G1 X120.839 Y99.597 E59.06207
G1 X120.743 Y99.47 E59.07001
G1 X120.667 Y99.316 E59.07858
G1 X120.624 Y99.165 E59.08641
G1 X120.61 Y99.008 E59.09427
G1 X120.625 Y98.837 E59.10284
G1 X120.67 Y98.679 E59.11103
G1 X120.744 Y98.53 E59.11933
G0 F2400 X120.401 Y98.32
G1 F1200 X120.543 Y98.132 E59.13109
G1 X120.724 Y97.967 E59.14331
G1 X120.929 Y97.84 E59.15534
G1 X121.142 Y97.757 E59.16674
G1 X121.379 Y97.713 E59.17877
G1 X121.621 Y97.713 E59.19084
G1 X121.858 Y97.757 E59.20287
G1 X122.071 Y97.84 E59.21427
G1 X122.276 Y97.967 E59.2263
G1 X122.457 Y98.132 E59.23852
G1 X122.601 Y98.322 E59.25042
G1 X122.707 Y98.536 E59.26233
G1 X122.77 Y98.761 E59.27399
G1 X122.792 Y98.99 E59.28547
G1 X122.769 Y99.241 E59.29804
G1 X122.706 Y99.467 E59.30975
G1 X122.6 Y99.679 E59.32157
G1 X122.457 Y99.868 E59.33339
G1 X122.276 Y100.033 E59.34561
G1 X122.071 Y100.16 E59.35764
G1 X121.858 Y100.243 E59.36905
G1 X121.621 Y100.287 E59.38108
G1 X121.379 Y100.287 E59.39315
G1 X121.142 Y100.243 E59.40517
G1 X120.929 Y100.16 E59.41658
G1 X120.724 Y100.033 E59.42861
G1 X120.543 Y99.868 E59.44083
G1 X120.399 Y99.678 E59.45272
G1 X120.293 Y99.464 E59.46464
G1 X120.23 Y99.24 E59.47625
G1 X120.208 Y99.01 E59.48777
G1 X120.231 Y98.761 E59.50025
G1 X120.296 Y98.532 E59.51213
G1 X120.401 Y98.32 E59.52393
G0 F2400 X120.061 Y98.106
G1 F1200 X120.249 Y97.858 E59.53946
G1 X120.479 Y97.648 E59.55499
G1 X120.75 Y97.48 E59.5709
G1 X121.03 Y97.371 E59.58589
G1 X121.344 Y97.313 E59.60182
G1 X121.656 Y97.313 E59.61739
G1 X121.97 Y97.371 E59.63332
G1 X122.25 Y97.48 E59.64831
G1 X122.521 Y97.648 E59.66422
G1 X122.753 Y97.86 E59.6799
G1 X122.94 Y98.106 E59.69531
G1 X123.083 Y98.395 E59.7114
G1 X123.166 Y98.69 E59.72669
G1 X123.194 Y98.983 E59.74137
G1 X123.164 Y99.317 E59.7581
G1 X123.082 Y99.607 E59.77314
G1 X122.939 Y99.895 E59.78918
G1 X122.753 Y100.14 E59.80453
G1 X122.521 Y100.352 E59.82021
G1 X122.25 Y100.52 E59.83611
G1 X121.97 Y100.629 E59.8511
G1 X121.656 Y100.687 E59.86703
G1 X121.344 Y100.687 E59.8826
G1 X121.03 Y100.629 E59.89853
G1 X120.75 Y100.52 E59.91352
G1 X120.479 Y100.352 E59.92943
G1 X120.247 Y100.14 E59.94511
G1 X120.06 Y99.894 E59.96052
G1 X119.917 Y99.605 E59.97661
G1 X119.834 Y99.31 E59.9919
G1 X119.807 Y99.016 E60.00663
G1 X119.836 Y98.686 E60.02316
G1 X119.92 Y98.391 E60.03846
G1 X120.061 Y98.106 E60.05432
G0 F2400 X119.948 Y97.592
G1 F1200 X120.241 Y97.325 E60.0741
G1 X120.57 Y97.121 E60.09341
G1 X120.918 Y96.986 E60.11203
G1 X121.309 Y96.913 E60.13188
G1 X121.691 Y96.913 E60.15094
G1 X122.082 Y96.986 E60.17078
G1 X122.43 Y97.121 E60.1894
G1 X122.759 Y97.325 E60.20872
G1 X123.052 Y97.592 E60.22849
G1 X123.283 Y97.897 E60.24758
G1 X123.458 Y98.25 E60.26724
G1 X123.56 Y98.614 E60.2861
G1 X123.595 Y98.986 E60.30474
G1 X123.559 Y99.388 E60.32488
G1 X123.456 Y99.755 E60.34389
G1 X123.283 Y100.103 E60.36328
G1 X123.052 Y100.408 E60.38237
G1 X122.759 Y100.675 E60.40215
G1 X122.43 Y100.879 E60.42146
G1 X122.082 Y101.014 E60.44008
G1 X121.691 Y101.087 E60.45993
G1 X121.309 Y101.087 E60.47898
G1 X120.918 Y101.014 E60.49883
G1 X120.57 Y100.879 E60.51745
G1 X120.241 Y100.675 E60.53676
G1 X119.948 Y100.408 E60.55654
G1 X119.717 Y100.103 E60.57563
G1 X119.542 Y99.75 E60.59529
G1 X119.44 Y99.386 E60.61414
G1 X119.405 Y99.012 E60.63289
G1 X119.44 Y98.615 E60.65277
G1 X119.545 Y98.246 E60.67191
G1 X119.719 Y97.894 E60.6915
G1 X119.948 Y97.592 E60.71041
G1 F1500 E50.71041
G0 F2400 X154.878 Y98.47
G0 X155.084 Y98.41
G0 X157.08 Y98.517
G0 X176.405 Y99.012
G1 F1500 E60.71041
G1 F1200 X176.44 Y98.615 E60.73029
G1 X176.545 Y98.246 E60.74943
G1 X176.719 Y97.894 E60.76902
G1 X176.948 Y97.592 E60.78793
G1 X177.241 Y97.325 E60.80771
G1 X177.57 Y97.121 E60.82702
G1 X177.918 Y96.986 E60.84564
G1 X178.309 Y96.913 E60.86549
G1 X178.691 Y96.913 E60.88454
G1 X179.082 Y96.986 E60.90439
G1 X179.43 Y97.121 E60.92301
G1 X179.759 Y97.325 E60.94232
G1 X180.052 Y97.592 E60.9621
G1 X180.283 Y97.897 E60.98119
G1 X180.458 Y98.25 E61.00084
G1 X180.56 Y98.614 E61.0197
G1 X180.595 Y98.986 E61.03835
G1 X180.559 Y99.388 E61.05848
G1 X180.456 Y99.755 E61.0775
G1 X180.283 Y100.103 E61.09689
G1 X180.052 Y100.408 E61.11598
G1 X179.759 Y100.675 E61.13575
G1 X179.43 Y100.879 E61.15507
G1 X179.082 Y101.014 E61.17369
G1 X178.691 Y101.087 E61.19353
G1 X178.309 Y101.087 E61.21259
G1 X177.918 Y101.014 E61.23243
G1 X177.57 Y100.879 E61.25106
G1 X177.241 Y100.675 E61.27037
G1 X176.948 Y100.408 E61.29015
G1 X176.717 Y100.103 E61.30924
G1 X176.542 Y99.75 E61.32889
G1 X176.44 Y99.386 E61.34775
G1 X176.405 Y99.012 E61.36649
G0 F2400 X176.807 Y99.016
G1 F1200 X176.836 Y98.686 E61.38302
G1 X176.92 Y98.391 E61.39832
G1 X177.061 Y98.106 E61.41419
G1 X177.249 Y97.858 E61.42971
G1 X177.479 Y97.648 E61.44525
G1 X177.75 Y97.48 E61.46116
G1 X178.03 Y97.371 E61.47615
G1 X178.344 Y97.313 E61.49208
G1 X178.656 Y97.313 E61.50764
G1 X178.97 Y97.371 E61.52357
G1 X179.25 Y97.48 E61.53856
G1 X179.521 Y97.648 E61.55447
G1 X179.753 Y97.86 E61.57015
G1 X179.94 Y98.106 E61.58557
G1 X180.083 Y98.395 E61.60165
G1 X180.166 Y98.69 E61.61694
G1 X180.194 Y98.983 E61.63163
G1 X180.164 Y99.317 E61.64836
G1 X180.082 Y99.607 E61.66339
G1 X179.939 Y99.895 E61.67944
G1 X179.753 Y100.14 E61.69478
G1 X179.521 Y100.352 E61.71046
G1 X179.25 Y100.52 E61.72637
G1 X178.97 Y100.629 E61.74136
G1 X178.656 Y100.687 E61.75729
G1 X178.344 Y100.687 E61.77286
G1 X178.03 Y100.629 E61.78879
G1 X177.75 Y100.52 E61.80378
G1 X177.479 Y100.352 E61.81968
G1 X177.247 Y100.14 E61.83536
G1 X177.06 Y99.894 E61.85078
G1 X176.917 Y99.605 E61.86687
G1 X176.834 Y99.31 E61.88216
G1 X176.807 Y99.016 E61.89688
G0 F2400 X177.208 Y99.01
G1 F1200 X177.231 Y98.761 E61.90936
G1 X177.296 Y98.532 E61.92124
G1 X177.401 Y98.32 E61.93304
G1 X177.543 Y98.132 E61.94479
