; Generated with "ZONESTAR Laser Engraving Gcode generator V3"
;
M106 S255 ; turn off laser
G21; Set units to millimeters
G90; Use absolute coordinates
G28; home all axes
G92 X-5 Y0 Z0; Coordinate Offset
M0 turn on laser power and press knob ;Wait for laser turn on
;
G1 Z20 F400 ;Move up Z axis before engraving
;
G0 X104.7 Y105.2 F1200
M106 S0
G4 P20
G1 X104.8 Y105.2 F240
M106 S255
G4 P100
G0 X104.8 Y105.3 F1200
M106 S0
G4 P20
G1 X104.7 Y105.3 F240
M106 S255
G4 P100
G0 X85.7 Y105.3 F1200
M106 S0
G4 P20
G1 X85.7 Y105.3 F240
M106 S255
G4 P100
G0 X85.7 Y105.4 F1200
M106 S0
G4 P20
G1 X85.8 Y105.4 F240
M106 S255
G4 P100
G0 X104.6 Y105.4 F1200
M106 S0
G4 P20
G1 X104.9 Y105.4 F240
M106 S255
G4 P100
G0 X104.9 Y105.5 F1200
M106 S0
G4 P20
G1 X104.5 Y105.5 F240
M106 S255
G4 P100
G0 X85.9 Y105.5 F1200
M106 S0
G4 P20
G1 X85.6 Y105.5 F240
M106 S255
G4 P100
G0 X85.6 Y105.6 F1200
M106 S0
G4 P20
G1 X86.0 Y105.6 F240
M106 S255
G4 P100
G0 X104.4 Y105.6 F1200
M106 S0
G4 P20
G1 X104.9 Y105.6 F240
M106 S255
G4 P100
G0 X104.9 Y105.7 F1200
M106 S0
G4 P20
G1 X104.4 Y105.7 F240
M106 S255
G4 P100
G0 X86.0 Y105.7 F1200
M106 S0
G4 P20
G1 X85.6 Y105.7 F240
M106 S255
G4 P100
G0 X85.6 Y105.8 F1200
M106 S0
G4 P20
G1 X86.1 Y105.8 F240
M106 S255
G4 P100
G0 X104.3 Y105.8 F1200
M106 S0
G4 P20
G1 X105.0 Y105.8 F240
M106 S255
G4 P100
G0 X112.2 Y105.8 F1200
M106 S0
G4 P20
G1 X112.4 Y105.8 F240
M106 S255
G4 P100
G0 X112.4 Y105.9 F1200
M106 S0
G4 P20
G1 X112.1 Y105.9 F240
M106 S255
G4 P100
G0 X105.0 Y105.9 F1200
M106 S0
G4 P20
G1 X104.2 Y105.9 F240
M106 S255
G4 P100
G0 X86.2 Y105.9 F1200
M106 S0
G4 P20
G1 X85.6 Y105.9 F240
M106 S255
G4 P100
G0 X78.3 Y105.9 F1200
M106 S0
G4 P20
G1 X78.3 Y105.9 F240
M106 S255
G4 P100
G0 X78.2 Y106.0 F1200
M106 S0
G4 P20
G1 X78.4 Y106.0 F240
M106 S255
G4 P100
G0 X85.6 Y106.0 F1200
M106 S0
G4 P20
G1 X86.2 Y106.0 F240
M106 S255
G4 P100
G0 X104.1 Y106.0 F1200
M106 S0
G4 P20
G1 X105.0 Y106.0 F240
M106 S255
G4 P100
G0 X112.0 Y106.0 F1200
M106 S0
G4 P20
G1 X112.4 Y106.0 F240
M106 S255
G4 P100
G0 X112.4 Y106.1 F1200
M106 S0
G4 P20
G1 X111.9 Y106.1 F240
M106 S255
G4 P100
G0 X105.0 Y106.1 F1200
M106 S0
G4 P20
G1 X104.1 Y106.1 F240
M106 S255
G4 P100
G0 X86.3 Y106.1 F1200
M106 S0
G4 P20
G1 X85.6 Y106.1 F240
M106 S255
G4 P100
G0 X78.4 Y106.1 F1200
M106 S0
G4 P20
G1 X78.1 Y106.1 F240
M106 S255
G4 P100
G0 X78.1 Y106.2 F1200
M106 S0
G4 P20
G1 X78.6 Y106.2 F240
M106 S255
G4 P100
G0 X85.5 Y106.2 F1200
M106 S0
G4 P20
G1 X86.4 Y106.2 F240
M106 S255
G4 P100
G0 X104.0 Y106.2 F1200
M106 S0
G4 P20
G1 X105.0 Y106.2 F240
M106 S255
G4 P100
G0 X111.8 Y106.2 F1200
M106 S0
G4 P20
G1 X112.4 Y106.2 F240
M106 S255
G4 P100
G0 X112.4 Y106.3 F1200
M106 S0
G4 P20
G1 X111.6 Y106.3 F240
M106 S255
G4 P100
G0 X105.0 Y106.3 F1200
M106 S0
G4 P20
G1 X103.9 Y106.3 F240
M106 S255
G4 P100
G0 X86.5 Y106.3 F1200
M106 S0
G4 P20
G1 X85.5 Y106.3 F240
M106 S255
G4 P100
G0 X78.7 Y106.3 F1200
M106 S0
G4 P20
G1 X78.1 Y106.3 F240
M106 S255
G4 P100
G0 X78.1 Y106.4 F1200
M106 S0
G4 P20
G1 X78.8 Y106.4 F240
M106 S255
G4 P100
G0 X85.5 Y106.4 F1200
M106 S0
G4 P20
G1 X86.5 Y106.4 F240
M106 S255
G4 P100
G0 X103.8 Y106.4 F1200
M106 S0
G4 P20
G1 X105.0 Y106.4 F240
M106 S255
G4 P100
G0 X111.5 Y106.4 F1200
M106 S0
G4 P20
G1 X112.4 Y106.4 F240
M106 S255
G4 P100
G0 X112.4 Y106.5 F1200
M106 S0
G4 P20
G1 X111.3 Y106.5 F240
M106 S255
G4 P100
G0 X105.0 Y106.5 F1200
M106 S0
G4 P20
G1 X103.7 Y106.5 F240
M106 S255
G4 P100
G0 X86.6 Y106.5 F1200
M106 S0
G4 P20
G1 X85.5 Y106.5 F240
M106 S255
G4 P100
G0 X78.9 Y106.5 F1200
M106 S0
G4 P20
G1 X78.1 Y106.5 F240
M106 S255
G4 P100
G0 X78.1 Y106.6 F1200
M106 S0
G4 P20
G1 X79.1 Y106.6 F240
M106 S255
G4 P100
G0 X85.5 Y106.6 F1200
M106 S0
G4 P20
G1 X86.7 Y106.6 F240
M106 S255
G4 P100
G0 X103.7 Y106.6 F1200
M106 S0
G4 P20
G1 X104.9 Y106.6 F240
M106 S255
G4 P100
G0 X111.2 Y106.6 F1200
M106 S0
G4 P20
G1 X112.4 Y106.6 F240
M106 S255
G4 P100
G0 X112.4 Y106.7 F1200
M106 S0
G4 P20
G1 X111.1 Y106.7 F240
M106 S255
G4 P100
G0 X104.9 Y106.7 F1200
M106 S0
G4 P20
G1 X103.6 Y106.7 F240
M106 S255
G4 P100
G0 X86.8 Y106.7 F1200
M106 S0
G4 P20
G1 X85.5 Y106.7 F240
M106 S255
G4 P100
G0 X79.2 Y106.7 F1200
M106 S0
G4 P20
G1 X78.1 Y106.7 F240
M106 S255
G4 P100
G0 X78.1 Y106.8 F1200
M106 S0
G4 P20
G1 X79.4 Y106.8 F240
M106 S255
G4 P100
G0 X85.6 Y106.8 F1200
M106 S0
G4 P20
G1 X86.9 Y106.8 F240
M106 S255
G4 P100
G0 X103.5 Y106.8 F1200
M106 S0
G4 P20
G1 X104.9 Y106.8 F240
M106 S255
G4 P100
G0 X110.8 Y106.8 F1200
M106 S0
G4 P20
G1 X112.4 Y106.8 F240
M106 S255
G4 P100
G0 X112.4 Y106.9 F1200
M106 S0
G4 P20
G1 X110.7 Y106.9 F240
M106 S255
G4 P100
G0 X104.9 Y106.9 F1200
M106 S0
G4 P20
G1 X103.4 Y106.9 F240
M106 S255
G4 P100
G0 X86.9 Y106.9 F1200
M106 S0
G4 P20
G1 X85.6 Y106.9 F240
M106 S255
G4 P100
G0 X79.5 Y106.9 F1200
M106 S0
G4 P20
G1 X78.1 Y106.9 F240
M106 S255
G4 P100
G0 X78.2 Y107.0 F1200
M106 S0
G4 P20
G1 X79.7 Y107.0 F240
M106 S255
G4 P100
G0 X85.6 Y107.0 F1200
M106 S0
G4 P20
G1 X87.1 Y107.0 F240
M106 S255
G4 P100
G0 X103.3 Y107.0 F1200
M106 S0
G4 P20
G1 X104.9 Y107.0 F240
M106 S255
G4 P100
G0 X110.5 Y107.0 F1200
M106 S0
G4 P20
G1 X112.3 Y107.0 F240
M106 S255
G4 P100
G0 X112.3 Y107.1 F1200
M106 S0
G4 P20
G1 X110.3 Y107.1 F240
M106 S255
G4 P100
G0 X104.8 Y107.1 F1200
M106 S0
G4 P20
G1 X103.2 Y107.1 F240
M106 S255
G4 P100
G0 X87.2 Y107.1 F1200
M106 S0
G4 P20
G1 X85.6 Y107.1 F240
M106 S255
G4 P100
G0 X79.9 Y107.1 F1200
M106 S0
G4 P20
G1 X78.2 Y107.1 F240
M106 S255
G4 P100
G0 X78.2 Y107.2 F1200
M106 S0
G4 P20
G1 X80.0 Y107.2 F240
M106 S255
G4 P100
G0 X85.6 Y107.2 F1200
M106 S0
G4 P20
G1 X87.2 Y107.2 F240
M106 S255
G4 P100
G0 X103.1 Y107.2 F1200
M106 S0
G4 P20
G1 X104.8 Y107.2 F240
M106 S255
G4 P100
G0 X110.2 Y107.2 F1200
M106 S0
G4 P20
G1 X112.3 Y107.2 F240
M106 S255
G4 P100
G0 X112.3 Y107.3 F1200
M106 S0
G4 P20
G1 X109.8 Y107.3 F240
M106 S255
G4 P100
G0 X104.8 Y107.3 F1200
M106 S0
G4 P20
G1 X103.0 Y107.3 F240
M106 S255
G4 P100
G0 X87.4 Y107.3 F1200
M106 S0
G4 P20
G1 X85.7 Y107.3 F240
M106 S255
G4 P100
G0 X80.3 Y107.3 F1200
M106 S0
G4 P20
G1 X78.2 Y107.3 F240
M106 S255
G4 P100
G0 X78.2 Y107.4 F1200
M106 S0
G4 P20
G1 X80.5 Y107.4 F240
M106 S255
G4 P100
G0 X85.7 Y107.4 F1200
M106 S0
G4 P20
G1 X87.5 Y107.4 F240
M106 S255
G4 P100
G0 X102.9 Y107.4 F1200
M106 S0
G4 P20
G1 X104.7 Y107.4 F240
M106 S255
G4 P100
G0 X109.6 Y107.4 F1200
M106 S0
G4 P20
G1 X112.2 Y107.4 F240
M106 S255
G4 P100
G0 X112.2 Y107.5 F1200
M106 S0
G4 P20
G1 X109.4 Y107.5 F240
M106 S255
G4 P100
G0 X104.7 Y107.5 F1200
M106 S0
G4 P20
G1 X102.8 Y107.5 F240
M106 S255
G4 P100
G0 X87.6 Y107.5 F1200
M106 S0
G4 P20
G1 X85.7 Y107.5 F240
M106 S255
G4 P100
G0 X80.7 Y107.5 F1200
M106 S0
G4 P20
G1 X78.2 Y107.5 F240
M106 S255
G4 P100
G0 X78.3 Y107.6 F1200
M106 S0
G4 P20
G1 X81.0 Y107.6 F240
M106 S255
G4 P100
G0 X85.8 Y107.6 F1200
M106 S0
G4 P20
G1 X87.7 Y107.6 F240
M106 S255
G4 P100
G0 X102.7 Y107.6 F1200
M106 S0
G4 P20
G1 X104.6 Y107.6 F240
M106 S255
G4 P100
G0 X109.1 Y107.6 F1200
M106 S0
G4 P20
G1 X112.2 Y107.6 F240
M106 S255
G4 P100
G0 X112.1 Y107.7 F1200
M106 S0
G4 P20
G1 X108.9 Y107.7 F240
M106 S255
G4 P100
G0 X104.6 Y107.7 F1200
M106 S0
G4 P20
G1 X102.6 Y107.7 F240
M106 S255
G4 P100
G0 X87.8 Y107.7 F1200
M106 S0
G4 P20
G1 X85.8 Y107.7 F240
M106 S255
G4 P100
G0 X81.2 Y107.7 F1200
M106 S0
G4 P20
G1 X78.3 Y107.7 F240
M106 S255
G4 P100
G0 X78.4 Y107.8 F1200
M106 S0
G4 P20
G1 X81.4 Y107.8 F240
M106 S255
G4 P100
G0 X85.9 Y107.8 F1200
M106 S0
G4 P20
G1 X87.9 Y107.8 F240
M106 S255
G4 P100
G0 X102.5 Y107.8 F1200
M106 S0
G4 P20
G1 X104.5 Y107.8 F240
M106 S255
G4 P100
G0 X108.7 Y107.8 F1200
M106 S0
G4 P20
G1 X112.1 Y107.8 F240
M106 S255
G4 P100
G0 X112.0 Y107.9 F1200
M106 S0
G4 P20
G1 X108.3 Y107.9 F240
M106 S255
G4 P100
G0 X104.5 Y107.9 F1200
M106 S0
G4 P20
G1 X102.3 Y107.9 F240
M106 S255
G4 P100
G0 X88.0 Y107.9 F1200
M106 S0
G4 P20
G1 X85.9 Y107.9 F240
M106 S255
G4 P100
G0 X81.8 Y107.9 F1200
M106 S0
G4 P20
G1 X78.4 Y107.9 F240
M106 S255
G4 P100
G0 X78.5 Y108.0 F1200
M106 S0
G4 P20
G1 X81.9 Y108.0 F240
M106 S255
G4 P100
G0 X86.0 Y108.0 F1200
M106 S0
G4 P20
G1 X88.1 Y108.0 F240
M106 S255
G4 P100
G0 X102.3 Y108.0 F1200
M106 S0
G4 P20
G1 X104.4 Y108.0 F240
M106 S255
G4 P100
G0 X108.1 Y108.0 F1200
M106 S0
G4 P20
G1 X112.0 Y108.0 F240
M106 S255
G4 P100
G0 X111.9 Y108.1 F1200
M106 S0
G4 P20
G1 X107.7 Y108.1 F240
M106 S255
G4 P100
G0 X104.3 Y108.1 F1200
M106 S0
G4 P20
G1 X102.1 Y108.1 F240
M106 S255
G4 P100
G0 X88.2 Y108.1 F1200
M106 S0
G4 P20
G1 X86.1 Y108.1 F240
M106 S255
G4 P100
G0 X82.3 Y108.1 F1200
M106 S0
G4 P20
G1 X78.5 Y108.1 F240
M106 S255
G4 P100
G0 X78.6 Y108.2 F1200
M106 S0
G4 P20
G1 X82.6 Y108.2 F240
M106 S255
G4 P100
G0 X86.1 Y108.2 F1200
M106 S0
G4 P20
G1 X88.3 Y108.2 F240
M106 S255
G4 P100
G0 X102.0 Y108.2 F1200
M106 S0
G4 P20
G1 X104.3 Y108.2 F240
M106 S255
G4 P100
G0 X107.3 Y108.2 F1200
M106 S0
G4 P20
G1 X111.8 Y108.2 F240
M106 S255
G4 P100
G0 X111.7 Y108.3 F1200
M106 S0
G4 P20
G1 X107.1 Y108.3 F240
M106 S255
G4 P100
G0 X104.2 Y108.3 F1200
M106 S0
G4 P20
G1 X101.9 Y108.3 F240
M106 S255
G4 P100
G0 X88.4 Y108.3 F1200
M106 S0
G4 P20
G1 X86.2 Y108.3 F240
M106 S255
G4 P100
G0 X82.9 Y108.3 F1200
M106 S0
G4 P20
G1 X78.6 Y108.3 F240
M106 S255
G4 P100
G0 X78.7 Y108.4 F1200
M106 S0
G4 P20
G1 X83.3 Y108.4 F240
M106 S255
G4 P100
G0 X86.2 Y108.4 F1200
M106 S0
G4 P20
G1 X88.6 Y108.4 F240
M106 S255
G4 P100
G0 X101.8 Y108.4 F1200
M106 S0
G4 P20
G1 X104.1 Y108.4 F240
M106 S255
G4 P100
G0 X106.6 Y108.4 F1200
M106 S0
G4 P20
G1 X111.7 Y108.4 F240
M106 S255
G4 P100
G0 X111.6 Y108.5 F1200
M106 S0
G4 P20
G1 X106.3 Y108.5 F240
M106 S255
G4 P100
G0 X104.1 Y108.5 F1200
M106 S0
G4 P20
G1 X101.6 Y108.5 F240
M106 S255
G4 P100
G0 X88.7 Y108.5 F1200
M106 S0
G4 P20
G1 X86.3 Y108.5 F240
M106 S255
G4 P100
G0 X83.6 Y108.5 F1200
M106 S0
G4 P20
G1 X78.8 Y108.5 F240
M106 S255
G4 P100
G0 X78.9 Y108.6 F1200
M106 S0
G4 P20
G1 X84.0 Y108.6 F240
M106 S255
G4 P100
G0 X86.4 Y108.6 F1200
M106 S0
G4 P20
G1 X88.8 Y108.6 F240
M106 S255
G4 P100
G0 X101.5 Y108.6 F1200
M106 S0
G4 P20
G1 X104.0 Y108.6 F240
M106 S255
G4 P100
G0 X105.9 Y108.6 F1200
M106 S0
G4 P20
G1 X111.5 Y108.6 F240
M106 S255
G4 P100
G0 X111.3 Y108.7 F1200
M106 S0
G4 P20
G1 X105.6 Y108.7 F240
M106 S255
G4 P100
G0 X103.9 Y108.7 F1200
M106 S0
G4 P20
G1 X101.4 Y108.7 F240
M106 S255
G4 P100
G0 X88.9 Y108.7 F1200
M106 S0
G4 P20
G1 X86.5 Y108.7 F240
M106 S255
G4 P100
G0 X84.5 Y108.7 F1200
M106 S0
G4 P20
G1 X79.0 Y108.7 F240
M106 S255
G4 P100
G0 X79.0 Y108.8 F1200
M106 S0
G4 P20
G1 X84.7 Y108.8 F240
M106 S255
G4 P100
G0 X86.5 Y108.8 F1200
M106 S0
G4 P20
G1 X89.0 Y108.8 F240
M106 S255
G4 P100
G0 X101.3 Y108.8 F1200
M106 S0
G4 P20
G1 X103.8 Y108.8 F240
M106 S255
G4 P100
G0 X105.4 Y108.8 F1200
M106 S0
G4 P20
G1 X111.3 Y108.8 F240
M106 S255
G4 P100
G0 X111.2 Y108.9 F1200
M106 S0
G4 P20
G1 X105.0 Y108.9 F240
M106 S255
G4 P100
G0 X103.8 Y108.9 F1200
M106 S0
G4 P20
G1 X101.2 Y108.9 F240
M106 S255
G4 P100
G0 X89.1 Y108.9 F1200
M106 S0
G4 P20
G1 X86.6 Y108.9 F240
M106 S255
G4 P100
G0 X85.1 Y108.9 F1200
M106 S0
G4 P20
G1 X79.2 Y108.9 F240
M106 S255
G4 P100
G0 X79.3 Y109.0 F1200
M106 S0
G4 P20
G1 X85.3 Y109.0 F240
M106 S255
G4 P100
G0 X86.7 Y109.0 F1200
M106 S0
G4 P20
G1 X89.2 Y109.0 F240
M106 S255
G4 P100
G0 X101.1 Y109.0 F1200
M106 S0
G4 P20
G1 X103.7 Y109.0 F240
M106 S255
G4 P100
G0 X104.8 Y109.0 F1200
M106 S0
G4 P20
G1 X111.0 Y109.0 F240
M106 S255
G4 P100
G0 X110.9 Y109.1 F1200
M106 S0
G4 P20
G1 X104.7 Y109.1 F240
M106 S255
G4 P100
G0 X103.6 Y109.1 F1200
M106 S0
G4 P20
G1 X101.0 Y109.1 F240
M106 S255
G4 P100
G0 X89.3 Y109.1 F1200
M106 S0
G4 P20
G1 X86.7 Y109.1 F240
M106 S255
G4 P100
G0 X85.5 Y109.1 F1200
M106 S0
G4 P20
G1 X79.4 Y109.1 F240
M106 S255
G4 P100
G0 X79.5 Y109.2 F1200
M106 S0
G4 P20
G1 X85.8 Y109.2 F240
M106 S255
G4 P100
G0 X86.9 Y109.2 F1200
M106 S0
G4 P20
G1 X89.4 Y109.2 F240
M106 S255
G4 P100
G0 X101.0 Y109.2 F1200
M106 S0
G4 P20
G1 X103.5 Y109.2 F240
M106 S255
G4 P100
G0 X104.5 Y109.2 F1200
M106 S0
G4 P20
G1 X110.8 Y109.2 F240
M106 S255
G4 P100
G0 X110.6 Y109.3 F1200
M106 S0
G4 P20
G1 X104.3 Y109.3 F240
M106 S255
G4 P100
G0 X103.5 Y109.3 F1200
M106 S0
G4 P20
G1 X100.9 Y109.3 F240
M106 S255
G4 P100
G0 X89.5 Y109.3 F1200
M106 S0
G4 P20
G1 X86.9 Y109.3 F240
M106 S255
G4 P100
G0 X85.9 Y109.3 F1200
M106 S0
G4 P20
G1 X79.6 Y109.3 F240
M106 S255
G4 P100
G0 X79.8 Y109.4 F1200
M106 S0
G4 P20
G1 X86.1 Y109.4 F240
M106 S255
G4 P100
G0 X87.0 Y109.4 F1200
M106 S0
G4 P20
G1 X89.6 Y109.4 F240
M106 S255
G4 P100
G0 X100.8 Y109.4 F1200
M106 S0
G4 P20
G1 X103.4 Y109.4 F240
M106 S255
G4 P100
G0 X104.2 Y109.4 F1200
M106 S0
G4 P20
G1 X110.5 Y109.4 F240
M106 S255
G4 P100
G0 X110.3 Y109.5 F1200
M106 S0
G4 P20
G1 X104.0 Y109.5 F240
M106 S255
G4 P100
G0 X103.3 Y109.5 F1200
M106 S0
G4 P20
G1 X100.7 Y109.5 F240
M106 S255
G4 P100
G0 X89.7 Y109.5 F1200
M106 S0
G4 P20
G1 X87.1 Y109.5 F240
M106 S255
G4 P100
G0 X86.3 Y109.5 F1200
M106 S0
G4 P20
G1 X80.0 Y109.5 F240
M106 S255
G4 P100
G0 X80.1 Y109.6 F1200
M106 S0
G4 P20
G1 X86.4 Y109.6 F240
M106 S255
G4 P100
G0 X87.2 Y109.6 F1200
M106 S0
G4 P20
G1 X89.7 Y109.6 F240
M106 S255
G4 P100
G0 X100.6 Y109.6 F1200
M106 S0
G4 P20
G1 X103.2 Y109.6 F240
M106 S255
G4 P100
G0 X103.9 Y109.6 F1200
M106 S0
G4 P20
G1 X110.2 Y109.6 F240
M106 S255
G4 P100
G0 X112.8 Y109.7 F1200
M106 S0
G4 P20
G1 X112.7 Y109.7 F240
M106 S255
G4 P100
G0 X109.9 Y109.7 F1200
M106 S0
G4 P20
G1 X103.7 Y109.7 F240
M106 S255
G4 P100
G0 X103.1 Y109.7 F1200
M106 S0
G4 P20
G1 X100.5 Y109.7 F240
M106 S255
G4 P100
G0 X89.8 Y109.7 F1200
M106 S0
G4 P20
G1 X87.3 Y109.7 F240
M106 S255
G4 P100
G0 X86.5 Y109.7 F1200
M106 S0
G4 P20
G1 X80.3 Y109.7 F240
M106 S255
G4 P100
G0 X80.4 Y109.8 F1200
M106 S0
G4 P20
G1 X86.7 Y109.8 F240
M106 S255
G4 P100
G0 X87.4 Y109.8 F1200
M106 S0
G4 P20
G1 X89.9 Y109.8 F240
M106 S255
G4 P100
G0 X100.5 Y109.8 F1200
M106 S0
G4 P20
G1 X103.0 Y109.8 F240
M106 S255
G4 P100
G0 X103.6 Y109.8 F1200
M106 S0
G4 P20
G1 X109.8 Y109.8 F240
M106 S255
G4 P100
G0 X112.6 Y109.8 F1200
M106 S0
G4 P20
G1 X112.9 Y109.8 F240
M106 S255
G4 P100
G0 X112.9 Y109.9 F1200
M106 S0
G4 P20
G1 X112.5 Y109.9 F240
M106 S255
G4 P100
G0 X109.6 Y109.9 F1200
M106 S0
G4 P20
G1 X103.5 Y109.9 F240
M106 S255
G4 P100
G0 X102.9 Y109.9 F1200
M106 S0
G4 P20
G1 X100.4 Y109.9 F240
M106 S255
G4 P100
G0 X90.0 Y109.9 F1200
M106 S0
G4 P20
G1 X87.5 Y109.9 F240
M106 S255
G4 P100
G0 X86.8 Y109.9 F1200
M106 S0
G4 P20
G1 X80.6 Y109.9 F240
M106 S255
G4 P100
G0 X77.8 Y109.9 F1200
M106 S0
G4 P20
G1 X77.7 Y109.9 F240
M106 S255
G4 P100
G0 X77.7 Y110.0 F1200
M106 S0
G4 P20
G1 X78.0 Y110.0 F240
M106 S255
G4 P100
G0 X80.9 Y110.0 F1200
M106 S0
G4 P20
G1 X86.9 Y110.0 F240
M106 S255
G4 P100
G0 X87.6 Y110.0 F1200
M106 S0
G4 P20
G1 X90.0 Y110.0 F240
M106 S255
G4 P100
G0 X100.4 Y110.0 F1200
M106 S0
G4 P20
G1 X102.8 Y110.0 F240
M106 S255
G4 P100
G0 X103.4 Y110.0 F1200
M106 S0
G4 P20
G1 X109.3 Y110.0 F240
M106 S255
G4 P100
G0 X112.4 Y110.0 F1200
M106 S0
G4 P20
G1 X112.8 Y110.0 F240
M106 S255
G4 P100
G0 X112.8 Y110.1 F1200
M106 S0
G4 P20
G1 X112.3 Y110.1 F240
M106 S255
G4 P100
G0 X109.2 Y110.1 F1200
M106 S0
G4 P20
G1 X103.3 Y110.1 F240
M106 S255
G4 P100
G0 X102.7 Y110.1 F1200
M106 S0
G4 P20
G1 X100.3 Y110.1 F240
M106 S255
G4 P100
G0 X90.1 Y110.1 F1200
M106 S0
G4 P20
G1 X87.6 Y110.1 F240
M106 S255
G4 P100
G0 X87.0 Y110.1 F1200
M106 S0
G4 P20
G1 X81.0 Y110.1 F240
M106 S255
G4 P100
G0 X78.0 Y110.1 F1200
M106 S0
G4 P20
G1 X77.6 Y110.1 F240
M106 S255
G4 P100
G0 X77.7 Y110.2 F1200
M106 S0
G4 P20
G1 X78.1 Y110.2 F240
M106 S255
G4 P100
G0 X81.2 Y110.2 F1200
M106 S0
G4 P20
G1 X87.2 Y110.2 F240
M106 S255
G4 P100
G0 X87.7 Y110.2 F1200
M106 S0
G4 P20
G1 X90.2 Y110.2 F240
M106 S255
G4 P100
G0 X99.4 Y110.2 F1200
M106 S0
G4 P20
G1 X99.5 Y110.2 F240
M106 S255
G4 P100
G0 X100.2 Y110.2 F1200
M106 S0
G4 P20
G1 X102.6 Y110.2 F240
M106 S255
G4 P100
G0 X103.2 Y110.2 F1200
M106 S0
G4 P20
G1 X108.9 Y110.2 F240
M106 S255
G4 P100
G0 X112.2 Y110.2 F1200
M106 S0
G4 P20
G1 X112.8 Y110.2 F240
M106 S255
G4 P100
G0 X112.8 Y110.3 F1200
M106 S0
G4 P20
G1 X112.0 Y110.3 F240
M106 S255
G4 P100
G0 X108.7 Y110.3 F1200
M106 S0
G4 P20
G1 X103.1 Y110.3 F240
M106 S255
G4 P100
G0 X102.5 Y110.3 F1200
M106 S0
G4 P20
G1 X100.2 Y110.3 F240
M106 S255
G4 P100
G0 X99.6 Y110.3 F1200
M106 S0
G4 P20
G1 X99.3 Y110.3 F240
M106 S255
G4 P100
G0 X91.0 Y110.3 F1200
M106 S0
G4 P20
G1 X91.0 Y110.3 F240
M106 S255
G4 P100
G0 X90.2 Y110.3 F1200
M106 S0
G4 P20
G1 X87.8 Y110.3 F240
M106 S255
G4 P100
G0 X87.3 Y110.3 F1200
M106 S0
G4 P20
G1 X81.5 Y110.3 F240
M106 S255
G4 P100
G0 X78.3 Y110.3 F1200
M106 S0
G4 P20
G1 X77.7 Y110.3 F240
M106 S255
G4 P100
G0 X77.7 Y110.4 F1200
M106 S0
G4 P20
G1 X78.4 Y110.4 F240
M106 S255
G4 P100
G0 X81.6 Y110.4 F1200
M106 S0
G4 P20
G1 X87.4 Y110.4 F240
M106 S255
G4 P100
G0 X87.9 Y110.4 F1200
M106 S0
G4 P20
G1 X90.3 Y110.4 F240
M106 S255
G4 P100
G0 X90.9 Y110.4 F1200
M106 S0
G4 P20
G1 X91.1 Y110.4 F240
M106 S255
G4 P100
G0 X99.2 Y110.4 F1200
M106 S0
G4 P20
G1 X99.6 Y110.4 F240
M106 S255
G4 P100
G0 X100.1 Y110.4 F1200
M106 S0
G4 P20
G1 X102.5 Y110.4 F240
M106 S255
G4 P100
G0 X103.0 Y110.4 F1200
M106 S0
G4 P20
G1 X108.5 Y110.4 F240
M106 S255
G4 P100
G0 X112.0 Y110.4 F1200
M106 S0
G4 P20
G1 X112.8 Y110.4 F240
M106 S255
G4 P100
G0 X112.8 Y110.5 F1200
M106 S0
G4 P20
G1 X111.8 Y110.5 F240
M106 S255
G4 P100
G0 X108.3 Y110.5 F1200
M106 S0
G4 P20
G1 X102.9 Y110.5 F240
M106 S255
G4 P100
G0 X102.4 Y110.5 F1200
M106 S0
G4 P20
G1 X100.1 Y110.5 F240
M106 S255
G4 P100
G0 X99.5 Y110.5 F1200
M106 S0
G4 P20
G1 X99.1 Y110.5 F240
M106 S255
G4 P100
G0 X91.3 Y110.5 F1200
M106 S0
G4 P20
G1 X90.9 Y110.5 F240
M106 S255
G4 P100
G0 X90.3 Y110.5 F1200
M106 S0
G4 P20
G1 X88.0 Y110.5 F240
M106 S255
G4 P100
G0 X87.5 Y110.5 F1200
M106 S0
G4 P20
G1 X81.9 Y110.5 F240
M106 S255
G4 P100
G0 X78.5 Y110.5 F1200
M106 S0
G4 P20
G1 X77.7 Y110.5 F240
M106 S255
G4 P100
G0 X77.7 Y110.6 F1200
M106 S0
G4 P20
G1 X78.6 Y110.6 F240
M106 S255
G4 P100
G0 X82.2 Y110.6 F1200
M106 S0
G4 P20
G1 X87.6 Y110.6 F240
M106 S255
G4 P100
G0 X88.1 Y110.6 F1200
M106 S0
G4 P20
G1 X90.4 Y110.6 F240
M106 S255
G4 P100
G0 X90.9 Y110.6 F1200
M106 S0
G4 P20
G1 X91.4 Y110.6 F240
M106 S255
G4 P100
G0 X99.0 Y110.6 F1200
M106 S0
G4 P20
G1 X99.5 Y110.6 F240
M106 S255
G4 P100
G0 X100.0 Y110.6 F1200
M106 S0
G4 P20
G1 X102.2 Y110.6 F240
M106 S255
G4 P100
G0 X102.8 Y110.6 F1200
M106 S0
G4 P20
G1 X108.1 Y110.6 F240
M106 S255
G4 P100
G0 X111.6 Y110.6 F1200
M106 S0
G4 P20
G1 X112.8 Y110.6 F240
M106 S255
G4 P100
G0 X112.8 Y110.7 F1200
M106 S0
G4 P20
G1 X111.5 Y110.7 F240
M106 S255
G4 P100
G0 X107.9 Y110.7 F1200
M106 S0
G4 P20
G1 X102.7 Y110.7 F240
M106 S255
G4 P100
G0 X102.2 Y110.7 F1200
M106 S0
G4 P20
G1 X100.0 Y110.7 F240
M106 S255
G4 P100
G0 X99.5 Y110.7 F1200
M106 S0
G4 P20
G1 X98.9 Y110.7 F240
M106 S255
G4 P100
G0 X91.5 Y110.7 F1200
M106 S0
G4 P20
G1 X90.9 Y110.7 F240
M106 S255
G4 P100
G0 X90.5 Y110.7 F1200
M106 S0
G4 P20
G1 X88.2 Y110.7 F240
M106 S255
G4 P100
G0 X87.7 Y110.7 F1200
M106 S0
G4 P20
G1 X82.3 Y110.7 F240
M106 S255
G4 P100
G0 X78.8 Y110.7 F1200
M106 S0
G4 P20
G1 X77.7 Y110.7 F240
M106 S255
G4 P100
G0 X77.7 Y110.8 F1200
M106 S0
G4 P20
G1 X79.0 Y110.8 F240
M106 S255
G4 P100
G0 X82.6 Y110.8 F1200
M106 S0
G4 P20
G1 X87.8 Y110.8 F240
M106 S255
G4 P100
G0 X88.3 Y110.8 F1200
M106 S0
G4 P20
G1 X90.5 Y110.8 F240
M106 S255
G4 P100
G0 X91.0 Y110.8 F1200
M106 S0
G4 P20
G1 X91.6 Y110.8 F240
M106 S255
G4 P100
G0 X98.8 Y110.8 F1200
M106 S0
G4 P20
G1 X99.4 Y110.8 F240
M106 S255
G4 P100
G0 X99.9 Y110.8 F1200
M106 S0
G4 P20
G1 X102.1 Y110.8 F240
M106 S255
G4 P100
G0 X102.6 Y110.8 F1200
M106 S0
G4 P20
G1 X107.6 Y110.8 F240
M106 S255
G4 P100
G0 X111.3 Y110.8 F1200
M106 S0
G4 P20
G1 X112.8 Y110.8 F240
M106 S255
G4 P100
G0 X112.7 Y110.9 F1200
M106 S0
G4 P20
G1 X111.2 Y110.9 F240
M106 S255
G4 P100
G0 X107.4 Y110.9 F1200
M106 S0
G4 P20
G1 X102.5 Y110.9 F240
M106 S255
G4 P100
G0 X102.0 Y110.9 F1200
M106 S0
G4 P20
G1 X99.9 Y110.9 F240
M106 S255
G4 P100
G0 X99.4 Y110.9 F1200
M106 S0
G4 P20
G1 X98.7 Y110.9 F240
M106 S255
G4 P100
G0 X91.7 Y110.9 F1200
M106 S0
G4 P20
G1 X91.1 Y110.9 F240
M106 S255
G4 P100
G0 X90.5 Y110.9 F1200
M106 S0
G4 P20
G1 X88.3 Y110.9 F240
M106 S255
G4 P100
G0 X87.9 Y110.9 F1200
M106 S0
G4 P20
G1 X82.7 Y110.9 F240
M106 S255
G4 P100
G0 X79.1 Y110.9 F1200
M106 S0
G4 P20
G1 X77.7 Y110.9 F240
M106 S255
G4 P100
G0 X77.8 Y111.0 F1200
M106 S0
G4 P20
G1 X79.3 Y111.0 F240
M106 S255
G4 P100
G0 X83.0 Y111.0 F1200
M106 S0
G4 P20
G1 X87.9 Y111.0 F240
M106 S255
G4 P100
G0 X88.4 Y111.0 F1200
M106 S0
G4 P20
G1 X90.6 Y111.0 F240
M106 S255
G4 P100
G0 X91.1 Y111.0 F1200
M106 S0
G4 P20
G1 X91.7 Y111.0 F240
M106 S255
G4 P100
G0 X98.6 Y111.0 F1200
M106 S0
G4 P20
G1 X99.3 Y111.0 F240
M106 S255
G4 P100
G0 X99.9 Y111.0 F1200
M106 S0
G4 P20
G1 X102.0 Y111.0 F240
M106 S255
G4 P100
G0 X102.5 Y111.0 F1200
M106 S0
G4 P20
G1 X107.2 Y111.0 F240
M106 S255
G4 P100
G0 X111.0 Y111.0 F1200
M106 S0
G4 P20
G1 X112.7 Y111.0 F240
M106 S255
G4 P100
G0 X112.7 Y111.1 F1200
M106 S0
G4 P20
G1 X110.8 Y111.1 F240
M106 S255
G4 P100
G0 X106.9 Y111.1 F1200
M106 S0
G4 P20
G1 X102.3 Y111.1 F240
M106 S255
G4 P100
G0 X101.9 Y111.1 F1200
M106 S0
G4 P20
G1 X99.8 Y111.1 F240
M106 S255
G4 P100
G0 X99.3 Y111.1 F1200
M106 S0
G4 P20
G1 X98.6 Y111.1 F240
M106 S255
G4 P100
G0 X91.8 Y111.1 F1200
M106 S0
G4 P20
G1 X91.2 Y111.1 F240
M106 S255
G4 P100
G0 X90.6 Y111.1 F1200
M106 S0
G4 P20
G1 X88.5 Y111.1 F240
M106 S255
G4 P100
G0 X88.0 Y111.1 F1200
M106 S0
G4 P20
G1 X83.2 Y111.1 F240
M106 S255
G4 P100
G0 X79.4 Y111.1 F1200
M106 S0
G4 P20
G1 X77.8 Y111.1 F240
M106 S255
G4 P100
G0 X77.8 Y111.2 F1200
M106 S0
G4 P20
G1 X79.6 Y111.2 F240
M106 S255
G4 P100
G0 X83.4 Y111.2 F1200
M106 S0
G4 P20
G1 X88.1 Y111.2 F240
M106 S255
G4 P100
G0 X88.6 Y111.2 F1200
M106 S0
G4 P20
G1 X90.7 Y111.2 F240
M106 S255
G4 P100
G0 X91.2 Y111.2 F1200
M106 S0
G4 P20
G1 X91.9 Y111.2 F240
M106 S255
G4 P100
G0 X98.5 Y111.2 F1200
M106 S0
G4 P20
G1 X99.3 Y111.2 F240
M106 S255
G4 P100
G0 X99.7 Y111.2 F1200
M106 S0
G4 P20
G1 X101.8 Y111.2 F240
M106 S255
G4 P100
G0 X102.3 Y111.2 F1200
M106 S0
G4 P20
G1 X106.8 Y111.2 F240
M106 S255
G4 P100
G0 X110.6 Y111.2 F1200
M106 S0
G4 P20
G1 X112.6 Y111.2 F240
M106 S255
G4 P100
G0 X112.6 Y111.3 F1200
M106 S0
G4 P20
G1 X110.3 Y111.3 F240
M106 S255
G4 P100
G0 X106.5 Y111.3 F1200
M106 S0
G4 P20
G1 X102.2 Y111.3 F240
M106 S255
G4 P100
G0 X101.7 Y111.3 F1200
M106 S0
G4 P20
G1 X99.7 Y111.3 F240
M106 S255
G4 P100
G0 X99.3 Y111.3 F1200
M106 S0
G4 P20
G1 X98.4 Y111.3 F240
M106 S255
G4 P100
G0 X92.0 Y111.3 F1200
M106 S0
G4 P20
G1 X91.2 Y111.3 F240
M106 S255
G4 P100
G0 X90.8 Y111.3 F1200
M106 S0
G4 P20
G1 X88.7 Y111.3 F240
M106 S255
G4 P100
G0 X88.2 Y111.3 F1200
M106 S0
G4 P20
G1 X83.7 Y111.3 F240
M106 S255
G4 P100
G0 X79.8 Y111.3 F1200
M106 S0
G4 P20
G1 X77.9 Y111.3 F240
M106 S255
G4 P100
G0 X77.9 Y111.4 F1200
M106 S0
G4 P20
G1 X80.0 Y111.4 F240
M106 S255
G4 P100
G0 X83.8 Y111.4 F1200
M106 S0
G4 P20
G1 X88.2 Y111.4 F240
M106 S255
G4 P100
G0 X88.7 Y111.4 F1200
M106 S0
G4 P20
G1 X90.8 Y111.4 F240
M106 S255
G4 P100
G0 X91.2 Y111.4 F1200
M106 S0
G4 P20
G1 X92.1 Y111.4 F240
M106 S255
G4 P100
G0 X98.3 Y111.4 F1200
M106 S0
G4 P20
G1 X99.2 Y111.4 F240
M106 S255
G4 P100
G0 X99.7 Y111.4 F1200
M106 S0
G4 P20
G1 X101.7 Y111.4 F240
M106 S255
G4 P100
G0 X102.1 Y111.4 F1200
M106 S0
G4 P20
G1 X106.4 Y111.4 F240
M106 S255
G4 P100
G0 X110.2 Y111.4 F1200
M106 S0
G4 P20
G1 X112.5 Y111.4 F240
M106 S255
G4 P100
G0 X112.5 Y111.5 F1200
M106 S0
G4 P20
G1 X109.9 Y111.5 F240
M106 S255
G4 P100
G0 X106.2 Y111.5 F1200
M106 S0
G4 P20
G1 X102.0 Y111.5 F240
M106 S255
G4 P100
G0 X101.6 Y111.5 F1200
M106 S0
G4 P20
G1 X99.6 Y111.5 F240
M106 S255
G4 P100
G0 X99.2 Y111.5 F1200
M106 S0
G4 P20
G1 X98.3 Y111.5 F240
M106 S255
G4 P100
G0 X92.1 Y111.5 F1200
M106 S0
G4 P20
G1 X91.2 Y111.5 F240
M106 S255
G4 P100
G0 X90.8 Y111.5 F1200
M106 S0
G4 P20
G1 X88.8 Y111.5 F240
M106 S255
G4 P100
G0 X88.4 Y111.5 F1200
M106 S0
G4 P20
G1 X84.0 Y111.5 F240
M106 S255
G4 P100
G0 X80.2 Y111.5 F1200
M106 S0
G4 P20
G1 X77.9 Y111.5 F240
M106 S255
G4 P100
G0 X77.9 Y111.6 F1200
M106 S0
G4 P20
G1 X80.5 Y111.6 F240
M106 S255
G4 P100
G0 X84.3 Y111.6 F1200
M106 S0
G4 P20
G1 X88.4 Y111.6 F240
M106 S255
G4 P100
G0 X88.9 Y111.6 F1200
M106 S0
G4 P20
G1 X90.8 Y111.6 F240
M106 S255
G4 P100
G0 X91.3 Y111.6 F1200
M106 S0
G4 P20
G1 X92.2 Y111.6 F240
M106 S255
G4 P100
G0 X98.3 Y111.6 F1200
M106 S0
G4 P20
G1 X99.2 Y111.6 F240
M106 S255
G4 P100
G0 X99.6 Y111.6 F1200
M106 S0
G4 P20
G1 X101.5 Y111.6 F240
M106 S255
G4 P100
G0 X102.0 Y111.6 F1200
M106 S0
G4 P20
G1 X105.9 Y111.6 F240
M106 S255
G4 P100
G0 X109.6 Y111.6 F1200
M106 S0
G4 P20
G1 X112.5 Y111.6 F240
M106 S255
G4 P100
G0 X112.5 Y111.7 F1200
M106 S0
G4 P20
G1 X109.4 Y111.7 F240
M106 S255
G4 P100
G0 X105.8 Y111.7 F1200
M106 S0
G4 P20
G1 X101.9 Y111.7 F240
M106 S255
G4 P100
G0 X101.4 Y111.7 F1200
M106 S0
G4 P20
G1 X99.6 Y111.7 F240
M106 S255
G4 P100
G0 X99.1 Y111.7 F1200
M106 S0
G4 P20
G1 X98.2 Y111.7 F240
M106 S255
G4 P100
G0 X92.2 Y111.7 F1200
M106 S0
G4 P20
G1 X91.4 Y111.7 F240
M106 S255
G4 P100
G0 X90.9 Y111.7 F1200
M106 S0
G4 P20
G1 X88.9 Y111.7 F240
M106 S255
G4 P100
G0 X88.5 Y111.7 F1200
M106 S0
G4 P20
G1 X84.4 Y111.7 F240
M106 S255
G4 P100
G0 X80.6 Y111.7 F1200
M106 S0
G4 P20
G1 X77.9 Y111.7 F240
M106 S255
G4 P100
G0 X78.0 Y111.8 F1200
M106 S0
G4 P20
G1 X81.0 Y111.8 F240
M106 S255
G4 P100
G0 X84.6 Y111.8 F1200
M106 S0
G4 P20
G1 X88.5 Y111.8 F240
M106 S255
G4 P100
G0 X89.0 Y111.8 F1200
M106 S0
G4 P20
G1 X90.9 Y111.8 F240
M106 S255
G4 P100
G0 X91.4 Y111.8 F1200
M106 S0
G4 P20
G1 X92.3 Y111.8 F240
M106 S255
G4 P100
G0 X98.1 Y111.8 F1200
M106 S0
G4 P20
G1 X99.1 Y111.8 F240
M106 S255
G4 P100
G0 X99.6 Y111.8 F1200
M106 S0
G4 P20
G1 X101.4 Y111.8 F240
M106 S255
G4 P100
G0 X101.8 Y111.8 F1200
M106 S0
G4 P20
G1 X105.6 Y111.8 F240
M106 S255
G4 P100
G0 X109.1 Y111.8 F1200
M106 S0
G4 P20
G1 X112.5 Y111.8 F240
M106 S255
G4 P100
G0 X112.4 Y111.9 F1200
M106 S0
G4 P20
G1 X108.7 Y111.9 F240
M106 S255
G4 P100
G0 X105.4 Y111.9 F1200
M106 S0
G4 P20
G1 X101.8 Y111.9 F240
M106 S255
G4 P100
G0 X101.4 Y111.9 F1200
M106 S0
G4 P20
G1 X99.5 Y111.9 F240
M106 S255
G4 P100
G0 X99.0 Y111.9 F1200
M106 S0
G4 P20
G1 X98.1 Y111.9 F240
M106 S255
G4 P100
G0 X92.3 Y111.9 F1200
M106 S0
G4 P20
G1 X91.4 Y111.9 F240
M106 S255
G4 P100
G0 X91.0 Y111.9 F1200
M106 S0
G4 P20
G1 X89.1 Y111.9 F240
M106 S255
G4 P100
G0 X88.6 Y111.9 F1200
M106 S0
G4 P20
G1 X84.8 Y111.9 F240
M106 S255
G4 P100
G0 X81.3 Y111.9 F1200
M106 S0
G4 P20
G1 X78.0 Y111.9 F240
M106 S255
G4 P100
G0 X78.1 Y112.0 F1200
M106 S0
G4 P20
G1 X81.5 Y112.0 F240
M106 S255
G4 P100
G0 X84.9 Y112.0 F1200
M106 S0
G4 P20
G1 X88.7 Y112.0 F240
M106 S255
G4 P100
G0 X89.1 Y112.0 F1200
M106 S0
G4 P20
G1 X91.0 Y112.0 F240
M106 S255
G4 P100
G0 X91.4 Y112.0 F1200
M106 S0
G4 P20
G1 X92.4 Y112.0 F240
M106 S255
G4 P100
G0 X98.1 Y112.0 F1200
M106 S0
G4 P20
G1 X99.0 Y112.0 F240
M106 S255
G4 P100
G0 X99.4 Y112.0 F1200
M106 S0
G4 P20
G1 X101.3 Y112.0 F240
M106 S255
G4 P100
G0 X101.7 Y112.0 F1200
M106 S0
G4 P20
G1 X105.3 Y112.0 F240
M106 S255
G4 P100
G0 X108.5 Y112.0 F1200
M106 S0
G4 P20
G1 X112.3 Y112.0 F240
M106 S255
G4 P100
G0 X112.3 Y112.1 F1200
M106 S0
G4 P20
G1 X108.0 Y112.1 F240
M106 S255
G4 P100
G0 X105.1 Y112.1 F1200
M106 S0
G4 P20
G1 X101.7 Y112.1 F240
M106 S255
G4 P100
G0 X101.2 Y112.1 F1200
M106 S0
G4 P20
G1 X99.4 Y112.1 F240
M106 S255
G4 P100
G0 X99.0 Y112.1 F1200
M106 S0
G4 P20
G1 X98.0 Y112.1 F240
M106 S255
G4 P100
G0 X92.4 Y112.1 F1200
M106 S0
G4 P20
G1 X91.4 Y112.1 F240
M106 S255
G4 P100
G0 X91.1 Y112.1 F1200
M106 S0
G4 P20
G1 X89.2 Y112.1 F240
M106 S255
G4 P100
G0 X88.7 Y112.1 F1200
M106 S0
G4 P20
G1 X85.2 Y112.1 F240
M106 S255
G4 P100
G0 X82.0 Y112.1 F1200
M106 S0
G4 P20
G1 X78.1 Y112.1 F240
M106 S255
G4 P100
G0 X78.2 Y112.2 F1200
M106 S0
G4 P20
G1 X82.2 Y112.2 F240
M106 S255
G4 P100
G0 X85.3 Y112.2 F1200
M106 S0
G4 P20
G1 X88.8 Y112.2 F240
M106 S255
G4 P100
G0 X89.3 Y112.2 F1200
M106 S0
G4 P20
G1 X91.1 Y112.2 F240
M106 S255
G4 P100
G0 X91.5 Y112.2 F1200
M106 S0
G4 P20
G1 X92.4 Y112.2 F240
M106 S255
G4 P100
G0 X98.0 Y112.2 F1200
M106 S0
G4 P20
G1 X99.0 Y112.2 F240
M106 S255
G4 P100
G0 X99.4 Y112.2 F1200
M106 S0
G4 P20
G1 X101.2 Y112.2 F240
M106 S255
G4 P100
G0 X101.6 Y112.2 F1200
M106 S0
G4 P20
G1 X104.9 Y112.2 F240
M106 S255
G4 P100
G0 X107.5 Y112.2 F1200
M106 S0
G4 P20
G1 X112.3 Y112.2 F240
M106 S255
G4 P100
G0 X112.2 Y112.3 F1200
M106 S0
G4 P20
G1 X107.1 Y112.3 F240
M106 S255
G4 P100
G0 X104.8 Y112.3 F1200
M106 S0
G4 P20
G1 X101.5 Y112.3 F240
M106 S255
G4 P100
G0 X101.1 Y112.3 F1200
M106 S0
G4 P20
G1 X99.4 Y112.3 F240
M106 S255
G4 P100
G0 X99.0 Y112.3 F1200
M106 S0
G4 P20
G1 X97.9 Y112.3 F240
M106 S255
G4 P100
G0 X92.5 Y112.3 F1200
M106 S0
G4 P20
G1 X91.5 Y112.3 F240
M106 S255
G4 P100
G0 X91.1 Y112.3 F1200
M106 S0
G4 P20
G1 X89.3 Y112.3 F240
M106 S255
G4 P100
G0 X88.9 Y112.3 F1200
M106 S0
G4 P20
G1 X85.5 Y112.3 F240
M106 S255
G4 P100
G0 X82.6 Y112.3 F1200
M106 S0
G4 P20
G1 X78.2 Y112.3 F240
M106 S255
G4 P100
G0 X78.2 Y112.4 F1200
M106 S0
G4 P20
G1 X83.3 Y112.4 F240
M106 S255
G4 P100
G0 X85.7 Y112.4 F1200
M106 S0
G4 P20
G1 X89.0 Y112.4 F240
M106 S255
G4 P100
G0 X89.3 Y112.4 F1200
M106 S0
G4 P20
G1 X91.1 Y112.4 F240
M106 S255
G4 P100
G0 X91.5 Y112.4 F1200
M106 S0
G4 P20
G1 X92.6 Y112.4 F240
M106 S255
G4 P100
G0 X97.9 Y112.4 F1200
M106 S0
G4 P20
G1 X99.0 Y112.4 F240
M106 S255
G4 P100
G0 X99.4 Y112.4 F1200
M106 S0
G4 P20
G1 X101.1 Y112.4 F240
M106 S255
G4 P100
G0 X101.5 Y112.4 F1200
M106 S0
G4 P20
G1 X104.6 Y112.4 F240
M106 S255
G4 P100
G0 X106.5 Y112.4 F1200
M106 S0
G4 P20
G1 X112.2 Y112.4 F240
M106 S255
G4 P100
G0 X112.1 Y112.5 F1200
M106 S0
G4 P20
G1 X106.2 Y112.5 F240
M106 S255
G4 P100
G0 X104.5 Y112.5 F1200
M106 S0
G4 P20
G1 X101.4 Y112.5 F240
M106 S255
G4 P100
G0 X101.0 Y112.5 F1200
M106 S0
G4 P20
G1 X99.4 Y112.5 F240
M106 S255
G4 P100
G0 X98.9 Y112.5 F1200
M106 S0
G4 P20
G1 X97.8 Y112.5 F240
M106 S255
G4 P100
G0 X92.6 Y112.5 F1200
M106 S0
G4 P20
G1 X91.6 Y112.5 F240
M106 S255
G4 P100
G0 X91.1 Y112.5 F1200
M106 S0
G4 P20
G1 X89.4 Y112.5 F240
M106 S255
G4 P100
G0 X89.0 Y112.5 F1200
M106 S0
G4 P20
G1 X85.8 Y112.5 F240
M106 S255
G4 P100
G0 X83.6 Y112.5 F1200
M106 S0
G4 P20
G1 X78.3 Y112.5 F240
M106 S255
G4 P100
G0 X78.4 Y112.6 F1200
M106 S0
G4 P20
G1 X84.1 Y112.6 F240
M106 S255
G4 P100
G0 X86.0 Y112.6 F1200
M106 S0
G4 P20
G1 X89.1 Y112.6 F240
M106 S255
G4 P100
G0 X89.5 Y112.6 F1200
M106 S0
G4 P20
G1 X91.1 Y112.6 F240
M106 S255
G4 P100
G0 X91.6 Y112.6 F1200
M106 S0
G4 P20
G1 X92.6 Y112.6 F240
M106 S255
G4 P100
G0 X97.8 Y112.6 F1200
M106 S0
G4 P20
G1 X98.9 Y112.6 F240
M106 S255
G4 P100
G0 X99.3 Y112.6 F1200
M106 S0
G4 P20
G1 X100.9 Y112.6 F240
M106 S255
G4 P100
G0 X101.3 Y112.6 F1200
M106 S0
G4 P20
G1 X104.3 Y112.6 F240
M106 S255
G4 P100
G0 X105.8 Y112.6 F1200
M106 S0
G4 P20
G1 X112.0 Y112.6 F240
M106 S255
G4 P100
G0 X112.0 Y112.7 F1200
M106 S0
G4 P20
G1 X105.6 Y112.7 F240
M106 S255
G4 P100
G0 X104.1 Y112.7 F1200
M106 S0
G4 P20
G1 X101.2 Y112.7 F240
M106 S255
G4 P100
G0 X100.9 Y112.7 F1200
M106 S0
G4 P20
G1 X99.3 Y112.7 F240
M106 S255
G4 P100
G0 X98.8 Y112.7 F1200
M106 S0
G4 P20
G1 X97.8 Y112.7 F240
M106 S255
G4 P100
G0 X92.7 Y112.7 F1200
M106 S0
G4 P20
G1 X91.6 Y112.7 F240
M106 S255
G4 P100
G0 X91.2 Y112.7 F1200
M106 S0
G4 P20
G1 X89.6 Y112.7 F240
M106 S255
G4 P100
G0 X89.2 Y112.7 F1200
M106 S0
G4 P20
G1 X86.1 Y112.7 F240
M106 S255
G4 P100
G0 X84.5 Y112.7 F1200
M106 S0
G4 P20
G1 X78.4 Y112.7 F240
M106 S255
G4 P100
G0 X78.5 Y112.8 F1200
M106 S0
G4 P20
G1 X84.7 Y112.8 F240
M106 S255
G4 P100
G0 X86.2 Y112.8 F1200
M106 S0
G4 P20
G1 X89.2 Y112.8 F240
M106 S255
G4 P100
G0 X89.6 Y112.8 F1200
M106 S0
G4 P20
G1 X91.2 Y112.8 F240
M106 S255
G4 P100
G0 X91.7 Y112.8 F1200
M106 S0
G4 P20
G1 X92.7 Y112.8 F240
M106 S255
G4 P100
G0 X97.8 Y112.8 F1200
M106 S0
G4 P20
G1 X98.8 Y112.8 F240
M106 S255
G4 P100
G0 X99.3 Y112.8 F1200
M106 S0
G4 P20
G1 X100.9 Y112.8 F240
M106 S255
G4 P100
G0 X101.2 Y112.8 F1200
M106 S0
G4 P20
G1 X104.0 Y112.8 F240
M106 S255
G4 P100
G0 X105.4 Y112.8 F1200
M106 S0
G4 P20
G1 X111.9 Y112.8 F240
M106 S255
G4 P100
G0 X111.8 Y112.9 F1200
M106 S0
G4 P20
G1 X105.0 Y112.9 F240
M106 S255
G4 P100
G0 X103.8 Y112.9 F1200
M106 S0
G4 P20
G1 X101.2 Y112.9 F240
M106 S255
G4 P100
G0 X100.8 Y112.9 F1200
M106 S0
G4 P20
G1 X99.2 Y112.9 F240
M106 S255
G4 P100
G0 X98.8 Y112.9 F1200
M106 S0
G4 P20
G1 X97.7 Y112.9 F240
M106 S255
G4 P100
G0 X92.7 Y112.9 F1200
M106 S0
G4 P20
G1 X91.7 Y112.9 F240
M106 S255
G4 P100
G0 X91.3 Y112.9 F1200
M106 S0
G4 P20
G1 X89.6 Y112.9 F240
M106 S255
G4 P100
G0 X89.3 Y112.9 F1200
M106 S0
G4 P20
G1 X86.4 Y112.9 F240
M106 S255
G4 P100
G0 X85.1 Y112.9 F1200
M106 S0
G4 P20
G1 X78.5 Y112.9 F240
M106 S255
G4 P100
G0 X78.6 Y113.0 F1200
M106 S0
G4 P20
G1 X85.3 Y113.0 F240
M106 S255
G4 P100
G0 X86.6 Y113.0 F1200
M106 S0
G4 P20
G1 X89.3 Y113.0 F240
M106 S255
G4 P100
G0 X89.7 Y113.0 F1200
M106 S0
G4 P20
G1 X91.3 Y113.0 F240
M106 S255
G4 P100
G0 X91.7 Y113.0 F1200
M106 S0
G4 P20
G1 X92.8 Y113.0 F240
M106 S255
G4 P100
G0 X97.7 Y113.0 F1200
M106 S0
G4 P20
G1 X98.8 Y113.0 F240
M106 S255
G4 P100
G0 X99.2 Y113.0 F1200
M106 S0
G4 P20
G1 X100.7 Y113.0 F240
M106 S255
G4 P100
G0 X101.1 Y113.0 F1200
M106 S0
G4 P20
G1 X103.7 Y113.0 F240
M106 S255
G4 P100
G0 X104.8 Y113.0 F1200
M106 S0
G4 P20
G1 X111.8 Y113.0 F240
M106 S255
G4 P100
G0 X111.7 Y113.1 F1200
M106 S0
G4 P20
G1 X104.6 Y113.1 F240
M106 S255
G4 P100
G0 X103.6 Y113.1 F1200
M106 S0
G4 P20
G1 X101.0 Y113.1 F240
M106 S255
G4 P100
G0 X100.7 Y113.1 F1200
M106 S0
G4 P20
G1 X99.1 Y113.1 F240
M106 S255
G4 P100
G0 X98.8 Y113.1 F1200
M106 S0
G4 P20
G1 X97.7 Y113.1 F240
M106 S255
G4 P100
G0 X92.8 Y113.1 F1200
M106 S0
G4 P20
G1 X91.7 Y113.1 F240
M106 S255
G4 P100
G0 X91.3 Y113.1 F1200
M106 S0
G4 P20
G1 X89.8 Y113.1 F240
M106 S255
G4 P100
G0 X89.4 Y113.1 F1200
M106 S0
G4 P20
G1 X86.7 Y113.1 F240
M106 S255
G4 P100
G0 X85.5 Y113.1 F1200
M106 S0
G4 P20
G1 X78.7 Y113.1 F240
M106 S255
G4 P100
G0 X78.8 Y113.2 F1200
M106 S0
G4 P20
G1 X85.8 Y113.2 F240
M106 S255
G4 P100
G0 X86.9 Y113.2 F1200
M106 S0
G4 P20
G1 X89.5 Y113.2 F240
M106 S255
G4 P100
G0 X89.8 Y113.2 F1200
M106 S0
G4 P20
G1 X91.3 Y113.2 F240
M106 S255
G4 P100
G0 X91.7 Y113.2 F1200
M106 S0
G4 P20
G1 X92.9 Y113.2 F240
M106 S255
G4 P100
G0 X97.6 Y113.2 F1200
M106 S0
G4 P20
G1 X98.8 Y113.2 F240
M106 S255
G4 P100
G0 X99.1 Y113.2 F1200
M106 S0
G4 P20
G1 X100.6 Y113.2 F240
M106 S255
G4 P100
G0 X100.9 Y113.2 F1200
M106 S0
G4 P20
G1 X103.5 Y113.2 F240
M106 S255
G4 P100
G0 X104.4 Y113.2 F1200
M106 S0
G4 P20
G1 X111.6 Y113.2 F240
M106 S255
G4 P100
G0 X111.5 Y113.3 F1200
M106 S0
G4 P20
G1 X104.2 Y113.3 F240
M106 S255
G4 P100
G0 X103.4 Y113.3 F1200
M106 S0
G4 P20
G1 X100.9 Y113.3 F240
M106 S255
G4 P100
G0 X100.6 Y113.3 F1200
M106 S0
G4 P20
G1 X99.1 Y113.3 F240
M106 S255
G4 P100
G0 X98.8 Y113.3 F1200
M106 S0
G4 P20
G1 X97.6 Y113.3 F240
M106 S255
G4 P100
G0 X92.9 Y113.3 F1200
M106 S0
G4 P20
G1 X91.7 Y113.3 F240
M106 S255
G4 P100
G0 X91.3 Y113.3 F1200
M106 S0
G4 P20
G1 X89.8 Y113.3 F240
M106 S255
G4 P100
G0 X89.5 Y113.3 F1200
M106 S0
G4 P20
G1 X86.9 Y113.3 F240
M106 S255
G4 P100
G0 X85.9 Y113.3 F1200
M106 S0
G4 P20
G1 X78.8 Y113.3 F240
M106 S255
G4 P100
G0 X79.0 Y113.4 F1200
M106 S0
G4 P20
G1 X86.2 Y113.4 F240
M106 S255
G4 P100
G0 X87.1 Y113.4 F1200
M106 S0
G4 P20
G1 X89.5 Y113.4 F240
M106 S255
G4 P100
G0 X89.8 Y113.4 F1200
M106 S0
G4 P20
G1 X91.4 Y113.4 F240
M106 S255
G4 P100
G0 X91.7 Y113.4 F1200
M106 S0
G4 P20
G1 X92.9 Y113.4 F240
M106 S255
G4 P100
G0 X95.2 Y113.4 F1200
M106 S0
G4 P20
G1 X95.2 Y113.4 F240
M106 S255
G4 P100
G0 X97.6 Y113.4 F1200
M106 S0
G4 P20
G1 X98.7 Y113.4 F240
M106 S255
G4 P100
G0 X99.1 Y113.4 F1200
M106 S0
G4 P20
G1 X100.6 Y113.4 F240
M106 S255
G4 P100
G0 X100.9 Y113.4 F1200
M106 S0
G4 P20
G1 X103.2 Y113.4 F240
M106 S255
G4 P100
G0 X104.0 Y113.4 F1200
M106 S0
G4 P20
G1 X111.4 Y113.4 F240
M106 S255
G4 P100
G0 X111.3 Y113.5 F1200
M106 S0
G4 P20
G1 X103.8 Y113.5 F240
M106 S255
G4 P100
G0 X103.1 Y113.5 F1200
M106 S0
G4 P20
G1 X99.1 Y113.5 F240
M106 S255
G4 P100
G0 X98.7 Y113.5 F1200
M106 S0
G4 P20
G1 X97.5 Y113.5 F240
M106 S255
G4 P100
G0 X95.3 Y113.5 F1200
M106 S0
G4 P20
G1 X95.2 Y113.5 F240
M106 S255
G4 P100
G0 X92.9 Y113.5 F1200
M106 S0
G4 P20
G1 X91.7 Y113.5 F240
M106 S255
G4 P100
G0 X91.4 Y113.5 F1200
M106 S0
G4 P20
G1 X89.9 Y113.5 F240
M106 S255
G4 P100
G0 X89.6 Y113.5 F1200
M106 S0
G4 P20
G1 X87.2 Y113.5 F240
M106 S255
G4 P100
G0 X86.4 Y113.5 F1200
M106 S0
G4 P20
G1 X79.0 Y113.5 F240
M106 S255
G4 P100
G0 X79.2 Y113.6 F1200
M106 S0
G4 P20
G1 X86.5 Y113.6 F240
M106 S255
G4 P100
G0 X87.3 Y113.6 F1200
M106 S0
G4 P20
G1 X89.6 Y113.6 F240
M106 S255
G4 P100
G0 X89.8 Y113.6 F1200
M106 S0
G4 P20
G1 X91.4 Y113.6 F240
M106 S255
G4 P100
G0 X91.7 Y113.6 F1200
M106 S0
G4 P20
G1 X92.9 Y113.6 F240
M106 S255
G4 P100
G0 X95.1 Y113.6 F1200
M106 S0
G4 P20
G1 X95.3 Y113.6 F240
M106 S255
G4 P100
G0 X97.5 Y113.6 F1200
M106 S0
G4 P20
G1 X98.7 Y113.6 F240
M106 S255
G4 P100
G0 X99.1 Y113.6 F1200
M106 S0
G4 P20
G1 X103.0 Y113.6 F240
M106 S255
G4 P100
G0 X103.7 Y113.6 F1200
M106 S0
G4 P20
G1 X111.2 Y113.6 F240
M106 S255
G4 P100
G0 X111.1 Y113.7 F1200
M106 S0
G4 P20
G1 X103.5 Y113.7 F240
M106 S255
G4 P100
G0 X102.9 Y113.7 F1200
M106 S0
G4 P20
G1 X100.6 Y113.7 F240
M106 S255
G4 P100
G0 X100.4 Y113.7 F1200
M106 S0
G4 P20
G1 X99.1 Y113.7 F240
M106 S255
G4 P100
G0 X98.7 Y113.7 F1200
M106 S0
G4 P20
G1 X97.5 Y113.7 F240
M106 S255
G4 P100
G0 X95.3 Y113.7 F1200
M106 S0
G4 P20
G1 X95.1 Y113.7 F240
M106 S255
G4 P100
G0 X92.9 Y113.7 F1200
M106 S0
G4 P20
G1 X91.8 Y113.7 F240
M106 S255
G4 P100
G0 X91.4 Y113.7 F1200
M106 S0
G4 P20
G1 X90.0 Y113.7 F240
M106 S255
G4 P100
G0 X89.8 Y113.7 F1200
M106 S0
G4 P20
G1 X87.4 Y113.7 F240
M106 S255
G4 P100
G0 X86.8 Y113.7 F1200
M106 S0
G4 P20
G1 X79.3 Y113.7 F240
M106 S255
G4 P100
G0 X79.4 Y113.8 F1200
M106 S0
G4 P20
G1 X86.9 Y113.8 F240
M106 S255
G4 P100
G0 X87.5 Y113.8 F1200
M106 S0
G4 P20
G1 X89.8 Y113.8 F240
M106 S255
G4 P100
G0 X90.0 Y113.8 F1200
M106 S0
G4 P20
G1 X91.4 Y113.8 F240
M106 S255
G4 P100
G0 X91.8 Y113.8 F1200
M106 S0
G4 P20
G1 X93.0 Y113.8 F240
M106 S255
G4 P100
G0 X95.1 Y113.8 F1200
M106 S0
G4 P20
G1 X95.3 Y113.8 F240
M106 S255
G4 P100
G0 X97.5 Y113.8 F1200
M106 S0
G4 P20
G1 X98.7 Y113.8 F240
M106 S255
G4 P100
G0 X99.1 Y113.8 F1200
M106 S0
G4 P20
G1 X100.4 Y113.8 F240
M106 S255
G4 P100
G0 X100.6 Y113.8 F1200
M106 S0
G4 P20
G1 X102.8 Y113.8 F240
M106 S255
G4 P100
G0 X103.4 Y113.8 F1200
M106 S0
G4 P20
G1 X111.0 Y113.8 F240
M106 S255
G4 P100
G0 X110.8 Y113.9 F1200
M106 S0
G4 P20
G1 X103.3 Y113.9 F240
M106 S255
G4 P100
G0 X102.7 Y113.9 F1200
M106 S0
G4 P20
G1 X100.6 Y113.9 F240
M106 S255
G4 P100
G0 X100.4 Y113.9 F1200
M106 S0
G4 P20
G1 X99.1 Y113.9 F240
M106 S255
G4 P100
G0 X98.7 Y113.9 F1200
M106 S0
G4 P20
G1 X97.5 Y113.9 F240
M106 S255
G4 P100
G0 X95.4 Y113.9 F1200
M106 S0
G4 P20
G1 X95.0 Y113.9 F240
M106 S255
G4 P100
G0 X93.0 Y113.9 F1200
M106 S0
G4 P20
G1 X91.8 Y113.9 F240
M106 S255
G4 P100
G0 X91.4 Y113.9 F1200
M106 S0
G4 P20
G1 X90.0 Y113.9 F240
M106 S255
G4 P100
G0 X89.8 Y113.9 F1200
M106 S0
G4 P20
G1 X87.7 Y113.9 F240
M106 S255
G4 P100
G0 X87.0 Y113.9 F1200
M106 S0
G4 P20
G1 X79.5 Y113.9 F240
M106 S255
G4 P100
G0 X79.7 Y114.0 F1200
M106 S0
G4 P20
G1 X87.3 Y114.0 F240
M106 S255
G4 P100
G0 X87.8 Y114.0 F1200
M106 S0
G4 P20
G1 X91.4 Y114.0 F240
M106 S255
G4 P100
G0 X91.8 Y114.0 F1200
M106 S0
G4 P20
G1 X93.0 Y114.0 F240
M106 S255
G4 P100
G0 X95.0 Y114.0 F1200
M106 S0
G4 P20
G1 X95.4 Y114.0 F240
M106 S255
G4 P100
G0 X97.5 Y114.0 F1200
M106 S0
G4 P20
G1 X98.7 Y114.0 F240
M106 S255
G4 P100
G0 X99.1 Y114.0 F1200
M106 S0
G4 P20
G1 X102.6 Y114.0 F240
M106 S255
G4 P100
G0 X103.1 Y114.0 F1200
M106 S0
G4 P20
G1 X110.6 Y114.0 F240
M106 S255
G4 P100
G0 X110.5 Y114.1 F1200
M106 S0
G4 P20
G1 X103.0 Y114.1 F240
M106 S255
G4 P100
G0 X102.5 Y114.1 F1200
M106 S0
G4 P20
G1 X99.1 Y114.1 F240
M106 S255
G4 P100
G0 X98.7 Y114.1 F1200
M106 S0
G4 P20
G1 X97.5 Y114.1 F240
M106 S255
G4 P100
G0 X95.5 Y114.1 F1200
M106 S0
G4 P20
G1 X95.0 Y114.1 F240
M106 S255
G4 P100
G0 X93.0 Y114.1 F1200
M106 S0
G4 P20
G1 X91.9 Y114.1 F240
M106 S255
G4 P100
G0 X91.4 Y114.1 F1200
M106 S0
G4 P20
G1 X87.9 Y114.1 F240
M106 S255
G4 P100
G0 X87.3 Y114.1 F1200
M106 S0
G4 P20
G1 X79.8 Y114.1 F240
M106 S255
G4 P100
G0 X80.0 Y114.2 F1200
M106 S0
G4 P20
G1 X87.5 Y114.2 F240
M106 S255
G4 P100
G0 X88.0 Y114.2 F1200
M106 S0
G4 P20
G1 X91.4 Y114.2 F240
M106 S255
G4 P100
G0 X91.9 Y114.2 F1200
M106 S0
G4 P20
G1 X93.1 Y114.2 F240
M106 S255
G4 P100
G0 X94.9 Y114.2 F1200
M106 S0
G4 P20
G1 X95.5 Y114.2 F240
M106 S255
G4 P100
G0 X97.4 Y114.2 F1200
M106 S0
G4 P20
G1 X98.7 Y114.2 F240
M106 S255
G4 P100
G0 X99.0 Y114.2 F1200
M106 S0
G4 P20
G1 X102.4 Y114.2 F240
M106 S255
G4 P100
G0 X102.8 Y114.2 F1200
M106 S0
G4 P20
G1 X110.3 Y114.2 F240
M106 S255
G4 P100
G0 X110.2 Y114.3 F1200
M106 S0
G4 P20
G1 X102.7 Y114.3 F240
M106 S255
G4 P100
G0 X102.2 Y114.3 F1200
M106 S0
G4 P20
G1 X99.0 Y114.3 F240
M106 S255
G4 P100
G0 X98.7 Y114.3 F1200
M106 S0
G4 P20
G1 X97.4 Y114.3 F240
M106 S255
G4 P100
G0 X95.5 Y114.3 F1200
M106 S0
G4 P20
G1 X94.9 Y114.3 F240
M106 S255
G4 P100
G0 X93.1 Y114.3 F1200
M106 S0
G4 P20
G1 X91.9 Y114.3 F240
M106 S255
G4 P100
G0 X91.5 Y114.3 F1200
M106 S0
G4 P20
G1 X90.3 Y114.3 F240
M106 S255
G4 P100
G0 X90.1 Y114.3 F1200
M106 S0
G4 P20
G1 X88.1 Y114.3 F240
M106 S255
G4 P100
G0 X87.6 Y114.3 F1200
M106 S0
G4 P20
G1 X80.1 Y114.3 F240
M106 S255
G4 P100
G0 X80.2 Y114.4 F1200
M106 S0
G4 P20
G1 X87.7 Y114.4 F240
M106 S255
G4 P100
G0 X88.2 Y114.4 F1200
M106 S0
G4 P20
G1 X90.1 Y114.4 F240
M106 S255
G4 P100
G0 X90.3 Y114.4 F1200
M106 S0
G4 P20
G1 X91.5 Y114.4 F240
M106 S255
G4 P100
G0 X91.9 Y114.4 F1200
M106 S0
G4 P20
G1 X93.1 Y114.4 F240
M106 S255
G4 P100
G0 X94.9 Y114.4 F1200
M106 S0
G4 P20
G1 X95.5 Y114.4 F240
M106 S255
G4 P100
G0 X97.4 Y114.4 F1200
M106 S0
G4 P20
G1 X98.6 Y114.4 F240
M106 S255
G4 P100
G0 X99.0 Y114.4 F1200
M106 S0
G4 P20
G1 X102.2 Y114.4 F240
M106 S255
G4 P100
G0 X102.6 Y114.4 F1200
M106 S0
G4 P20
G1 X110.0 Y114.4 F240
M106 S255
G4 P100
G0 X109.7 Y114.5 F1200
M106 S0
G4 P20
G1 X102.4 Y114.5 F240
M106 S255
G4 P100
G0 X102.2 Y114.5 F1200
M106 S0
G4 P20
G1 X99.0 Y114.5 F240
M106 S255
G4 P100
G0 X98.6 Y114.5 F1200
M106 S0
G4 P20
G1 X97.4 Y114.5 F240
M106 S255
G4 P100
G0 X95.6 Y114.5 F1200
M106 S0
G4 P20
G1 X94.9 Y114.5 F240
M106 S255
G4 P100
G0 X93.1 Y114.5 F1200
M106 S0
G4 P20
G1 X91.9 Y114.5 F240
M106 S255
G4 P100
G0 X91.6 Y114.5 F1200
M106 S0
G4 P20
G1 X88.3 Y114.5 F240
M106 S255
G4 P100
G0 X87.9 Y114.5 F1200
M106 S0
G4 P20
G1 X80.5 Y114.5 F240
M106 S255
G4 P100
G0 X80.6 Y114.6 F1200
M106 S0
G4 P20
G1 X87.9 Y114.6 F240
M106 S255
G4 P100
G0 X88.3 Y114.6 F1200
M106 S0
G4 P20
G1 X91.6 Y114.6 F240
M106 S255
G4 P100
G0 X91.9 Y114.6 F1200
M106 S0
G4 P20
G1 X93.1 Y114.6 F240
M106 S255
G4 P100
G0 X94.9 Y114.6 F1200
M106 S0
G4 P20
G1 X95.6 Y114.6 F240
M106 S255
G4 P100
G0 X97.3 Y114.6 F1200
M106 S0
G4 P20
G1 X98.6 Y114.6 F240
M106 S255
G4 P100
G0 X99.0 Y114.6 F1200
M106 S0
G4 P20
G1 X102.0 Y114.6 F240
M106 S255
G4 P100
G0 X102.3 Y114.6 F1200
M106 S0
G4 P20
G1 X109.5 Y114.6 F240
M106 S255
G4 P100
G0 X109.2 Y114.7 F1200
M106 S0
G4 P20
G1 X99.0 Y114.7 F240
M106 S255
G4 P100
G0 X98.6 Y114.7 F1200
M106 S0
G4 P20
G1 X97.3 Y114.7 F240
M106 S255
G4 P100
G0 X95.6 Y114.7 F1200
M106 S0
G4 P20
G1 X94.8 Y114.7 F240
M106 S255
G4 P100
G0 X93.2 Y114.7 F1200
M106 S0
G4 P20
G1 X91.9 Y114.7 F240
M106 S255
G4 P100
G0 X91.6 Y114.7 F1200
M106 S0
G4 P20
G1 X80.9 Y114.7 F240
M106 S255
G4 P100
G0 X81.1 Y114.8 F1200
M106 S0
G4 P20
G1 X88.3 Y114.8 F240
M106 S255
G4 P100
G0 X88.5 Y114.8 F1200
M106 S0
G4 P20
G1 X91.6 Y114.8 F240
M106 S255
G4 P100
G0 X91.9 Y114.8 F1200
M106 S0
G4 P20
G1 X93.2 Y114.8 F240
M106 S255
G4 P100
G0 X94.8 Y114.8 F1200
M106 S0
G4 P20
G1 X95.6 Y114.8 F240
M106 S255
G4 P100
G0 X97.3 Y114.8 F1200
M106 S0
G4 P20
G1 X98.6 Y114.8 F240
M106 S255
G4 P100
G0 X98.9 Y114.8 F1200
M106 S0
G4 P20
G1 X108.9 Y114.8 F240
M106 S255
G4 P100
G0 X108.7 Y114.9 F1200
M106 S0
G4 P20
G1 X98.8 Y114.9 F240
M106 S255
G4 P100
G0 X98.6 Y114.9 F1200
M106 S0
G4 P20
G1 X97.3 Y114.9 F240
M106 S255
G4 P100
G0 X95.6 Y114.9 F1200
M106 S0
G4 P20
G1 X94.8 Y114.9 F240
M106 S255
G4 P100
G0 X93.2 Y114.9 F1200
M106 S0
G4 P20
G1 X91.9 Y114.9 F240
M106 S255
G4 P100
G0 X91.6 Y114.9 F1200
M106 S0
G4 P20
G1 X81.4 Y114.9 F240
M106 S255
G4 P100
G0 X81.8 Y115.0 F1200
M106 S0
G4 P20
G1 X91.6 Y115.0 F240
M106 S255
G4 P100
G0 X91.9 Y115.0 F1200
M106 S0
G4 P20
G1 X93.2 Y115.0 F240
M106 S255
G4 P100
G0 X94.7 Y115.0 F1200
M106 S0
G4 P20
G1 X95.7 Y115.0 F240
M106 S255
G4 P100
G0 X97.3 Y115.0 F1200
M106 S0
G4 P20
G1 X108.2 Y115.0 F240
M106 S255
G4 P100
G0 X107.9 Y115.1 F1200
M106 S0
G4 P20
G1 X97.3 Y115.1 F240
M106 S255
G4 P100
G0 X95.7 Y115.1 F1200
M106 S0
G4 P20
G1 X94.7 Y115.1 F240
M106 S255
G4 P100
G0 X93.2 Y115.1 F1200
M106 S0
G4 P20
G1 X91.9 Y115.1 F240
M106 S255
G4 P100
G0 X91.6 Y115.1 F1200
M106 S0
G4 P20
G1 X82.1 Y115.1 F240
M106 S255
G4 P100
G0 X82.4 Y115.2 F1200
M106 S0
G4 P20
G1 X91.7 Y115.2 F240
M106 S255
G4 P100
G0 X91.9 Y115.2 F1200
M106 S0
G4 P20
G1 X93.2 Y115.2 F240
M106 S255
G4 P100
G0 X94.7 Y115.2 F1200
M106 S0
G4 P20
G1 X95.7 Y115.2 F240
M106 S255
G4 P100
G0 X97.3 Y115.2 F1200
M106 S0
G4 P20
G1 X107.5 Y115.2 F240
M106 S255
G4 P100
G0 X106.9 Y115.3 F1200
M106 S0
G4 P20
G1 X97.3 Y115.3 F240
M106 S255
G4 P100
G0 X95.8 Y115.3 F1200
M106 S0
G4 P20
G1 X94.7 Y115.3 F240
M106 S255
G4 P100
G0 X93.2 Y115.3 F1200
M106 S0
G4 P20
G1 X91.9 Y115.3 F240
M106 S255
G4 P100
G0 X91.7 Y115.3 F1200
M106 S0
G4 P20
G1 X82.9 Y115.3 F240
M106 S255
G4 P100
G0 X83.2 Y115.4 F1200
M106 S0
G4 P20
G1 X91.7 Y115.4 F240
M106 S255
G4 P100
G0 X91.9 Y115.4 F1200
M106 S0
G4 P20
G1 X93.2 Y115.4 F240
M106 S255
G4 P100
G0 X94.6 Y115.4 F1200
M106 S0
G4 P20
G1 X95.8 Y115.4 F240
M106 S255
G4 P100
G0 X97.3 Y115.4 F1200
M106 S0
G4 P20
G1 X106.7 Y115.4 F240
M106 S255
G4 P100
G0 X106.1 Y115.5 F1200
M106 S0
G4 P20
G1 X97.3 Y115.5 F240
M106 S255
G4 P100
G0 X95.8 Y115.5 F1200
M106 S0
G4 P20
G1 X94.6 Y115.5 F240
M106 S255
G4 P100
G0 X93.2 Y115.5 F1200
M106 S0
G4 P20
G1 X91.9 Y115.5 F240
M106 S255
G4 P100
G0 X91.7 Y115.5 F1200
M106 S0
G4 P20
G1 X83.6 Y115.5 F240
M106 S255
G4 P100
G0 X84.2 Y115.6 F1200
M106 S0
G4 P20
G1 X91.7 Y115.6 F240
M106 S255
G4 P100
G0 X91.9 Y115.6 F1200
M106 S0
G4 P20
G1 X93.2 Y115.6 F240
M106 S255
G4 P100
G0 X94.6 Y115.6 F1200
M106 S0
G4 P20
G1 X95.8 Y115.6 F240
M106 S255
G4 P100
G0 X97.3 Y115.6 F1200
M106 S0
G4 P20
G1 X105.7 Y115.6 F240
M106 S255
G4 P100
G0 X110.0 Y115.6 F1200
M106 S0
G4 P20
G1 X110.6 Y115.6 F240
M106 S255
G4 P100
G0 X110.6 Y115.7 F1200
M106 S0
G4 P20
G1 X109.6 Y115.7 F240
M106 S255
G4 P100
G0 X105.5 Y115.7 F1200
M106 S0
G4 P20
G1 X97.3 Y115.7 F240
M106 S255
G4 P100
G0 X95.8 Y115.7 F1200
M106 S0
G4 P20
G1 X94.6 Y115.7 F240
M106 S255
G4 P100
G0 X93.2 Y115.7 F1200
M106 S0
G4 P20
G1 X91.9 Y115.7 F240
M106 S255
G4 P100
G0 X91.7 Y115.7 F1200
M106 S0
G4 P20
G1 X84.4 Y115.7 F240
M106 S255
G4 P100
G0 X80.0 Y115.8 F1200
M106 S0
G4 P20
G1 X80.7 Y115.8 F240
M106 S255
G4 P100
G0 X85.0 Y115.8 F1200
M106 S0
G4 P20
G1 X91.7 Y115.8 F240
M106 S255
G4 P100
G0 X91.9 Y115.8 F1200
M106 S0
G4 P20
G1 X93.2 Y115.8 F240
M106 S255
G4 P100
G0 X94.6 Y115.8 F1200
M106 S0
G4 P20
G1 X95.8 Y115.8 F240
M106 S255
G4 P100
G0 X97.2 Y115.8 F1200
M106 S0
G4 P20
G1 X105.0 Y115.8 F240
M106 S255
G4 P100
G0 X108.5 Y115.8 F1200
M106 S0
G4 P20
G1 X110.5 Y115.8 F240
M106 S255
G4 P100
G0 X110.5 Y115.9 F1200
M106 S0
G4 P20
G1 X107.8 Y115.9 F240
M106 S255
G4 P100
G0 X104.8 Y115.9 F1200
M106 S0
G4 P20
G1 X97.2 Y115.9 F240
M106 S255
G4 P100
G0 X95.8 Y115.9 F1200
M106 S0
G4 P20
G1 X94.6 Y115.9 F240
M106 S255
G4 P100
G0 X93.2 Y115.9 F1200
M106 S0
G4 P20
G1 X91.9 Y115.9 F240
M106 S255
G4 P100
G0 X91.7 Y115.9 F1200
M106 S0
G4 P20
G1 X85.3 Y115.9 F240
M106 S255
G4 P100
G0 X81.3 Y115.9 F1200
M106 S0
G4 P20
G1 X79.9 Y115.9 F240
M106 S255
G4 P100
G0 X80.0 Y116.0 F1200
M106 S0
G4 P20
G1 X82.1 Y116.0 F240
M106 S255
G4 P100
G0 X85.5 Y116.0 F1200
M106 S0
G4 P20
G1 X91.7 Y116.0 F240
M106 S255
G4 P100
G0 X91.9 Y116.0 F1200
M106 S0
G4 P20
G1 X93.2 Y116.0 F240
M106 S255
G4 P100
G0 X94.5 Y116.0 F1200
M106 S0
G4 P20
G1 X95.8 Y116.0 F240
M106 S255
G4 P100
G0 X97.2 Y116.0 F1200
M106 S0
G4 P20
G1 X104.7 Y116.0 F240
M106 S255
G4 P100
G0 X105.9 Y116.0 F1200
M106 S0
G4 P20
G1 X110.4 Y116.0 F240
M106 S255
G4 P100
G0 X110.3 Y116.1 F1200
M106 S0
G4 P20
G1 X104.9 Y116.1 F240
M106 S255
G4 P100
G0 X104.3 Y116.1 F1200
M106 S0
G4 P20
G1 X97.2 Y116.1 F240
M106 S255
G4 P100
G0 X95.8 Y116.1 F1200
M106 S0
G4 P20
G1 X94.5 Y116.1 F240
M106 S255
G4 P100
G0 X93.3 Y116.1 F1200
M106 S0
G4 P20
G1 X91.9 Y116.1 F240
M106 S255
G4 P100
G0 X91.7 Y116.1 F1200
M106 S0
G4 P20
G1 X85.9 Y116.1 F240
M106 S255
G4 P100
G0 X84.1 Y116.1 F1200
M106 S0
G4 P20
G1 X80.1 Y116.1 F240
M106 S255
G4 P100
G0 X80.1 Y116.2 F1200
M106 S0
G4 P20
G1 X84.9 Y116.2 F240
M106 S255
G4 P100
G0 X86.0 Y116.2 F1200
M106 S0
G4 P20
G1 X93.3 Y116.2 F240
M106 S255
G4 P100
G0 X94.5 Y116.2 F1200
M106 S0
G4 P20
G1 X95.9 Y116.2 F240
M106 S255
G4 P100
G0 X97.2 Y116.2 F1200
M106 S0
G4 P20
G1 X104.2 Y116.2 F240
M106 S255
G4 P100
G0 X104.8 Y116.2 F1200
M106 S0
G4 P20
G1 X110.3 Y116.2 F240
M106 S255
G4 P100
G0 X110.2 Y116.3 F1200
M106 S0
G4 P20
G1 X97.2 Y116.3 F240
M106 S255
G4 P100
G0 X95.9 Y116.3 F1200
M106 S0
G4 P20
G1 X94.5 Y116.3 F240
M106 S255
G4 P100
G0 X93.3 Y116.3 F1200
M106 S0
G4 P20
G1 X80.2 Y116.3 F240
M106 S255
G4 P100
G0 X80.3 Y116.4 F1200
M106 S0
G4 P20
G1 X86.0 Y116.4 F240
M106 S255
G4 P100
G0 X86.5 Y116.4 F1200
M106 S0
G4 P20
G1 X93.3 Y116.4 F240
M106 S255
G4 P100
G0 X94.4 Y116.4 F1200
M106 S0
G4 P20
G1 X95.9 Y116.4 F240
M106 S255
G4 P100
G0 X97.2 Y116.4 F1200
M106 S0
G4 P20
G1 X103.8 Y116.4 F240
M106 S255
G4 P100
G0 X104.1 Y116.4 F1200
M106 S0
G4 P20
G1 X110.1 Y116.4 F240
M106 S255
G4 P100
G0 X110.0 Y116.5 F1200
M106 S0
G4 P20
G1 X97.2 Y116.5 F240
M106 S255
G4 P100
G0 X95.9 Y116.5 F1200
M106 S0
G4 P20
G1 X94.4 Y116.5 F240
M106 S255
G4 P100
G0 X93.3 Y116.5 F1200
M106 S0
G4 P20
G1 X80.3 Y116.5 F240
M106 S255
G4 P100
G0 X80.4 Y116.6 F1200
M106 S0
G4 P20
G1 X93.3 Y116.6 F240
M106 S255
G4 P100
G0 X94.4 Y116.6 F1200
M106 S0
G4 P20
G1 X95.9 Y116.6 F240
M106 S255
G4 P100
G0 X97.2 Y116.6 F1200
M106 S0
G4 P20
G1 X109.9 Y116.6 F240
M106 S255
G4 P100
G0 X109.8 Y116.7 F1200
M106 S0
G4 P20
G1 X97.2 Y116.7 F240
M106 S255
G4 P100
G0 X95.9 Y116.7 F1200
M106 S0
G4 P20
G1 X94.4 Y116.7 F240
M106 S255
G4 P100
G0 X93.3 Y116.7 F1200
M106 S0
G4 P20
G1 X86.9 Y116.7 F240
M106 S255
G4 P100
G0 X86.7 Y116.7 F1200
M106 S0
G4 P20
G1 X80.5 Y116.7 F240
M106 S255
G4 P100
G0 X80.6 Y116.8 F1200
M106 S0
G4 P20
G1 X93.3 Y116.8 F240
M106 S255
G4 P100
G0 X94.4 Y116.8 F1200
M106 S0
G4 P20
G1 X95.9 Y116.8 F240
M106 S255
G4 P100
G0 X97.2 Y116.8 F1200
M106 S0
G4 P20
G1 X109.7 Y116.8 F240
M106 S255
G4 P100
G0 X109.6 Y116.9 F1200
M106 S0
G4 P20
G1 X97.2 Y116.9 F240
M106 S255
G4 P100
G0 X95.9 Y116.9 F1200
M106 S0
G4 P20
G1 X94.4 Y116.9 F240
M106 S255
G4 P100
G0 X93.3 Y116.9 F1200
M106 S0
G4 P20
G1 X80.7 Y116.9 F240
M106 S255
G4 P100
G0 X80.8 Y117.0 F1200
M106 S0
G4 P20
G1 X93.3 Y117.0 F240
M106 S255
G4 P100
G0 X94.4 Y117.0 F1200
M106 S0
G4 P20
G1 X95.9 Y117.0 F240
M106 S255
G4 P100
G0 X97.2 Y117.0 F1200
M106 S0
G4 P20
G1 X109.5 Y117.0 F240
M106 S255
G4 P100
G0 X109.4 Y117.1 F1200
M106 S0
G4 P20
G1 X97.2 Y117.1 F240
M106 S255
G4 P100
G0 X95.9 Y117.1 F1200
M106 S0
G4 P20
G1 X94.4 Y117.1 F240
M106 S255
G4 P100
G0 X93.3 Y117.1 F1200
M106 S0
G4 P20
G1 X81.0 Y117.1 F240
M106 S255
G4 P100
G0 X81.1 Y117.2 F1200
M106 S0
G4 P20
G1 X93.3 Y117.2 F240
M106 S255
G4 P100
G0 X94.4 Y117.2 F1200
M106 S0
G4 P20
G1 X96.0 Y117.2 F240
M106 S255
G4 P100
G0 X97.2 Y117.2 F1200
M106 S0
G4 P20
G1 X109.2 Y117.2 F240
M106 S255
G4 P100
G0 X109.1 Y117.3 F1200
M106 S0
G4 P20
G1 X97.2 Y117.3 F240
M106 S255
G4 P100
G0 X96.0 Y117.3 F1200
M106 S0
G4 P20
G1 X94.4 Y117.3 F240
M106 S255
G4 P100
G0 X93.3 Y117.3 F1200
M106 S0
G4 P20
G1 X81.2 Y117.3 F240
M106 S255
G4 P100
G0 X81.3 Y117.4 F1200
M106 S0
G4 P20
G1 X93.4 Y117.4 F240
M106 S255
G4 P100
G0 X94.3 Y117.4 F1200
M106 S0
G4 P20
G1 X96.0 Y117.4 F240
M106 S255
G4 P100
G0 X97.2 Y117.4 F1200
M106 S0
G4 P20
G1 X109.0 Y117.4 F240
M106 S255
G4 P100
G0 X108.8 Y117.5 F1200
M106 S0
G4 P20
G1 X97.2 Y117.5 F240
M106 S255
G4 P100
G0 X96.0 Y117.5 F1200
M106 S0
G4 P20
G1 X94.3 Y117.5 F240
M106 S255
G4 P100
G0 X93.4 Y117.5 F1200
M106 S0
G4 P20
G1 X81.4 Y117.5 F240
M106 S255
G4 P100
G0 X81.6 Y117.6 F1200
M106 S0
G4 P20
G1 X93.4 Y117.6 F240
M106 S255
G4 P100
G0 X94.3 Y117.6 F1200
M106 S0
G4 P20
G1 X96.0 Y117.6 F240
M106 S255
G4 P100
G0 X97.1 Y117.6 F1200
M106 S0
G4 P20
G1 X108.7 Y117.6 F240
M106 S255
G4 P100
G0 X108.5 Y117.7 F1200
M106 S0
G4 P20
G1 X97.1 Y117.7 F240
M106 S255
G4 P100
G0 X96.0 Y117.7 F1200
M106 S0
G4 P20
G1 X94.3 Y117.7 F240
M106 S255
G4 P100
G0 X93.4 Y117.7 F1200
M106 S0
G4 P20
G1 X81.8 Y117.7 F240
M106 S255
G4 P100
G0 X81.9 Y117.8 F1200
M106 S0
G4 P20
G1 X93.4 Y117.8 F240
M106 S255
G4 P100
G0 X94.3 Y117.8 F1200
M106 S0
G4 P20
G1 X96.0 Y117.8 F240
M106 S255
G4 P100
G0 X97.1 Y117.8 F1200
M106 S0
G4 P20
G1 X108.4 Y117.8 F240
M106 S255
G4 P100
G0 X108.2 Y117.9 F1200
M106 S0
G4 P20
G1 X97.0 Y117.9 F240
M106 S255
G4 P100
G0 X96.0 Y117.9 F1200
M106 S0
G4 P20
G1 X94.3 Y117.9 F240
M106 S255
G4 P100
G0 X93.4 Y117.9 F1200
M106 S0
G4 P20
G1 X82.1 Y117.9 F240
M106 S255
G4 P100
G0 X82.3 Y118.0 F1200
M106 S0
G4 P20
G1 X93.4 Y118.0 F240
M106 S255
G4 P100
G0 X94.3 Y118.0 F1200
M106 S0
G4 P20
G1 X96.0 Y118.0 F240
M106 S255
G4 P100
G0 X97.0 Y118.0 F1200
M106 S0
G4 P20
G1 X108.0 Y118.0 F240
M106 S255
G4 P100
G0 X107.8 Y118.1 F1200
M106 S0
G4 P20
G1 X97.0 Y118.1 F240
M106 S255
G4 P100
G0 X96.0 Y118.1 F1200
M106 S0
G4 P20
G1 X94.3 Y118.1 F240
M106 S255
G4 P100
G0 X93.5 Y118.1 F1200
M106 S0
G4 P20
G1 X82.4 Y118.1 F240
M106 S255
G4 P100
G0 X82.6 Y118.2 F1200
M106 S0
G4 P20
G1 X93.5 Y118.2 F240
M106 S255
G4 P100
G0 X94.3 Y118.2 F1200
M106 S0
G4 P20
G1 X96.0 Y118.2 F240
M106 S255
G4 P100
G0 X97.0 Y118.2 F1200
M106 S0
G4 P20
G1 X107.5 Y118.2 F240
M106 S255
G4 P100
G0 X107.3 Y118.3 F1200
M106 S0
G4 P20
G1 X97.0 Y118.3 F240
M106 S255
G4 P100
G0 X96.0 Y118.3 F1200
M106 S0
G4 P20
G1 X94.3 Y118.3 F240
M106 S255
G4 P100
G0 X93.5 Y118.3 F1200
M106 S0
G4 P20
G1 X82.8 Y118.3 F240
M106 S255
G4 P100
G0 X83.1 Y118.4 F1200
M106 S0
G4 P20
G1 X93.5 Y118.4 F240
M106 S255
G4 P100
G0 X94.3 Y118.4 F1200
M106 S0
G4 P20
G1 X96.0 Y118.4 F240
M106 S255
G4 P100
G0 X97.0 Y118.4 F1200
M106 S0
G4 P20
G1 X107.0 Y118.4 F240
M106 S255
G4 P100
G0 X106.7 Y118.5 F1200
M106 S0
G4 P20
G1 X96.9 Y118.5 F240
M106 S255
G4 P100
G0 X96.0 Y118.5 F1200
M106 S0
G4 P20
G1 X94.3 Y118.5 F240
M106 S255
G4 P100
G0 X93.6 Y118.5 F1200
M106 S0
G4 P20
G1 X83.4 Y118.5 F240
M106 S255
G4 P100
G0 X83.6 Y118.6 F1200
M106 S0
G4 P20
G1 X93.6 Y118.6 F240
M106 S255
G4 P100
G0 X94.3 Y118.6 F1200
M106 S0
G4 P20
G1 X96.0 Y118.6 F240
M106 S255
G4 P100
G0 X96.9 Y118.6 F1200
M106 S0
G4 P20
G1 X106.4 Y118.6 F240
M106 S255
G4 P100
G0 X105.9 Y118.7 F1200
M106 S0
G4 P20
G1 X96.8 Y118.7 F240
M106 S255
G4 P100
G0 X96.0 Y118.7 F1200
M106 S0
G4 P20
G1 X94.3 Y118.7 F240
M106 S255
G4 P100
G0 X93.7 Y118.7 F1200
M106 S0
G4 P20
G1 X84.0 Y118.7 F240
M106 S255
G4 P100
G0 X84.3 Y118.8 F1200
M106 S0
G4 P20
G1 X93.7 Y118.8 F240
M106 S255
G4 P100
G0 X94.3 Y118.8 F1200
M106 S0
G4 P20
G1 X96.0 Y118.8 F240
M106 S255
G4 P100
G0 X96.8 Y118.8 F1200
M106 S0
G4 P20
G1 X105.5 Y118.8 F240
M106 S255
G4 P100
G0 X105.0 Y118.9 F1200
M106 S0
G4 P20
G1 X96.8 Y118.9 F240
M106 S255
G4 P100
G0 X96.0 Y118.9 F1200
M106 S0
G4 P20
G1 X94.3 Y118.9 F240
M106 S255
G4 P100
G0 X93.7 Y118.9 F1200
M106 S0
G4 P20
G1 X84.7 Y118.9 F240
M106 S255
G4 P100
G0 X85.4 Y119.0 F1200
M106 S0
G4 P20
G1 X93.7 Y119.0 F240
M106 S255
G4 P100
G0 X94.3 Y119.0 F1200
M106 S0
G4 P20
G1 X96.0 Y119.0 F240
M106 S255
G4 P100
G0 X96.7 Y119.0 F1200
M106 S0
G4 P20
G1 X104.4 Y119.0 F240
M106 S255
G4 P100
G0 X104.1 Y119.1 F1200
M106 S0
G4 P20
G1 X96.7 Y119.1 F240
M106 S255
G4 P100
G0 X96.0 Y119.1 F1200
M106 S0
G4 P20
G1 X94.3 Y119.1 F240
M106 S255
G4 P100
G0 X93.7 Y119.1 F1200
M106 S0
G4 P20
G1 X85.7 Y119.1 F240
M106 S255
G4 P100
G0 X86.3 Y119.2 F1200
M106 S0
G4 P20
G1 X93.7 Y119.2 F240
M106 S255
G4 P100
G0 X94.3 Y119.2 F1200
M106 S0
G4 P20
G1 X95.9 Y119.2 F240
M106 S255
G4 P100
G0 X96.7 Y119.2 F1200
M106 S0
G4 P20
G1 X103.7 Y119.2 F240
M106 S255
G4 P100
G0 X103.3 Y119.3 F1200
M106 S0
G4 P20
G1 X96.6 Y119.3 F240
M106 S255
G4 P100
G0 X95.9 Y119.3 F1200
M106 S0
G4 P20
G1 X94.3 Y119.3 F240
M106 S255
G4 P100
G0 X93.7 Y119.3 F1200
M106 S0
G4 P20
G1 X86.7 Y119.3 F240
M106 S255
G4 P100
G0 X86.9 Y119.4 F1200
M106 S0
G4 P20
G1 X93.7 Y119.4 F240
M106 S255
G4 P100
G0 X94.3 Y119.4 F1200
M106 S0
G4 P20
G1 X95.9 Y119.4 F240
M106 S255
G4 P100
G0 X96.6 Y119.4 F1200
M106 S0
G4 P20
G1 X103.2 Y119.4 F240
M106 S255
G4 P100
G0 X106.6 Y119.5 F1200
M106 S0
G4 P20
G1 X104.2 Y119.5 F240
M106 S255
G4 P100
G0 X102.9 Y119.5 F1200
M106 S0
G4 P20
G1 X96.5 Y119.5 F240
M106 S255
G4 P100
G0 X95.9 Y119.5 F1200
M106 S0
G4 P20
G1 X94.3 Y119.5 F240
M106 S255
G4 P100
G0 X93.7 Y119.5 F1200
M106 S0
G4 P20
G1 X87.3 Y119.5 F240
M106 S255
G4 P100
G0 X84.6 Y119.6 F1200
M106 S0
G4 P20
G1 X85.7 Y119.6 F240
M106 S255
G4 P100
G0 X87.5 Y119.6 F1200
M106 S0
G4 P20
G1 X93.7 Y119.6 F240
M106 S255
G4 P100
G0 X94.3 Y119.6 F1200
M106 S0
G4 P20
G1 X95.9 Y119.6 F240
M106 S255
G4 P100
G0 X96.5 Y119.6 F1200
M106 S0
G4 P20
G1 X102.7 Y119.6 F240
M106 S255
G4 P100
G0 X103.7 Y119.6 F1200
M106 S0
G4 P20
G1 X106.9 Y119.6 F240
M106 S255
G4 P100
G0 X106.8 Y119.7 F1200
M106 S0
G4 P20
G1 X103.4 Y119.7 F240
M106 S255
G4 P100
G0 X102.6 Y119.7 F1200
M106 S0
G4 P20
G1 X96.5 Y119.7 F240
M106 S255
G4 P100
G0 X95.9 Y119.7 F1200
M106 S0
G4 P20
G1 X94.3 Y119.7 F240
M106 S255
G4 P100
G0 X93.7 Y119.7 F1200
M106 S0
G4 P20
G1 X87.6 Y119.7 F240
M106 S255
G4 P100
G0 X86.3 Y119.7 F1200
M106 S0
G4 P20
G1 X83.9 Y119.7 F240
M106 S255
G4 P100
G0 X83.6 Y119.8 F1200
M106 S0
G4 P20
G1 X87.1 Y119.8 F240
M106 S255
G4 P100
G0 X87.9 Y119.8 F1200
M106 S0
G4 P20
G1 X93.7 Y119.8 F240
M106 S255
G4 P100
G0 X94.3 Y119.8 F1200
M106 S0
G4 P20
G1 X95.9 Y119.8 F240
M106 S255
G4 P100
G0 X96.5 Y119.8 F1200
M106 S0
G4 P20
G1 X102.3 Y119.8 F240
M106 S255
G4 P100
G0 X102.8 Y119.8 F1200
M106 S0
G4 P20
G1 X106.8 Y119.8 F240
M106 S255
G4 P100
G0 X106.7 Y119.9 F1200
M106 S0
G4 P20
G1 X102.8 Y119.9 F240
M106 S255
G4 P100
G0 X102.2 Y119.9 F1200
M106 S0
G4 P20
G1 X96.5 Y119.9 F240
M106 S255
G4 P100
G0 X95.9 Y119.9 F1200
M106 S0
G4 P20
G1 X94.3 Y119.9 F240
M106 S255
G4 P100
G0 X93.7 Y119.9 F1200
M106 S0
G4 P20
G1 X88.0 Y119.9 F240
M106 S255
G4 P100
G0 X87.2 Y119.9 F1200
M106 S0
G4 P20
G1 X83.6 Y119.9 F240
M106 S255
G4 P100
G0 X83.8 Y120.0 F1200
M106 S0
G4 P20
G1 X93.7 Y120.0 F240
M106 S255
G4 P100
G0 X94.3 Y120.0 F1200
M106 S0
G4 P20
G1 X95.9 Y120.0 F240
M106 S255
G4 P100
G0 X96.4 Y120.0 F1200
M106 S0
G4 P20
G1 X106.5 Y120.0 F240
M106 S255
G4 P100
G0 X106.3 Y120.1 F1200
M106 S0
G4 P20
G1 X96.4 Y120.1 F240
M106 S255
G4 P100
G0 X95.9 Y120.1 F1200
M106 S0
G4 P20
G1 X94.3 Y120.1 F240
M106 S255
G4 P100
G0 X93.7 Y120.1 F1200
M106 S0
G4 P20
G1 X88.4 Y120.1 F240
M106 S255
G4 P100
G0 X88.0 Y120.1 F1200
M106 S0
G4 P20
G1 X83.9 Y120.1 F240
M106 S255
G4 P100
G0 X84.0 Y120.2 F1200
M106 S0
G4 P20
G1 X93.8 Y120.2 F240
M106 S255
G4 P100
G0 X94.3 Y120.2 F1200
M106 S0
G4 P20
G1 X95.9 Y120.2 F240
M106 S255
G4 P100
G0 X96.4 Y120.2 F1200
M106 S0
G4 P20
G1 X106.2 Y120.2 F240
M106 S255
G4 P100
G0 X106.1 Y120.3 F1200
M106 S0
G4 P20
G1 X96.4 Y120.3 F240
M106 S255
G4 P100
G0 X95.8 Y120.3 F1200
M106 S0
G4 P20
G1 X94.3 Y120.3 F240
M106 S255
G4 P100
G0 X93.8 Y120.3 F1200
M106 S0
G4 P20
G1 X84.2 Y120.3 F240
M106 S255
G4 P100
G0 X84.4 Y120.4 F1200
M106 S0
G4 P20
G1 X93.8 Y120.4 F240
M106 S255
G4 P100
G0 X94.3 Y120.4 F1200
M106 S0
G4 P20
G1 X95.8 Y120.4 F240
M106 S255
G4 P100
G0 X96.4 Y120.4 F1200
M106 S0
G4 P20
G1 X105.9 Y120.4 F240
M106 S255
G4 P100
G0 X105.8 Y120.5 F1200
M106 S0
G4 P20
G1 X96.4 Y120.5 F240
M106 S255
G4 P100
G0 X95.8 Y120.5 F1200
M106 S0
G4 P20
G1 X94.3 Y120.5 F240
M106 S255
G4 P100
G0 X93.8 Y120.5 F1200
M106 S0
G4 P20
G1 X84.5 Y120.5 F240
M106 S255
G4 P100
G0 X84.7 Y120.6 F1200
M106 S0
G4 P20
G1 X93.8 Y120.6 F240
M106 S255
G4 P100
G0 X94.3 Y120.6 F1200
M106 S0
G4 P20
G1 X95.8 Y120.6 F240
M106 S255
G4 P100
G0 X96.4 Y120.6 F1200
M106 S0
G4 P20
G1 X105.6 Y120.6 F240
M106 S255
G4 P100
G0 X105.5 Y120.7 F1200
M106 S0
G4 P20
G1 X96.4 Y120.7 F240
M106 S255
G4 P100
G0 X95.8 Y120.7 F1200
M106 S0
G4 P20
G1 X94.3 Y120.7 F240
M106 S255
G4 P100
G0 X93.8 Y120.7 F1200
M106 S0
G4 P20
G1 X84.8 Y120.7 F240
M106 S255
G4 P100
G0 X84.9 Y120.8 F1200
M106 S0
G4 P20
G1 X93.8 Y120.8 F240
M106 S255
G4 P100
G0 X94.3 Y120.8 F1200
M106 S0
G4 P20
G1 X95.8 Y120.8 F240
M106 S255
G4 P100
G0 X96.3 Y120.8 F1200
M106 S0
G4 P20
G1 X105.3 Y120.8 F240
M106 S255
G4 P100
G0 X105.1 Y120.9 F1200
M106 S0
G4 P20
G1 X96.3 Y120.9 F240
M106 S255
G4 P100
G0 X95.8 Y120.9 F1200
M106 S0
G4 P20
G1 X94.4 Y120.9 F240
M106 S255
G4 P100
G0 X93.8 Y120.9 F1200
M106 S0
G4 P20
G1 X85.1 Y120.9 F240
M106 S255
G4 P100
G0 X85.2 Y121.0 F1200
M106 S0
G4 P20
G1 X93.8 Y121.0 F240
M106 S255
G4 P100
G0 X94.4 Y121.0 F1200
M106 S0
G4 P20
G1 X95.8 Y121.0 F240
M106 S255
G4 P100
G0 X96.3 Y121.0 F1200
M106 S0
G4 P20
G1 X105.0 Y121.0 F240
M106 S255
G4 P100
G0 X104.8 Y121.1 F1200
M106 S0
G4 P20
G1 X96.3 Y121.1 F240
M106 S255
G4 P100
G0 X95.8 Y121.1 F1200
M106 S0
G4 P20
G1 X94.4 Y121.1 F240
M106 S255
G4 P100
G0 X93.8 Y121.1 F1200
M106 S0
G4 P20
G1 X85.4 Y121.1 F240
M106 S255
G4 P100
G0 X85.5 Y121.2 F1200
M106 S0
G4 P20
G1 X93.9 Y121.2 F240
M106 S255
G4 P100
G0 X94.4 Y121.2 F1200
M106 S0
G4 P20
G1 X95.8 Y121.2 F240
M106 S255
G4 P100
G0 X96.3 Y121.2 F1200
M106 S0
G4 P20
G1 X104.7 Y121.2 F240
M106 S255
G4 P100
G0 X104.5 Y121.3 F1200
M106 S0
G4 P20
G1 X96.2 Y121.3 F240
M106 S255
G4 P100
G0 X95.8 Y121.3 F1200
M106 S0
G4 P20
G1 X94.4 Y121.3 F240
M106 S255
G4 P100
G0 X93.9 Y121.3 F1200
M106 S0
G4 P20
G1 X85.7 Y121.3 F240
M106 S255
G4 P100
G0 X85.9 Y121.4 F1200
M106 S0
G4 P20
G1 X93.9 Y121.4 F240
M106 S255
G4 P100
G0 X94.4 Y121.4 F1200
M106 S0
G4 P20
G1 X95.7 Y121.4 F240
M106 S255
G4 P100
G0 X96.2 Y121.4 F1200
M106 S0
G4 P20
G1 X104.3 Y121.4 F240
M106 S255
G4 P100
G0 X104.2 Y121.5 F1200
M106 S0
G4 P20
G1 X96.2 Y121.5 F240
M106 S255
G4 P100
G0 X95.7 Y121.5 F1200
M106 S0
G4 P20
G1 X94.4 Y121.5 F240
M106 S255
G4 P100
G0 X93.9 Y121.5 F1200
M106 S0
G4 P20
G1 X86.0 Y121.5 F240
M106 S255
G4 P100
G0 X86.2 Y121.6 F1200
M106 S0
G4 P20
G1 X93.9 Y121.6 F240
M106 S255
G4 P100
G0 X94.4 Y121.6 F1200
M106 S0
G4 P20
G1 X95.7 Y121.6 F240
M106 S255
G4 P100
G0 X96.2 Y121.6 F1200
M106 S0
G4 P20
G1 X104.0 Y121.6 F240
M106 S255
G4 P100
G0 X103.8 Y121.7 F1200
M106 S0
G4 P20
G1 X96.2 Y121.7 F240
M106 S255
G4 P100
G0 X95.7 Y121.7 F1200
M106 S0
G4 P20
G1 X94.4 Y121.7 F240
M106 S255
G4 P100
G0 X93.9 Y121.7 F1200
M106 S0
G4 P20
G1 X86.4 Y121.7 F240
M106 S255
G4 P100
G0 X86.6 Y121.8 F1200
M106 S0
G4 P20
G1 X94.0 Y121.8 F240
M106 S255
G4 P100
G0 X94.5 Y121.8 F1200
M106 S0
G4 P20
G1 X95.6 Y121.8 F240
M106 S255
G4 P100
G0 X96.2 Y121.8 F1200
M106 S0
G4 P20
G1 X103.7 Y121.8 F240
M106 S255
G4 P100
G0 X103.4 Y121.9 F1200
M106 S0
G4 P20
G1 X96.2 Y121.9 F240
M106 S255
G4 P100
G0 X95.6 Y121.9 F1200
M106 S0
G4 P20
G1 X94.5 Y121.9 F240
M106 S255
G4 P100
G0 X94.0 Y121.9 F1200
M106 S0
G4 P20
G1 X86.8 Y121.9 F240
M106 S255
G4 P100
G0 X86.9 Y122.0 F1200
M106 S0
G4 P20
G1 X94.0 Y122.0 F240
M106 S255
G4 P100
G0 X94.5 Y122.0 F1200
M106 S0
G4 P20
G1 X95.6 Y122.0 F240
M106 S255
G4 P100
G0 X96.2 Y122.0 F1200
M106 S0
G4 P20
G1 X103.2 Y122.0 F240
M106 S255
G4 P100
G0 X102.9 Y122.1 F1200
M106 S0
G4 P20
G1 X96.2 Y122.1 F240
M106 S255
G4 P100
G0 X95.6 Y122.1 F1200
M106 S0
G4 P20
G1 X94.5 Y122.1 F240
M106 S255
G4 P100
G0 X94.0 Y122.1 F1200
M106 S0
G4 P20
G1 X87.2 Y122.1 F240
M106 S255
G4 P100
G0 X87.5 Y122.2 F1200
M106 S0
G4 P20
G1 X94.0 Y122.2 F240
M106 S255
G4 P100
G0 X94.6 Y122.2 F1200
M106 S0
G4 P20
G1 X95.6 Y122.2 F240
M106 S255
G4 P100
G0 X96.1 Y122.2 F1200
M106 S0
G4 P20
G1 X102.6 Y122.2 F240
M106 S255
G4 P100
G0 X102.4 Y122.3 F1200
M106 S0
G4 P20
G1 X96.1 Y122.3 F240
M106 S255
G4 P100
G0 X95.6 Y122.3 F1200
M106 S0
G4 P20
G1 X94.6 Y122.3 F240
M106 S255
G4 P100
G0 X94.0 Y122.3 F1200
M106 S0
G4 P20
G1 X87.7 Y122.3 F240
M106 S255
G4 P100
G0 X88.1 Y122.4 F1200
M106 S0
G4 P20
G1 X94.0 Y122.4 F240
M106 S255
G4 P100
G0 X94.6 Y122.4 F1200
M106 S0
G4 P20
G1 X95.6 Y122.4 F240
M106 S255
G4 P100
G0 X96.1 Y122.4 F1200
M106 S0
G4 P20
G1 X101.8 Y122.4 F240
M106 S255
G4 P100
G0 X101.3 Y122.5 F1200
M106 S0
G4 P20
G1 X96.0 Y122.5 F240
M106 S255
G4 P100
G0 X95.5 Y122.5 F1200
M106 S0
G4 P20
G1 X94.6 Y122.5 F240
M106 S255
G4 P100
G0 X94.0 Y122.5 F1200
M106 S0
G4 P20
G1 X88.4 Y122.5 F240
M106 S255
G4 P100
G0 X88.8 Y122.6 F1200
M106 S0
G4 P20
G1 X94.1 Y122.6 F240
M106 S255
G4 P100
G0 X94.6 Y122.6 F1200
M106 S0
G4 P20
G1 X95.5 Y122.6 F240
M106 S255
G4 P100
G0 X96.0 Y122.6 F1200
M106 S0
G4 P20
G1 X100.4 Y122.6 F240
M106 S255
G4 P100
G0 X100.1 Y122.7 F1200
M106 S0
G4 P20
G1 X96.0 Y122.7 F240
M106 S255
G4 P100
G0 X95.5 Y122.7 F1200
M106 S0
G4 P20
G1 X94.6 Y122.7 F240
M106 S255
G4 P100
G0 X94.1 Y122.7 F1200
M106 S0
G4 P20
G1 X90.3 Y122.7 F240
M106 S255
G4 P100
G0 X90.8 Y122.8 F1200
M106 S0
G4 P20
G1 X94.1 Y122.8 F240
M106 S255
G4 P100
G0 X94.6 Y122.8 F1200
M106 S0
G4 P20
G1 X95.5 Y122.8 F240
M106 S255
G4 P100
G0 X96.0 Y122.8 F1200
M106 S0
G4 P20
G1 X100.1 Y122.8 F240
M106 S255
G4 P100
G0 X100.6 Y122.9 F1200
M106 S0
G4 P20
G1 X96.0 Y122.9 F240
M106 S255
G4 P100
G0 X95.5 Y122.9 F1200
M106 S0
G4 P20
G1 X94.6 Y122.9 F240
M106 S255
G4 P100
G0 X94.1 Y122.9 F1200
M106 S0
G4 P20
G1 X90.4 Y122.9 F240
M106 S255
G4 P100
G0 X90.1 Y123.0 F1200
M106 S0
G4 P20
G1 X94.1 Y123.0 F240
M106 S255
G4 P100
G0 X94.6 Y123.0 F1200
M106 S0
G4 P20
G1 X95.5 Y123.0 F240
M106 S255
G4 P100
G0 X96.0 Y123.0 F1200
M106 S0
G4 P20
G1 X101.7 Y123.0 F240
M106 S255
G4 P100
G0 X102.4 Y123.1 F1200
M106 S0
G4 P20
G1 X96.0 Y123.1 F240
M106 S255
G4 P100
G0 X95.5 Y123.1 F1200
M106 S0
G4 P20
G1 X94.6 Y123.1 F240
M106 S255
G4 P100
G0 X94.0 Y123.1 F1200
M106 S0
G4 P20
G1 X89.7 Y123.1 F240
M106 S255
G4 P100
G0 X88.3 Y123.2 F1200
M106 S0
G4 P20
G1 X94.0 Y123.2 F240
M106 S255
G4 P100
G0 X94.6 Y123.2 F1200
M106 S0
G4 P20
G1 X95.5 Y123.2 F240
M106 S255
G4 P100
G0 X96.0 Y123.2 F1200
M106 S0
G4 P20
G1 X103.2 Y123.2 F240
M106 S255
G4 P100
G0 X103.6 Y123.3 F1200
M106 S0
G4 P20
G1 X96.1 Y123.3 F240
M106 S255
G4 P100
G0 X95.5 Y123.3 F1200
M106 S0
G4 P20
G1 X94.6 Y123.3 F240
M106 S255
G4 P100
G0 X94.0 Y123.3 F1200
M106 S0
G4 P20
G1 X87.7 Y123.3 F240
M106 S255
G4 P100
G0 X87.2 Y123.4 F1200
M106 S0
G4 P20
G1 X94.0 Y123.4 F240
M106 S255
G4 P100
G0 X94.5 Y123.4 F1200
M106 S0
G4 P20
G1 X95.6 Y123.4 F240
M106 S255
G4 P100
G0 X96.1 Y123.4 F1200
M106 S0
G4 P20
G1 X103.9 Y123.4 F240
M106 S255
G4 P100
G0 X104.2 Y123.5 F1200
M106 S0
G4 P20
G1 X96.2 Y123.5 F240
M106 S255
G4 P100
G0 X95.6 Y123.5 F1200
M106 S0
G4 P20
G1 X94.4 Y123.5 F240
M106 S255
G4 P100
G0 X93.9 Y123.5 F1200
M106 S0
G4 P20
G1 X86.7 Y123.5 F240
M106 S255
G4 P100
G0 X86.6 Y123.6 F1200
M106 S0
G4 P20
G1 X93.9 Y123.6 F240
M106 S255
G4 P100
G0 X94.4 Y123.6 F1200
M106 S0
G4 P20
G1 X95.6 Y123.6 F240
M106 S255
G4 P100
G0 X96.2 Y123.6 F1200
M106 S0
G4 P20
G1 X104.4 Y123.6 F240
M106 S255
G4 P100
G0 X104.6 Y123.7 F1200
M106 S0
G4 P20
G1 X96.2 Y123.7 F240
M106 S255
G4 P100
G0 X95.7 Y123.7 F1200
M106 S0
G4 P20
G1 X94.4 Y123.7 F240
M106 S255
G4 P100
G0 X93.8 Y123.7 F1200
M106 S0
G4 P20
G1 X86.2 Y123.7 F240
M106 S255
G4 P100
G0 X86.0 Y123.8 F1200
M106 S0
G4 P20
G1 X93.8 Y123.8 F240
M106 S255
G4 P100
G0 X94.4 Y123.8 F1200
M106 S0
G4 P20
G1 X95.7 Y123.8 F240
M106 S255
G4 P100
G0 X96.2 Y123.8 F1200
M106 S0
G4 P20
G1 X104.8 Y123.8 F240
M106 S255
G4 P100
G0 X105.0 Y123.9 F1200
M106 S0
G4 P20
G1 X96.3 Y123.9 F240
M106 S255
G4 P100
G0 X95.8 Y123.9 F1200
M106 S0
G4 P20
G1 X94.3 Y123.9 F240
M106 S255
G4 P100
G0 X93.8 Y123.9 F1200
M106 S0
G4 P20
G1 X85.8 Y123.9 F240
M106 S255
G4 P100
G0 X85.6 Y124.0 F1200
M106 S0
G4 P20
G1 X93.7 Y124.0 F240
M106 S255
G4 P100
G0 X94.3 Y124.0 F1200
M106 S0
G4 P20
G1 X95.8 Y124.0 F240
M106 S255
G4 P100
G0 X96.3 Y124.0 F1200
M106 S0
G4 P20
G1 X105.2 Y124.0 F240
M106 S255
G4 P100
G0 X105.4 Y124.1 F1200
M106 S0
G4 P20
G1 X96.3 Y124.1 F240
M106 S255
G4 P100
G0 X95.8 Y124.1 F1200
M106 S0
G4 P20
G1 X94.3 Y124.1 F240
M106 S255
G4 P100
G0 X93.7 Y124.1 F1200
M106 S0
G4 P20
G1 X85.4 Y124.1 F240
M106 S255
G4 P100
G0 X85.2 Y124.2 F1200
M106 S0
G4 P20
G1 X93.7 Y124.2 F240
M106 S255
G4 P100
G0 X94.3 Y124.2 F1200
M106 S0
G4 P20
G1 X95.8 Y124.2 F240
M106 S255
G4 P100
G0 X96.4 Y124.2 F1200
M106 S0
G4 P20
G1 X105.6 Y124.2 F240
M106 S255
G4 P100
G0 X105.8 Y124.3 F1200
M106 S0
G4 P20
G1 X96.4 Y124.3 F240
M106 S255
G4 P100
G0 X95.8 Y124.3 F1200
M106 S0
G4 P20
G1 X94.2 Y124.3 F240
M106 S255
G4 P100
G0 X93.7 Y124.3 F1200
M106 S0
G4 P20
G1 X85.0 Y124.3 F240
M106 S255
G4 P100
G0 X84.9 Y124.4 F1200
M106 S0
G4 P20
G1 X93.7 Y124.4 F240
M106 S255
G4 P100
G0 X94.2 Y124.4 F1200
M106 S0
G4 P20
G1 X95.8 Y124.4 F240
M106 S255
G4 P100
G0 X96.4 Y124.4 F1200
M106 S0
G4 P20
G1 X105.9 Y124.4 F240
M106 S255
G4 P100
G0 X106.0 Y124.5 F1200
M106 S0
G4 P20
G1 X96.4 Y124.5 F240
M106 S255
G4 P100
G0 X95.9 Y124.5 F1200
M106 S0
G4 P20
G1 X94.1 Y124.5 F240
M106 S255
G4 P100
G0 X93.7 Y124.5 F1200
M106 S0
G4 P20
G1 X84.7 Y124.5 F240
M106 S255
G4 P100
G0 X84.6 Y124.6 F1200
M106 S0
G4 P20
G1 X93.6 Y124.6 F240
M106 S255
G4 P100
G0 X94.1 Y124.6 F1200
M106 S0
G4 P20
G1 X95.9 Y124.6 F240
M106 S255
G4 P100
G0 X96.4 Y124.6 F1200
M106 S0
G4 P20
G1 X106.1 Y124.6 F240
M106 S255
G4 P100
G0 X106.3 Y124.7 F1200
M106 S0
G4 P20
G1 X96.5 Y124.7 F240
M106 S255
G4 P100
G0 X95.9 Y124.7 F1200
M106 S0
G4 P20
G1 X94.1 Y124.7 F240
M106 S255
G4 P100
G0 X93.6 Y124.7 F1200
M106 S0
G4 P20
G1 X84.5 Y124.7 F240
M106 S255
G4 P100
G0 X84.3 Y124.8 F1200
M106 S0
G4 P20
G1 X93.6 Y124.8 F240
M106 S255
G4 P100
G0 X94.1 Y124.8 F1200
M106 S0
G4 P20
G1 X95.9 Y124.8 F240
M106 S255
G4 P100
G0 X96.5 Y124.8 F1200
M106 S0
G4 P20
G1 X106.4 Y124.8 F240
M106 S255
G4 P100
G0 X106.5 Y124.9 F1200
M106 S0
G4 P20
G1 X96.5 Y124.9 F240
M106 S255
G4 P100
G0 X95.9 Y124.9 F1200
M106 S0
G4 P20
G1 X94.1 Y124.9 F240
M106 S255
G4 P100
G0 X93.6 Y124.9 F1200
M106 S0
G4 P20
G1 X84.2 Y124.9 F240
M106 S255
G4 P100
G0 X84.1 Y125.0 F1200
M106 S0
G4 P20
G1 X93.5 Y125.0 F240
M106 S255
G4 P100
G0 X94.1 Y125.0 F1200
M106 S0
G4 P20
G1 X95.9 Y125.0 F240
M106 S255
G4 P100
G0 X96.5 Y125.0 F1200
M106 S0
G4 P20
G1 X106.6 Y125.0 F240
M106 S255
G4 P100
G0 X106.7 Y125.1 F1200
M106 S0
G4 P20
G1 X96.5 Y125.1 F240
M106 S255
G4 P100
G0 X96.0 Y125.1 F1200
M106 S0
G4 P20
G1 X94.1 Y125.1 F240
M106 S255
G4 P100
G0 X93.5 Y125.1 F1200
M106 S0
G4 P20
G1 X83.9 Y125.1 F240
M106 S255
G4 P100
G0 X83.8 Y125.2 F1200
M106 S0
G4 P20
G1 X93.5 Y125.2 F240
M106 S255
G4 P100
G0 X94.1 Y125.2 F1200
M106 S0
G4 P20
G1 X96.0 Y125.2 F240
M106 S255
G4 P100
G0 X96.5 Y125.2 F1200
M106 S0
G4 P20
G1 X106.8 Y125.2 F240
M106 S255
G4 P100
G0 X106.9 Y125.3 F1200
M106 S0
G4 P20
G1 X96.5 Y125.3 F240
M106 S255
G4 P100
G0 X96.0 Y125.3 F1200
M106 S0
G4 P20
G1 X94.1 Y125.3 F240
M106 S255
G4 P100
G0 X93.5 Y125.3 F1200
M106 S0
G4 P20
G1 X83.7 Y125.3 F240
M106 S255
G4 P100
G0 X83.6 Y125.4 F1200
M106 S0
G4 P20
G1 X93.5 Y125.4 F240
M106 S255
G4 P100
G0 X94.1 Y125.4 F1200
M106 S0
G4 P20
G1 X95.9 Y125.4 F240
M106 S255
G4 P100
G0 X96.5 Y125.4 F1200
M106 S0
G4 P20
G1 X107.0 Y125.4 F240
M106 S255
G4 P100
G0 X107.1 Y125.5 F1200
M106 S0
G4 P20
G1 X96.5 Y125.5 F240
M106 S255
G4 P100
G0 X95.9 Y125.5 F1200
M106 S0
G4 P20
G1 X94.1 Y125.5 F240
M106 S255
G4 P100
G0 X93.5 Y125.5 F1200
M106 S0
G4 P20
G1 X83.5 Y125.5 F240
M106 S255
G4 P100
G0 X83.5 Y125.6 F1200
M106 S0
G4 P20
G1 X93.5 Y125.6 F240
M106 S255
G4 P100
G0 X94.1 Y125.6 F1200
M106 S0
G4 P20
G1 X95.9 Y125.6 F240
M106 S255
G4 P100
G0 X96.5 Y125.6 F1200
M106 S0
G4 P20
G1 X107.2 Y125.6 F240
M106 S255
G4 P100
G0 X107.2 Y125.7 F1200
M106 S0
G4 P20
G1 X96.5 Y125.7 F240
M106 S255
G4 P100
G0 X95.9 Y125.7 F1200
M106 S0
G4 P20
G1 X94.1 Y125.7 F240
M106 S255
G4 P100
G0 X93.6 Y125.7 F1200
M106 S0
G4 P20
G1 X83.4 Y125.7 F240
M106 S255
G4 P100
G0 X83.3 Y125.8 F1200
M106 S0
G4 P20
G1 X93.6 Y125.8 F240
M106 S255
G4 P100
G0 X94.1 Y125.8 F1200
M106 S0
G4 P20
G1 X95.9 Y125.8 F240
M106 S255
G4 P100
G0 X96.5 Y125.8 F1200
M106 S0
G4 P20
G1 X107.3 Y125.8 F240
M106 S255
G4 P100
G0 X107.4 Y125.9 F1200
M106 S0
G4 P20
G1 X96.5 Y125.9 F240
M106 S255
G4 P100
G0 X95.9 Y125.9 F1200
M106 S0
G4 P20
G1 X94.1 Y125.9 F240
M106 S255
G4 P100
G0 X93.6 Y125.9 F1200
M106 S0
G4 P20
G1 X83.2 Y125.9 F240
M106 S255
G4 P100
G0 X83.2 Y126.0 F1200
M106 S0
G4 P20
G1 X93.6 Y126.0 F240
M106 S255
G4 P100
G0 X94.1 Y126.0 F1200
M106 S0
G4 P20
G1 X95.9 Y126.0 F240
M106 S255
G4 P100
G0 X96.5 Y126.0 F1200
M106 S0
G4 P20
G1 X107.5 Y126.0 F240
M106 S255
G4 P100
G0 X107.5 Y126.1 F1200
M106 S0
G4 P20
G1 X96.5 Y126.1 F240
M106 S255
G4 P100
G0 X95.9 Y126.1 F1200
M106 S0
G4 P20
G1 X94.1 Y126.1 F240
M106 S255
G4 P100
G0 X93.6 Y126.1 F1200
M106 S0
G4 P20
G1 X83.1 Y126.1 F240
M106 S255
G4 P100
G0 X83.0 Y126.2 F1200
M106 S0
G4 P20
G1 X88.3 Y126.2 F240
M106 S255
G4 P100
G0 X88.7 Y126.2 F1200
M106 S0
G4 P20
G1 X93.6 Y126.2 F240
M106 S255
G4 P100
G0 X94.1 Y126.2 F1200
M106 S0
G4 P20
G1 X95.8 Y126.2 F240
M106 S255
G4 P100
G0 X96.5 Y126.2 F1200
M106 S0
G4 P20
G1 X102.0 Y126.2 F240
M106 S255
G4 P100
G0 X102.6 Y126.2 F1200
M106 S0
G4 P20
G1 X107.5 Y126.2 F240
M106 S255
G4 P100
G0 X107.6 Y126.3 F1200
M106 S0
G4 P20
G1 X102.5 Y126.3 F240
M106 S255
G4 P100
G0 X102.3 Y126.3 F1200
M106 S0
G4 P20
G1 X96.5 Y126.3 F240
M106 S255
G4 P100
G0 X95.8 Y126.3 F1200
M106 S0
G4 P20
G1 X94.1 Y126.3 F240
M106 S255
G4 P100
G0 X93.7 Y126.3 F1200
M106 S0
G4 P20
G1 X83.0 Y126.3 F240
M106 S255
G4 P100
G0 X82.9 Y126.4 F1200
M106 S0
G4 P20
G1 X88.0 Y126.4 F240
M106 S255
G4 P100
G0 X88.2 Y126.4 F1200
M106 S0
G4 P20
G1 X93.7 Y126.4 F240
M106 S255
G4 P100
G0 X94.2 Y126.4 F1200
M106 S0
G4 P20
G1 X95.8 Y126.4 F240
M106 S255
G4 P100
G0 X96.5 Y126.4 F1200
M106 S0
G4 P20
G1 X102.6 Y126.4 F240
M106 S255
G4 P100
G0 X103.0 Y126.4 F1200
M106 S0
G4 P20
G1 X107.7 Y126.4 F240
M106 S255
G4 P100
G0 X107.7 Y126.5 F1200
M106 S0
G4 P20
G1 X103.3 Y126.5 F240
M106 S255
G4 P100
G0 X102.6 Y126.5 F1200
M106 S0
G4 P20
G1 X96.5 Y126.5 F240
M106 S255
G4 P100
G0 X95.8 Y126.5 F1200
M106 S0
G4 P20
G1 X94.2 Y126.5 F240
M106 S255
G4 P100
G0 X93.7 Y126.5 F1200
M106 S0
G4 P20
G1 X88.2 Y126.5 F240
M106 S255
G4 P100
G0 X87.6 Y126.5 F1200
M106 S0
G4 P20
G1 X82.9 Y126.5 F240
M106 S255
G4 P100
G0 X82.8 Y126.6 F1200
M106 S0
G4 P20
G1 X87.5 Y126.6 F240
M106 S255
G4 P100
G0 X87.9 Y126.6 F1200
M106 S0
G4 P20
G1 X93.7 Y126.6 F240
M106 S255
G4 P100
G0 X94.2 Y126.6 F1200
M106 S0
G4 P20
G1 X95.8 Y126.6 F240
M106 S255
G4 P100
G0 X96.6 Y126.6 F1200
M106 S0
G4 P20
G1 X102.8 Y126.6 F240
M106 S255
G4 P100
G0 X103.4 Y126.6 F1200
M106 S0
G4 P20
G1 X107.8 Y126.6 F240
M106 S255
G4 P100
G0 X107.8 Y126.7 F1200
M106 S0
G4 P20
G1 X103.9 Y126.7 F240
M106 S255
G4 P100
G0 X103.0 Y126.7 F1200
M106 S0
G4 P20
G1 X96.6 Y126.7 F240
M106 S255
G4 P100
G0 X95.8 Y126.7 F1200
M106 S0
G4 P20
G1 X94.3 Y126.7 F240
M106 S255
G4 P100
G0 X93.7 Y126.7 F1200
M106 S0
G4 P20
G1 X87.8 Y126.7 F240
M106 S255
G4 P100
G0 X87.1 Y126.7 F1200
M106 S0
G4 P20
G1 X82.8 Y126.7 F240
M106 S255
G4 P100
G0 X82.7 Y126.8 F1200
M106 S0
G4 P20
G1 X86.9 Y126.8 F240
M106 S255
G4 P100
G0 X87.6 Y126.8 F1200
M106 S0
G4 P20
G1 X93.7 Y126.8 F240
M106 S255
G4 P100
G0 X94.3 Y126.8 F1200
M106 S0
G4 P20
G1 X95.8 Y126.8 F240
M106 S255
G4 P100
G0 X96.6 Y126.8 F1200
M106 S0
G4 P20
G1 X103.2 Y126.8 F240
M106 S255
G4 P100
G0 X104.0 Y126.8 F1200
M106 S0
G4 P20
G1 X107.8 Y126.8 F240
M106 S255
G4 P100
G0 X107.8 Y126.9 F1200
M106 S0
G4 P20
G1 X104.5 Y126.9 F240
M106 S255
G4 P100
G0 X103.5 Y126.9 F1200
M106 S0
G4 P20
G1 X96.7 Y126.9 F240
M106 S255
G4 P100
G0 X95.7 Y126.9 F1200
M106 S0
G4 P20
G1 X94.3 Y126.9 F240
M106 S255
G4 P100
G0 X93.7 Y126.9 F1200
M106 S0
G4 P20
G1 X87.3 Y126.9 F240
M106 S255
G4 P100
G0 X86.5 Y126.9 F1200
M106 S0
G4 P20
G1 X82.7 Y126.9 F240
M106 S255
G4 P100
G0 X82.7 Y127.0 F1200
M106 S0
G4 P20
G1 X86.2 Y127.0 F240
M106 S255
G4 P100
G0 X87.2 Y127.0 F1200
M106 S0
G4 P20
G1 X93.8 Y127.0 F240
M106 S255
G4 P100
G0 X94.3 Y127.0 F1200
M106 S0
G4 P20
G1 X95.7 Y127.0 F240
M106 S255
G4 P100
G0 X96.7 Y127.0 F1200
M106 S0
G4 P20
G1 X103.7 Y127.0 F240
M106 S255
G4 P100
G0 X104.8 Y127.0 F1200
M106 S0
G4 P20
G1 X107.9 Y127.0 F240
M106 S255
G4 P100
G0 X107.9 Y127.1 F1200
M106 S0
G4 P20
G1 X105.0 Y127.1 F240
M106 S255
G4 P100
G0 X103.8 Y127.1 F1200
M106 S0
G4 P20
G1 X96.7 Y127.1 F240
M106 S255
G4 P100
G0 X95.6 Y127.1 F1200
M106 S0
G4 P20
G1 X94.4 Y127.1 F240
M106 S255
G4 P100
G0 X93.8 Y127.1 F1200
M106 S0
G4 P20
G1 X87.1 Y127.1 F240
M106 S255
G4 P100
G0 X86.0 Y127.1 F1200
M106 S0
G4 P20
G1 X82.6 Y127.1 F240
M106 S255
G4 P100
G0 X82.6 Y127.2 F1200
M106 S0
G4 P20
G1 X85.4 Y127.2 F240
M106 S255
G4 P100
G0 X86.7 Y127.2 F1200
M106 S0
G4 P20
G1 X93.8 Y127.2 F240
M106 S255
G4 P100
G0 X94.4 Y127.2 F1200
M106 S0
G4 P20
G1 X95.6 Y127.2 F240
M106 S255
G4 P100
G0 X96.7 Y127.2 F1200
M106 S0
G4 P20
G1 X104.2 Y127.2 F240
M106 S255
G4 P100
G0 X105.8 Y127.2 F1200
M106 S0
G4 P20
G1 X108.0 Y127.2 F240
M106 S255
G4 P100
G0 X108.0 Y127.3 F1200
M106 S0
G4 P20
G1 X106.1 Y127.3 F240
M106 S255
G4 P100
G0 X104.4 Y127.3 F1200
M106 S0
G4 P20
G1 X96.8 Y127.3 F240
M106 S255
G4 P100
G0 X95.6 Y127.3 F1200
M106 S0
G4 P20
G1 X94.4 Y127.3 F240
M106 S255
G4 P100
G0 X93.8 Y127.3 F1200
M106 S0
G4 P20
G1 X86.5 Y127.3 F240
M106 S255
G4 P100
G0 X85.2 Y127.3 F1200
M106 S0
G4 P20
G1 X82.6 Y127.3 F240
M106 S255
G4 P100
G0 X82.6 Y127.4 F1200
M106 S0
G4 P20
G1 X84.7 Y127.4 F240
M106 S255
G4 P100
G0 X86.2 Y127.4 F1200
M106 S0
G4 P20
G1 X93.7 Y127.4 F240
M106 S255
G4 P100
G0 X94.5 Y127.4 F1200
M106 S0
G4 P20
G1 X95.5 Y127.4 F240
M106 S255
G4 P100
G0 X96.8 Y127.4 F1200
M106 S0
G4 P20
G1 X104.7 Y127.4 F240
M106 S255
G4 P100
G0 X107.1 Y127.4 F1200
M106 S0
G4 P20
G1 X107.8 Y127.4 F240
M106 S255
G4 P100
G0 X105.0 Y127.5 F1200
M106 S0
G4 P20
G1 X96.8 Y127.5 F240
M106 S255
G4 P100
G0 X95.5 Y127.5 F1200
M106 S0
G4 P20
G1 X94.6 Y127.5 F240
M106 S255
G4 P100
G0 X93.7 Y127.5 F1200
M106 S0
G4 P20
G1 X85.9 Y127.5 F240
M106 S255
G4 P100
G0 X83.9 Y127.5 F1200
M106 S0
G4 P20
G1 X82.7 Y127.5 F240
M106 S255
G4 P100
G0 X82.8 Y127.6 F1200
M106 S0
G4 P20
G1 X83.3 Y127.6 F240
M106 S255
G4 P100
G0 X85.7 Y127.6 F1200
M106 S0
G4 P20
G1 X93.7 Y127.6 F240
M106 S255
G4 P100
G0 X94.6 Y127.6 F1200
M106 S0
G4 P20
G1 X95.4 Y127.6 F240
M106 S255
G4 P100
G0 X96.9 Y127.6 F1200
M106 S0
G4 P20
G1 X105.2 Y127.6 F240
M106 S255
G4 P100
G0 X105.7 Y127.7 F1200
M106 S0
G4 P20
G1 X96.9 Y127.7 F240
M106 S255
G4 P100
G0 X95.4 Y127.7 F1200
M106 S0
G4 P20
G1 X94.6 Y127.7 F240
M106 S255
G4 P100
G0 X93.7 Y127.7 F1200
M106 S0
G4 P20
G1 X85.3 Y127.7 F240
M106 S255
G4 P100
G0 X85.1 Y127.8 F1200
M106 S0
G4 P20
G1 X93.6 Y127.8 F240
M106 S255
G4 P100
G0 X94.7 Y127.8 F1200
M106 S0
G4 P20
G1 X95.3 Y127.8 F240
M106 S255
G4 P100
G0 X97.0 Y127.8 F1200
M106 S0
G4 P20
G1 X106.0 Y127.8 F240
M106 S255
G4 P100
G0 X106.2 Y127.9 F1200
M106 S0
G4 P20
G1 X97.0 Y127.9 F240
M106 S255
G4 P100
G0 X95.3 Y127.9 F1200
M106 S0
G4 P20
G1 X94.7 Y127.9 F240
M106 S255
G4 P100
G0 X93.6 Y127.9 F1200
M106 S0
G4 P20
G1 X84.8 Y127.9 F240
M106 S255
G4 P100
G0 X84.4 Y128.0 F1200
M106 S0
G4 P20
G1 X93.5 Y128.0 F240
M106 S255
G4 P100
G0 X94.7 Y128.0 F1200
M106 S0
G4 P20
G1 X95.3 Y128.0 F240
M106 S255
G4 P100
G0 X97.0 Y128.0 F1200
M106 S0
G4 P20
G1 X106.7 Y128.0 F240
M106 S255
G4 P100
G0 X107.0 Y128.1 F1200
M106 S0
G4 P20
G1 X97.0 Y128.1 F240
M106 S255
G4 P100
G0 X95.3 Y128.1 F1200
M106 S0
G4 P20
G1 X94.7 Y128.1 F240
M106 S255
G4 P100
G0 X93.5 Y128.1 F1200
M106 S0
G4 P20
G1 X84.1 Y128.1 F240
M106 S255
G4 P100
G0 X83.7 Y128.2 F1200
M106 S0
G4 P20
G1 X93.5 Y128.2 F240
M106 S255
G4 P100
G0 X94.6 Y128.2 F1200
M106 S0
G4 P20
G1 X95.3 Y128.2 F240
M106 S255
G4 P100
G0 X97.1 Y128.2 F1200
M106 S0
G4 P20
G1 X107.3 Y128.2 F240
M106 S255
G4 P100
G0 X107.8 Y128.3 F1200
M106 S0
G4 P20
G1 X97.1 Y128.3 F240
M106 S255
G4 P100
G0 X95.4 Y128.3 F1200
M106 S0
G4 P20
G1 X94.6 Y128.3 F240
M106 S255
G4 P100
G0 X93.5 Y128.3 F1200
M106 S0
G4 P20
G1 X83.3 Y128.3 F240
M106 S255
G4 P100
G0 X83.1 Y128.4 F1200
M106 S0
G4 P20
G1 X93.4 Y128.4 F240
M106 S255
G4 P100
G0 X94.6 Y128.4 F1200
M106 S0
G4 P20
G1 X95.5 Y128.4 F240
M106 S255
G4 P100
G0 X97.2 Y128.4 F1200
M106 S0
G4 P20
G1 X108.0 Y128.4 F240
M106 S255
G4 P100
G0 X108.4 Y128.5 F1200
M106 S0
G4 P20
G1 X97.2 Y128.5 F240
M106 S255
G4 P100
G0 X95.5 Y128.5 F1200
M106 S0
G4 P20
G1 X94.5 Y128.5 F240
M106 S255
G4 P100
G0 X93.4 Y128.5 F1200
M106 S0
G4 P20
G1 X82.6 Y128.5 F240
M106 S255
G4 P100
G0 X82.3 Y128.6 F1200
M106 S0
G4 P20
G1 X93.4 Y128.6 F240
M106 S255
G4 P100
G0 X94.4 Y128.6 F1200
M106 S0
G4 P20
G1 X95.5 Y128.6 F240
M106 S255
G4 P100
G0 X97.2 Y128.6 F1200
M106 S0
G4 P20
G1 X108.7 Y128.6 F240
M106 S255
G4 P100
G0 X109.0 Y128.7 F1200
M106 S0
G4 P20
G1 X97.3 Y128.7 F240
M106 S255
G4 P100
G0 X95.6 Y128.7 F1200
M106 S0
G4 P20
G1 X94.4 Y128.7 F240
M106 S255
G4 P100
G0 X93.3 Y128.7 F1200
M106 S0
G4 P20
G1 X82.0 Y128.7 F240
M106 S255
G4 P100
G0 X81.6 Y128.8 F1200
M106 S0
G4 P20
G1 X93.3 Y128.8 F240
M106 S255
G4 P100
G0 X94.4 Y128.8 F1200
M106 S0
G4 P20
G1 X95.6 Y128.8 F240
M106 S255
G4 P100
G0 X97.3 Y128.8 F1200
M106 S0
G4 P20
G1 X109.3 Y128.8 F240
M106 S255
G4 P100
G0 X109.6 Y128.9 F1200
M106 S0
G4 P20
G1 X97.3 Y128.9 F240
M106 S255
G4 P100
G0 X95.6 Y128.9 F1200
M106 S0
G4 P20
G1 X94.4 Y128.9 F240
M106 S255
G4 P100
G0 X93.2 Y128.9 F1200
M106 S0
G4 P20
G1 X81.4 Y128.9 F240
M106 S255
G4 P100
G0 X81.1 Y129.0 F1200
M106 S0
G4 P20
G1 X93.2 Y129.0 F240
M106 S255
G4 P100
G0 X94.4 Y129.0 F1200
M106 S0
G4 P20
G1 X95.5 Y129.0 F240
M106 S255
G4 P100
G0 X97.4 Y129.0 F1200
M106 S0
G4 P20
G1 X109.8 Y129.0 F240
M106 S255
G4 P100
G0 X110.1 Y129.1 F1200
M106 S0
G4 P20
G1 X97.4 Y129.1 F240
M106 S255
G4 P100
G0 X95.5 Y129.1 F1200
M106 S0
G4 P20
G1 X94.5 Y129.1 F240
M106 S255
G4 P100
G0 X93.2 Y129.1 F1200
M106 S0
G4 P20
G1 X80.8 Y129.1 F240
M106 S255
G4 P100
G0 X80.6 Y129.2 F1200
M106 S0
G4 P20
G1 X93.1 Y129.2 F240
M106 S255
G4 P100
G0 X94.5 Y129.2 F1200
M106 S0
G4 P20
G1 X95.5 Y129.2 F240
M106 S255
G4 P100
G0 X97.5 Y129.2 F1200
M106 S0
G4 P20
G1 X110.2 Y129.2 F240
M106 S255
G4 P100
G0 X110.5 Y129.3 F1200
M106 S0
G4 P20
G1 X97.5 Y129.3 F240
M106 S255
G4 P100
G0 X95.4 Y129.3 F1200
M106 S0
G4 P20
G1 X94.6 Y129.3 F240
M106 S255
G4 P100
G0 X93.1 Y129.3 F1200
M106 S0
G4 P20
G1 X80.3 Y129.3 F240
M106 S255
G4 P100
G0 X80.2 Y129.4 F1200
M106 S0
G4 P20
G1 X93.0 Y129.4 F240
M106 S255
G4 P100
G0 X94.6 Y129.4 F1200
M106 S0
G4 P20
G1 X95.3 Y129.4 F240
M106 S255
G4 P100
G0 X97.5 Y129.4 F1200
M106 S0
G4 P20
G1 X99.9 Y129.4 F240
M106 S255
G4 P100
G0 X100.1 Y129.4 F1200
M106 S0
G4 P20
G1 X110.7 Y129.4 F240
M106 S255
G4 P100
G0 X110.9 Y129.5 F1200
M106 S0
G4 P20
G1 X97.5 Y129.5 F240
M106 S255
G4 P100
G0 X95.3 Y129.5 F1200
M106 S0
G4 P20
G1 X94.7 Y129.5 F240
M106 S255
G4 P100
G0 X93.0 Y129.5 F1200
M106 S0
G4 P20
G1 X80.0 Y129.5 F240
M106 S255
G4 P100
G0 X79.7 Y129.6 F1200
M106 S0
G4 P20
G1 X92.9 Y129.6 F240
M106 S255
G4 P100
G0 X94.8 Y129.6 F1200
M106 S0
G4 P20
G1 X95.2 Y129.6 F240
M106 S255
G4 P100
G0 X97.6 Y129.6 F1200
M106 S0
G4 P20
G1 X111.1 Y129.6 F240
M106 S255
G4 P100
G0 X111.2 Y129.7 F1200
M106 S0
G4 P20
G1 X97.6 Y129.7 F240
M106 S255
G4 P100
G0 X95.0 Y129.7 F1200
M106 S0
G4 P20
G1 X95.0 Y129.7 F240
M106 S255
G4 P100
G0 X92.9 Y129.7 F1200
M106 S0
G4 P20
G1 X79.6 Y129.7 F240
M106 S255
G4 P100
G0 X79.4 Y129.8 F1200
M106 S0
G4 P20
G1 X92.9 Y129.8 F240
M106 S255
G4 P100
G0 X97.7 Y129.8 F1200
M106 S0
G4 P20
G1 X111.4 Y129.8 F240
M106 S255
G4 P100
G0 X111.5 Y129.9 F1200
M106 S0
G4 P20
G1 X100.4 Y129.9 F240
M106 S255
G4 P100
G0 X100.2 Y129.9 F1200
M106 S0
G4 P20
G1 X97.8 Y129.9 F240
M106 S255
G4 P100
G0 X92.8 Y129.9 F1200
M106 S0
G4 P20
G1 X79.2 Y129.9 F240
M106 S255
G4 P100
G0 X79.1 Y130.0 F1200
M106 S0
G4 P20
G1 X92.8 Y130.0 F240
M106 S255
G4 P100
G0 X97.8 Y130.0 F1200
M106 S0
G4 P20
G1 X111.7 Y130.0 F240
M106 S255
G4 P100
G0 X111.8 Y130.1 F1200
M106 S0
G4 P20
G1 X97.8 Y130.1 F240
M106 S255
G4 P100
G0 X92.7 Y130.1 F1200
M106 S0
G4 P20
G1 X90.3 Y130.1 F240
M106 S255
G4 P100
G0 X90.1 Y130.1 F1200
M106 S0
G4 P20
G1 X78.9 Y130.1 F240
M106 S255
G4 P100
G0 X78.8 Y130.2 F1200
M106 S0
G4 P20
G1 X90.1 Y130.2 F240
M106 S255
G4 P100
G0 X90.3 Y130.2 F1200
M106 S0
G4 P20
G1 X92.7 Y130.2 F240
M106 S255
G4 P100
G0 X97.8 Y130.2 F1200
M106 S0
G4 P20
G1 X100.4 Y130.2 F240
M106 S255
G4 P100
G0 X100.6 Y130.2 F1200
M106 S0
G4 P20
G1 X111.9 Y130.2 F240
M106 S255
G4 P100
G0 X112.1 Y130.3 F1200
M106 S0
G4 P20
G1 X97.9 Y130.3 F240
M106 S255
G4 P100
G0 X92.7 Y130.3 F1200
M106 S0
G4 P20
G1 X78.6 Y130.3 F240
M106 S255
G4 P100
G0 X78.5 Y130.4 F1200
M106 S0
G4 P20
G1 X92.6 Y130.4 F240
M106 S255
G4 P100
G0 X98.0 Y130.4 F1200
M106 S0
G4 P20
G1 X112.2 Y130.4 F240
M106 S255
G4 P100
G0 X112.3 Y130.5 F1200
M106 S0
G4 P20
G1 X98.0 Y130.5 F240
M106 S255
G4 P100
G0 X92.6 Y130.5 F1200
M106 S0
G4 P20
G1 X78.4 Y130.5 F240
M106 S255
G4 P100
G0 X78.2 Y130.6 F1200
M106 S0
G4 P20
G1 X92.6 Y130.6 F240
M106 S255
G4 P100
G0 X98.0 Y130.6 F1200
M106 S0
G4 P20
G1 X112.5 Y130.6 F240
M106 S255
G4 P100
G0 X112.6 Y130.7 F1200
M106 S0
G4 P20
G1 X100.9 Y130.7 F240
M106 S255
G4 P100
G0 X100.7 Y130.7 F1200
M106 S0
G4 P20
G1 X98.1 Y130.7 F240
M106 S255
G4 P100
G0 X92.5 Y130.7 F1200
M106 S0
G4 P20
G1 X78.1 Y130.7 F240
M106 S255
G4 P100
G0 X78.0 Y130.8 F1200
M106 S0
G4 P20
G1 X92.4 Y130.8 F240
M106 S255
G4 P100
G0 X98.1 Y130.8 F1200
M106 S0
G4 P20
G1 X112.7 Y130.8 F240
M106 S255
G4 P100
G0 X112.8 Y130.9 F1200
M106 S0
G4 P20
G1 X98.1 Y130.9 F240
M106 S255
G4 P100
G0 X92.4 Y130.9 F1200
M106 S0
G4 P20
G1 X77.9 Y130.9 F240
M106 S255
G4 P100
G0 X77.8 Y131.0 F1200
M106 S0
G4 P20
G1 X92.4 Y131.0 F240
M106 S255
G4 P100
G0 X98.2 Y131.0 F1200
M106 S0
G4 P20
G1 X112.9 Y131.0 F240
M106 S255
G4 P100
G0 X113.0 Y131.1 F1200
M106 S0
G4 P20
G1 X98.3 Y131.1 F240
M106 S255
G4 P100
G0 X92.3 Y131.1 F1200
M106 S0
G4 P20
G1 X77.7 Y131.1 F240
M106 S255
G4 P100
G0 X77.6 Y131.2 F1200
M106 S0
G4 P20
G1 X92.3 Y131.2 F240
M106 S255
G4 P100
G0 X98.3 Y131.2 F1200
M106 S0
G4 P20
G1 X113.1 Y131.2 F240
M106 S255
G4 P100
G0 X113.2 Y131.3 F1200
M106 S0
G4 P20
G1 X98.3 Y131.3 F240
M106 S255
G4 P100
G0 X92.2 Y131.3 F1200
M106 S0
G4 P20
G1 X77.5 Y131.3 F240
M106 S255
G4 P100
G0 X77.4 Y131.4 F1200
M106 S0
G4 P20
G1 X92.2 Y131.4 F240
M106 S255
G4 P100
G0 X98.4 Y131.4 F1200
M106 S0
G4 P20
G1 X113.3 Y131.4 F240
M106 S255
G4 P100
G0 X113.4 Y131.5 F1200
M106 S0
G4 P20
G1 X106.9 Y131.5 F240
M106 S255
G4 P100
G0 X106.5 Y131.5 F1200
M106 S0
G4 P20
G1 X98.5 Y131.5 F240
M106 S255
G4 P100
G0 X92.1 Y131.5 F1200
M106 S0
G4 P20
G1 X84.2 Y131.5 F240
M106 S255
G4 P100
G0 X84.0 Y131.5 F1200
M106 S0
G4 P20
G1 X77.3 Y131.5 F240
M106 S255
G4 P100
G0 X77.2 Y131.6 F1200
M106 S0
G4 P20
G1 X92.1 Y131.6 F240
M106 S255
G4 P100
G0 X98.5 Y131.6 F1200
M106 S0
G4 P20
G1 X113.5 Y131.6 F240
M106 S255
G4 P100
G0 X113.6 Y131.7 F1200
M106 S0
G4 P20
G1 X107.2 Y131.7 F240
M106 S255
G4 P100
G0 X107.0 Y131.7 F1200
M106 S0
G4 P20
G1 X98.6 Y131.7 F240
M106 S255
G4 P100
G0 X92.1 Y131.7 F1200
M106 S0
G4 P20
G1 X77.1 Y131.7 F240
M106 S255
G4 P100
G0 X77.0 Y131.8 F1200
M106 S0
G4 P20
G1 X83.4 Y131.8 F240
M106 S255
G4 P100
G0 X83.8 Y131.8 F1200
M106 S0
G4 P20
G1 X92.0 Y131.8 F240
M106 S255
G4 P100
G0 X98.6 Y131.8 F1200
M106 S0
G4 P20
G1 X107.0 Y131.8 F240
M106 S255
G4 P100
G0 X107.5 Y131.8 F1200
M106 S0
G4 P20
G1 X113.6 Y131.8 F240
M106 S255
G4 P100
G0 X113.7 Y131.9 F1200
M106 S0
G4 P20
G1 X98.6 Y131.9 F240
M106 S255
G4 P100
G0 X91.9 Y131.9 F1200
M106 S0
G4 P20
G1 X76.9 Y131.9 F240
M106 S255
G4 P100
G0 X76.8 Y132.0 F1200
M106 S0
G4 P20
G1 X82.9 Y132.0 F240
M106 S255
G4 P100
G0 X83.4 Y132.0 F1200
M106 S0
G4 P20
G1 X91.9 Y132.0 F240
M106 S255
G4 P100
G0 X98.7 Y132.0 F1200
M106 S0
G4 P20
G1 X107.4 Y132.0 F240
M106 S255
G4 P100
G0 X107.8 Y132.0 F1200
M106 S0
G4 P20
G1 X113.8 Y132.0 F240
M106 S255
G4 P100
G0 X113.8 Y132.1 F1200
M106 S0
G4 P20
G1 X108.0 Y132.1 F240
M106 S255
G4 P100
G0 X107.5 Y132.1 F1200
M106 S0
G4 P20
G1 X98.8 Y132.1 F240
M106 S255
G4 P100
G0 X91.8 Y132.1 F1200
M106 S0
G4 P20
G1 X83.2 Y132.1 F240
M106 S255
G4 P100
G0 X82.9 Y132.1 F1200
M106 S0
G4 P20
G1 X76.8 Y132.1 F240
M106 S255
G4 P100
G0 X76.7 Y132.2 F1200
M106 S0
G4 P20
G1 X82.6 Y132.2 F240
M106 S255
G4 P100
G0 X82.9 Y132.2 F1200
M106 S0
G4 P20
G1 X91.8 Y132.2 F240
M106 S255
G4 P100
G0 X98.8 Y132.2 F1200
M106 S0
G4 P20
G1 X107.8 Y132.2 F240
M106 S255
G4 P100
G0 X108.1 Y132.2 F1200
M106 S0
G4 P20
G1 X113.9 Y132.2 F240
M106 S255
G4 P100
G0 X114.0 Y132.3 F1200
M106 S0
G4 P20
G1 X108.4 Y132.3 F240
M106 S255
G4 P100
G0 X107.8 Y132.3 F1200
M106 S0
G4 P20
G1 X98.8 Y132.3 F240
M106 S255
G4 P100
G0 X91.7 Y132.3 F1200
M106 S0
G4 P20
G1 X83.0 Y132.3 F240
M106 S255
G4 P100
G0 X82.4 Y132.3 F1200
M106 S0
G4 P20
G1 X76.6 Y132.3 F240
M106 S255
G4 P100
G0 X76.6 Y132.4 F1200
M106 S0
G4 P20
G1 X82.4 Y132.4 F240
M106 S255
G4 P100
G0 X82.7 Y132.4 F1200
M106 S0
G4 P20
G1 X91.7 Y132.4 F240
M106 S255
G4 P100
G0 X98.9 Y132.4 F1200
M106 S0
G4 P20
G1 X108.0 Y132.4 F240
M106 S255
G4 P100
G0 X108.5 Y132.4 F1200
M106 S0
G4 P20
G1 X114.0 Y132.4 F240
M106 S255
G4 P100
G0 X114.1 Y132.5 F1200
M106 S0
G4 P20
G1 X108.7 Y132.5 F240
M106 S255
G4 P100
G0 X108.2 Y132.5 F1200
M106 S0
G4 P20
G1 X98.9 Y132.5 F240
M106 S255
G4 P100
G0 X91.6 Y132.5 F1200
M106 S0
G4 P20
G1 X82.6 Y132.5 F240
M106 S255
G4 P100
G0 X82.1 Y132.5 F1200
M106 S0
G4 P20
G1 X76.5 Y132.5 F240
M106 S255
G4 P100
G0 X76.4 Y132.6 F1200
M106 S0
G4 P20
G1 X82.0 Y132.6 F240
M106 S255
G4 P100
G0 X82.5 Y132.6 F1200
M106 S0
G4 P20
G1 X91.6 Y132.6 F240
M106 S255
G4 P100
G0 X99.0 Y132.6 F1200
M106 S0
G4 P20
G1 X108.2 Y132.6 F240
M106 S255
G4 P100
G0 X108.8 Y132.6 F1200
M106 S0
G4 P20
G1 X114.1 Y132.6 F240
M106 S255
G4 P100
G0 X114.2 Y132.7 F1200
M106 S0
G4 P20
G1 X109.0 Y132.7 F240
M106 S255
G4 P100
G0 X108.4 Y132.7 F1200
M106 S0
G4 P20
G1 X99.1 Y132.7 F240
M106 S255
G4 P100
G0 X91.5 Y132.7 F1200
M106 S0
G4 P20
G1 X82.3 Y132.7 F240
M106 S255
G4 P100
G0 X81.8 Y132.7 F1200
M106 S0
G4 P20
G1 X76.4 Y132.7 F240
M106 S255
G4 P100
G0 X76.4 Y132.8 F1200
M106 S0
G4 P20
G1 X81.6 Y132.8 F240
M106 S255
G4 P100
G0 X82.2 Y132.8 F1200
M106 S0
G4 P20
G1 X91.5 Y132.8 F240
M106 S255
G4 P100
G0 X99.1 Y132.8 F1200
M106 S0
G4 P20
G1 X108.6 Y132.8 F240
M106 S255
G4 P100
G0 X109.1 Y132.8 F1200
M106 S0
G4 P20
G1 X114.2 Y132.8 F240
M106 S255
G4 P100
G0 X114.3 Y132.9 F1200
M106 S0
G4 P20
G1 X109.2 Y132.9 F240
M106 S255
G4 P100
G0 X108.6 Y132.9 F1200
M106 S0
G4 P20
G1 X99.2 Y132.9 F240
M106 S255
G4 P100
G0 X91.4 Y132.9 F1200
M106 S0
G4 P20
G1 X82.1 Y132.9 F240
M106 S255
G4 P100
G0 X81.5 Y132.9 F1200
M106 S0
G4 P20
G1 X76.3 Y132.9 F240
M106 S255
G4 P100
G0 X76.3 Y133.0 F1200
M106 S0
G4 P20
G1 X81.3 Y133.0 F240
M106 S255
G4 P100
G0 X81.9 Y133.0 F1200
M106 S0
G4 P20
G1 X91.4 Y133.0 F240
M106 S255
G4 P100
G0 X99.2 Y133.0 F1200
M106 S0
G4 P20
G1 X108.9 Y133.0 F240
M106 S255
G4 P100
G0 X109.4 Y133.0 F1200
M106 S0
G4 P20
G1 X114.3 Y133.0 F240
M106 S255
G4 P100
G0 X114.4 Y133.1 F1200
M106 S0
G4 P20
G1 X109.6 Y133.1 F240
M106 S255
G4 P100
G0 X109.0 Y133.1 F1200
M106 S0
G4 P20
G1 X103.0 Y133.1 F240
M106 S255
G4 P100
G0 X102.8 Y133.1 F1200
M106 S0
G4 P20
G1 X99.3 Y133.1 F240
M106 S255
G4 P100
G0 X95.5 Y133.1 F1200
M106 S0
G4 P20
G1 X95.5 Y133.1 F240
M106 S255
G4 P100
G0 X91.3 Y133.1 F1200
M106 S0
G4 P20
G1 X81.8 Y133.1 F240
M106 S255
G4 P100
G0 X81.1 Y133.1 F1200
M106 S0
G4 P20
G1 X76.2 Y133.1 F240
M106 S255
G4 P100
G0 X76.2 Y133.2 F1200
M106 S0
G4 P20
G1 X81.0 Y133.2 F240
M106 S255
G4 P100
G0 X81.6 Y133.2 F1200
M106 S0
G4 P20
G1 X91.3 Y133.2 F240
M106 S255
G4 P100
G0 X95.5 Y133.2 F1200
M106 S0
G4 P20
G1 X95.5 Y133.2 F240
M106 S255
G4 P100
G0 X99.3 Y133.2 F1200
M106 S0
G4 P20
G1 X109.1 Y133.2 F240
M106 S255
G4 P100
G0 X109.7 Y133.2 F1200
M106 S0
G4 P20
G1 X114.4 Y133.2 F240
M106 S255
G4 P100
G0 X114.4 Y133.3 F1200
M106 S0
G4 P20
G1 X109.9 Y133.3 F240
M106 S255
G4 P100
G0 X109.3 Y133.3 F1200
M106 S0
G4 P20
G1 X99.4 Y133.3 F240
M106 S255
G4 P100
G0 X95.5 Y133.3 F1200
M106 S0
G4 P20
G1 X95.5 Y133.3 F240
M106 S255
G4 P100
G0 X91.2 Y133.3 F1200
M106 S0
G4 P20
G1 X81.4 Y133.3 F240
M106 S255
G4 P100
G0 X80.8 Y133.3 F1200
M106 S0
G4 P20
G1 X76.1 Y133.3 F240
M106 S255
G4 P100
G0 X76.1 Y133.4 F1200
M106 S0
G4 P20
G1 X80.7 Y133.4 F240
M106 S255
G4 P100
G0 X81.4 Y133.4 F1200
M106 S0
G4 P20
G1 X91.1 Y133.4 F240
M106 S255
G4 P100
G0 X95.5 Y133.4 F1200
M106 S0
G4 P20
G1 X95.5 Y133.4 F240
M106 S255
G4 P100
G0 X99.5 Y133.4 F1200
M106 S0
G4 P20
G1 X103.1 Y133.4 F240
M106 S255
G4 P100
G0 X103.3 Y133.4 F1200
M106 S0
G4 P20
G1 X109.4 Y133.4 F240
M106 S255
G4 P100
G0 X110.0 Y133.4 F1200
M106 S0
G4 P20
G1 X114.4 Y133.4 F240
M106 S255
G4 P100
G0 X114.5 Y133.5 F1200
M106 S0
G4 P20
G1 X110.2 Y133.5 F240
M106 S255
G4 P100
G0 X109.5 Y133.5 F1200
M106 S0
G4 P20
G1 X99.5 Y133.5 F240
M106 S255
G4 P100
G0 X91.1 Y133.5 F1200
M106 S0
G4 P20
G1 X81.2 Y133.5 F240
M106 S255
G4 P100
G0 X80.6 Y133.5 F1200
M106 S0
G4 P20
G1 X76.1 Y133.5 F240
M106 S255
G4 P100
G0 X76.0 Y133.6 F1200
M106 S0
G4 P20
G1 X80.5 Y133.6 F240
M106 S255
G4 P100
G0 X81.1 Y133.6 F1200
M106 S0
G4 P20
G1 X87.2 Y133.6 F240
M106 S255
G4 P100
G0 X87.4 Y133.6 F1200
M106 S0
G4 P20
G1 X91.0 Y133.6 F240
M106 S255
G4 P100
G0 X99.6 Y133.6 F1200
M106 S0
G4 P20
G1 X103.3 Y133.6 F240
M106 S255
G4 P100
G0 X103.6 Y133.6 F1200
M106 S0
G4 P20
G1 X109.6 Y133.6 F240
M106 S255
G4 P100
G0 X110.3 Y133.6 F1200
M106 S0
G4 P20
G1 X114.5 Y133.6 F240
M106 S255
G4 P100
G0 X114.6 Y133.7 F1200
M106 S0
G4 P20
G1 X110.4 Y133.7 F240
M106 S255
G4 P100
G0 X109.8 Y133.7 F1200
M106 S0
G4 P20
G1 X99.6 Y133.7 F240
M106 S255
G4 P100
G0 X91.0 Y133.7 F1200
M106 S0
G4 P20
G1 X81.0 Y133.7 F240
M106 S255
G4 P100
G0 X80.3 Y133.7 F1200
M106 S0
G4 P20
G1 X76.0 Y133.7 F240
M106 S255
G4 P100
G0 X76.0 Y133.8 F1200
M106 S0
G4 P20
G1 X80.2 Y133.8 F240
M106 S255
G4 P100
G0 X80.8 Y133.8 F1200
M106 S0
G4 P20
G1 X90.9 Y133.8 F240
M106 S255
G4 P100
G0 X94.2 Y133.8 F1200
M106 S0
G4 P20
G1 X94.2 Y133.8 F240
M106 S255
G4 P100
G0 X99.7 Y133.8 F1200
M106 S0
G4 P20
G1 X109.9 Y133.8 F240
M106 S255
G4 P100
G0 X110.5 Y133.8 F1200
M106 S0
G4 P20
G1 X114.6 Y133.8 F240
M106 S255
G4 P100
G0 X114.6 Y133.9 F1200
M106 S0
G4 P20
G1 X110.6 Y133.9 F240
M106 S255
G4 P100
G0 X110.0 Y133.9 F1200
M106 S0
G4 P20
G1 X103.8 Y133.9 F240
M106 S255
G4 P100
G0 X103.6 Y133.9 F1200
M106 S0
G4 P20
G1 X99.8 Y133.9 F240
M106 S255
G4 P100
G0 X94.2 Y133.9 F1200
M106 S0
G4 P20
G1 X94.2 Y133.9 F240
M106 S255
G4 P100
G0 X90.8 Y133.9 F1200
M106 S0
G4 P20
G1 X80.7 Y133.9 F240
M106 S255
G4 P100
G0 X80.0 Y133.9 F1200
M106 S0
G4 P20
G1 X76.0 Y133.9 F240
M106 S255
G4 P100
G0 X75.9 Y134.0 F1200
M106 S0
G4 P20
G1 X79.9 Y134.0 F240
M106 S255
G4 P100
G0 X80.6 Y134.0 F1200
M106 S0
G4 P20
G1 X90.8 Y134.0 F240
M106 S255
G4 P100
G0 X99.8 Y134.0 F1200
M106 S0
G4 P20
G1 X110.1 Y134.0 F240
M106 S255
G4 P100
G0 X110.8 Y134.0 F1200
M106 S0
G4 P20
G1 X114.6 Y134.0 F240
M106 S255
G4 P100
G0 X114.6 Y134.1 F1200
M106 S0
G4 P20
G1 X111.0 Y134.1 F240
M106 S255
G4 P100
G0 X110.3 Y134.1 F1200
M106 S0
G4 P20
G1 X104.1 Y134.1 F240
M106 S255
G4 P100
G0 X103.9 Y134.1 F1200
M106 S0
G4 P20
G1 X99.9 Y134.1 F240
M106 S255
G4 P100
G0 X90.7 Y134.1 F1200
M106 S0
G4 P20
G1 X80.4 Y134.1 F240
M106 S255
G4 P100
G0 X79.7 Y134.1 F1200
M106 S0
G4 P20
G1 X75.9 Y134.1 F240
M106 S255
G4 P100
G0 X75.9 Y134.2 F1200
M106 S0
G4 P20
G1 X79.7 Y134.2 F240
M106 S255
G4 P100
G0 X80.3 Y134.2 F1200
M106 S0
G4 P20
G1 X90.7 Y134.2 F240
M106 S255
G4 P100
G0 X99.9 Y134.2 F1200
M106 S0
G4 P20
G1 X110.4 Y134.2 F240
M106 S255
G4 P100
G0 X111.0 Y134.2 F1200
M106 S0
G4 P20
G1 X114.6 Y134.2 F240
M106 S255
G4 P100
G0 X114.6 Y134.3 F1200
M106 S0
G4 P20
G1 X111.2 Y134.3 F240
M106 S255
G4 P100
G0 X110.5 Y134.3 F1200
M106 S0
G4 P20
G1 X100.0 Y134.3 F240
M106 S255
G4 P100
G0 X90.6 Y134.3 F1200
M106 S0
G4 P20
G1 X80.2 Y134.3 F240
M106 S255
G4 P100
G0 X79.5 Y134.3 F1200
M106 S0
G4 P20
G1 X75.9 Y134.3 F240
M106 S255
G4 P100
G0 X75.9 Y134.4 F1200
M106 S0
G4 P20
G1 X79.4 Y134.4 F240
M106 S255
G4 P100
G0 X80.0 Y134.4 F1200
M106 S0
G4 P20
G1 X86.2 Y134.4 F240
M106 S255
G4 P100
G0 X86.6 Y134.4 F1200
M106 S0
G4 P20
G1 X90.5 Y134.4 F240
M106 S255
G4 P100
G0 X93.9 Y134.4 F1200
M106 S0
G4 P20
G1 X93.9 Y134.4 F240
M106 S255
G4 P100
G0 X100.1 Y134.4 F1200
M106 S0
G4 P20
G1 X104.2 Y134.4 F240
M106 S255
G4 P100
G0 X104.4 Y134.4 F1200
M106 S0
G4 P20
G1 X110.7 Y134.4 F240
M106 S255
G4 P100
G0 X111.3 Y134.4 F1200
M106 S0
G4 P20
G1 X114.6 Y134.4 F240
M106 S255
G4 P100
G0 X114.6 Y134.5 F1200
M106 S0
G4 P20
G1 X111.4 Y134.5 F240
M106 S255
G4 P100
G0 X110.8 Y134.5 F1200
M106 S0
G4 P20
G1 X100.2 Y134.5 F240
M106 S255
G4 P100
G0 X93.9 Y134.5 F1200
M106 S0
G4 P20
G1 X93.9 Y134.5 F240
M106 S255
G4 P100
G0 X90.5 Y134.5 F1200
M106 S0
G4 P20
G1 X79.9 Y134.5 F240
M106 S255
G4 P100
G0 X79.3 Y134.5 F1200
M106 S0
G4 P20
G1 X75.8 Y134.5 F240
M106 S255
G4 P100
G0 X75.8 Y134.6 F1200
M106 S0
G4 P20
G1 X79.1 Y134.6 F240
M106 S255
G4 P100
G0 X79.8 Y134.6 F1200
M106 S0
G4 P20
G1 X90.4 Y134.6 F240
M106 S255
G4 P100
G0 X93.9 Y134.6 F1200
M106 S0
G4 P20
G1 X93.9 Y134.6 F240
M106 S255
G4 P100
G0 X100.2 Y134.6 F1200
M106 S0
G4 P20
G1 X110.9 Y134.6 F240
M106 S255
G4 P100
G0 X111.6 Y134.6 F1200
M106 S0
G4 P20
G1 X114.7 Y134.6 F240
M106 S255
G4 P100
G0 X114.7 Y134.7 F1200
M106 S0
G4 P20
G1 X111.6 Y134.7 F240
M106 S255
G4 P100
G0 X111.0 Y134.7 F1200
M106 S0
G4 P20
G1 X104.9 Y134.7 F240
M106 S255
G4 P100
G0 X104.6 Y134.7 F1200
M106 S0
G4 P20
G1 X100.3 Y134.7 F240
M106 S255
G4 P100
G0 X96.0 Y134.7 F1200
M106 S0
G4 P20
G1 X96.0 Y134.7 F240
M106 S255
G4 P100
G0 X90.3 Y134.7 F1200
M106 S0
G4 P20
G1 X86.1 Y134.7 F240
M106 S255
G4 P100
G0 X85.9 Y134.7 F1200
M106 S0
G4 P20
G1 X79.7 Y134.7 F240
M106 S255
G4 P100
G0 X79.0 Y134.7 F1200
M106 S0
G4 P20
G1 X75.8 Y134.7 F240
M106 S255
G4 P100
G0 X75.8 Y134.8 F1200
M106 S0
G4 P20
G1 X78.9 Y134.8 F240
M106 S255
G4 P100
G0 X79.6 Y134.8 F1200
M106 S0
G4 P20
G1 X90.3 Y134.8 F240
M106 S255
G4 P100
G0 X96.0 Y134.8 F1200
M106 S0
G4 P20
G1 X96.0 Y134.8 F240
M106 S255
G4 P100
G0 X100.3 Y134.8 F1200
M106 S0
G4 P20
G1 X111.1 Y134.8 F240
M106 S255
G4 P100
G0 X111.8 Y134.8 F1200
M106 S0
G4 P20
G1 X114.7 Y134.8 F240
M106 S255
G4 P100
G0 X114.7 Y134.9 F1200
M106 S0
G4 P20
G1 X111.9 Y134.9 F240
M106 S255
G4 P100
G0 X111.3 Y134.9 F1200
M106 S0
G4 P20
G1 X105.1 Y134.9 F240
M106 S255
G4 P100
G0 X104.9 Y134.9 F1200
M106 S0
G4 P20
G1 X100.4 Y134.9 F240
M106 S255
G4 P100
G0 X96.1 Y134.9 F1200
M106 S0
G4 P20
G1 X96.0 Y134.9 F240
M106 S255
G4 P100
G0 X90.2 Y134.9 F1200
M106 S0
G4 P20
G1 X85.8 Y134.9 F240
M106 S255
G4 P100
G0 X85.6 Y134.9 F1200
M106 S0
G4 P20
G1 X79.5 Y134.9 F240
M106 S255
G4 P100
G0 X78.8 Y134.9 F1200
M106 S0
G4 P20
G1 X75.8 Y134.9 F240
M106 S255
G4 P100
G0 X75.8 Y135.0 F1200
M106 S0
G4 P20
G1 X78.7 Y135.0 F240
M106 S255
G4 P100
G0 X79.4 Y135.0 F1200
M106 S0
G4 P20
G1 X85.6 Y135.0 F240
M106 S255
G4 P100
G0 X85.8 Y135.0 F1200
M106 S0
G4 P20
G1 X90.2 Y135.0 F240
M106 S255
G4 P100
G0 X93.6 Y135.0 F1200
M106 S0
G4 P20
G1 X93.6 Y135.0 F240
M106 S255
G4 P100
G0 X96.0 Y135.0 F1200
M106 S0
G4 P20
G1 X96.1 Y135.0 F240
M106 S255
G4 P100
G0 X100.5 Y135.0 F1200
M106 S0
G4 P20
G1 X104.9 Y135.0 F240
M106 S255
G4 P100
G0 X105.2 Y135.0 F1200
M106 S0
G4 P20
G1 X111.4 Y135.0 F240
M106 S255
G4 P100
G0 X112.0 Y135.0 F1200
M106 S0
G4 P20
G1 X114.6 Y135.0 F240
M106 S255
G4 P100
G0 X114.6 Y135.1 F1200
M106 S0
G4 P20
G1 X112.1 Y135.1 F240
M106 S255
G4 P100
G0 X111.5 Y135.1 F1200
M106 S0
G4 P20
G1 X105.4 Y135.1 F240
M106 S255
G4 P100
G0 X105.2 Y135.1 F1200
M106 S0
G4 P20
G1 X100.5 Y135.1 F240
M106 S255
G4 P100
G0 X93.6 Y135.1 F1200
M106 S0
G4 P20
G1 X93.6 Y135.1 F240
M106 S255
G4 P100
G0 X90.1 Y135.1 F1200
M106 S0
G4 P20
G1 X79.2 Y135.1 F240
M106 S255
G4 P100
G0 X78.6 Y135.1 F1200
M106 S0
G4 P20
G1 X75.8 Y135.1 F240
M106 S255
G4 P100
G0 X75.8 Y135.2 F1200
M106 S0
G4 P20
G1 X78.5 Y135.2 F240
M106 S255
G4 P100
G0 X79.1 Y135.2 F1200
M106 S0
G4 P20
G1 X85.2 Y135.2 F240
M106 S255
G4 P100
G0 X85.5 Y135.2 F1200
M106 S0
G4 P20
G1 X90.0 Y135.2 F240
M106 S255
G4 P100
G0 X93.6 Y135.2 F1200
M106 S0
G4 P20
G1 X93.6 Y135.2 F240
M106 S255
G4 P100
G0 X96.3 Y135.2 F1200
M106 S0
G4 P20
G1 X96.3 Y135.2 F240
M106 S255
G4 P100
G0 X100.6 Y135.2 F1200
M106 S0
G4 P20
G1 X105.1 Y135.2 F240
M106 S255
G4 P100
G0 X105.6 Y135.2 F1200
M106 S0
G4 P20
G1 X111.6 Y135.2 F240
M106 S255
G4 P100
G0 X112.2 Y135.2 F1200
M106 S0
G4 P20
G1 X114.6 Y135.2 F240
M106 S255
G4 P100
G0 X114.6 Y135.3 F1200
M106 S0
G4 P20
G1 X112.3 Y135.3 F240
M106 S255
G4 P100
G0 X111.7 Y135.3 F1200
M106 S0
G4 P20
G1 X105.6 Y135.3 F240
M106 S255
G4 P100
G0 X105.2 Y135.3 F1200
M106 S0
G4 P20
G1 X100.7 Y135.3 F240
M106 S255
G4 P100
G0 X96.3 Y135.3 F1200
M106 S0
G4 P20
G1 X96.3 Y135.3 F240
M106 S255
G4 P100
G0 X90.0 Y135.3 F1200
