; Generated with "ZONESTAR Laser Engraving Gcode generator V3"
;
M106 S255 ; turn off laser
G21; Set units to millimeters
G90; Use absolute coordinates
G28; home all axes
G92 X-5 Y0 Z0; Coordinate Offset
M0 turn on laser power and press knob ;Wait for laser turn on
;
G1 Z20 F400 ;Move up Z axis before engraving
;
G0 X33.2 Y43.8 F1200
M106 S0
G4 P20
G1 X33.5 Y43.8 F240
M106 S255
G4 P100
G0 X33.6 Y43.9 F1200
M106 S0
G4 P20
G1 X33.2 Y43.9 F240
M106 S255
G4 P100
G0 X32.3 Y44.0 F1200
M106 S0
G4 P20
G1 X34.1 Y44.0 F240
M106 S255
G4 P100
G0 X34.2 Y44.1 F1200
M106 S0
G4 P20
G1 X32.0 Y44.1 F240
M106 S255
G4 P100
G0 X31.9 Y44.2 F1200
M106 S0
G4 P20
G1 X34.3 Y44.2 F240
M106 S255
G4 P100
G0 X34.3 Y44.3 F1200
M106 S0
G4 P20
G1 X31.7 Y44.3 F240
M106 S255
G4 P100
G0 X31.6 Y44.4 F1200
M106 S0
G4 P20
G1 X34.3 Y44.4 F240
M106 S255
G4 P100
G0 X34.3 Y44.5 F1200
M106 S0
G4 P20
G1 X31.5 Y44.5 F240
M106 S255
G4 P100
G0 X31.4 Y44.6 F1200
M106 S0
G4 P20
G1 X34.3 Y44.6 F240
M106 S255
G4 P100
G0 X34.2 Y44.7 F1200
M106 S0
G4 P20
G1 X31.3 Y44.7 F240
M106 S255
G4 P100
G0 X31.2 Y44.8 F1200
M106 S0
G4 P20
G1 X34.2 Y44.8 F240
M106 S255
G4 P100
G0 X34.2 Y44.9 F1200
M106 S0
G4 P20
G1 X31.1 Y44.9 F240
M106 S255
G4 P100
G0 X31.1 Y45.0 F1200
M106 S0
G4 P20
G1 X34.2 Y45.0 F240
M106 S255
G4 P100
G0 X34.1 Y45.1 F1200
M106 S0
G4 P20
G1 X31.1 Y45.1 F240
M106 S255
G4 P100
G0 X31.1 Y45.2 F1200
M106 S0
G4 P20
G1 X34.1 Y45.2 F240
M106 S255
G4 P100
G0 X34.1 Y45.3 F1200
M106 S0
G4 P20
G1 X31.2 Y45.3 F240
M106 S255
G4 P100
G0 X31.2 Y45.4 F1200
M106 S0
G4 P20
G1 X34.0 Y45.4 F240
M106 S255
G4 P100
G0 X33.9 Y45.5 F1200
M106 S0
G4 P20
G1 X31.2 Y45.5 F240
M106 S255
G4 P100
G0 X31.2 Y45.6 F1200
M106 S0
G4 P20
G1 X33.8 Y45.6 F240
M106 S255
G4 P100
G0 X33.7 Y45.7 F1200
M106 S0
G4 P20
G1 X30.6 Y45.7 F240
M106 S255
G4 P100
G0 X30.4 Y45.8 F1200
M106 S0
G4 P20
G1 X33.6 Y45.8 F240
M106 S255
G4 P100
G0 X33.5 Y45.9 F1200
M106 S0
G4 P20
G1 X30.3 Y45.9 F240
M106 S255
G4 P100
G0 X30.1 Y46.0 F1200
M106 S0
G4 P20
G1 X33.4 Y46.0 F240
M106 S255
G4 P100
G0 X33.3 Y46.1 F1200
M106 S0
G4 P20
G1 X30.1 Y46.1 F240
M106 S255
G4 P100
G0 X30.0 Y46.2 F1200
M106 S0
G4 P20
G1 X33.3 Y46.2 F240
M106 S255
G4 P100
G0 X33.0 Y46.3 F1200
M106 S0
G4 P20
G1 X30.0 Y46.3 F240
M106 S255
G4 P100
G0 X30.0 Y46.4 F1200
M106 S0
G4 P20
G1 X32.9 Y46.4 F240
M106 S255
G4 P100
G0 X32.6 Y46.5 F1200
M106 S0
G4 P20
G1 X30.0 Y46.5 F240
M106 S255
G4 P100
G0 X30.0 Y46.6 F1200
M106 S0
G4 P20
G1 X32.6 Y46.6 F240
M106 S255
G4 P100
G0 X32.3 Y46.7 F1200
M106 S0
G4 P20
G1 X30.0 Y46.7 F240
M106 S255
G4 P100
G0 X30.0 Y46.8 F1200
M106 S0
G4 P20
G1 X32.1 Y46.8 F240
M106 S255
G4 P100
G0 X55.0 Y46.8 F1200
M106 S0
G4 P20
G1 X55.2 Y46.8 F240
M106 S255
G4 P100
G0 X55.3 Y46.9 F1200
M106 S0
G4 P20
G1 X54.8 Y46.9 F240
M106 S255
G4 P100
G0 X32.1 Y46.9 F1200
M106 S0
G4 P20
G1 X30.0 Y46.9 F240
M106 S255
G4 P100
G0 X30.0 Y47.0 F1200
M106 S0
G4 P20
G1 X31.9 Y47.0 F240
M106 S255
G4 P100
G0 X54.7 Y47.0 F1200
M106 S0
G4 P20
G1 X55.3 Y47.0 F240
M106 S255
G4 P100
G0 X55.3 Y47.1 F1200
M106 S0
G4 P20
G1 X54.6 Y47.1 F240
M106 S255
G4 P100
G0 X31.8 Y47.1 F1200
M106 S0
G4 P20
G1 X29.8 Y47.1 F240
M106 S255
G4 P100
G0 X29.7 Y47.2 F1200
M106 S0
G4 P20
G1 X31.8 Y47.2 F240
M106 S255
G4 P100
G0 X54.3 Y47.2 F1200
M106 S0
G4 P20
G1 X55.3 Y47.2 F240
M106 S255
G4 P100
G0 X55.3 Y47.3 F1200
M106 S0
G4 P20
G1 X54.3 Y47.3 F240
M106 S255
G4 P100
G0 X31.8 Y47.3 F1200
M106 S0
G4 P20
G1 X29.7 Y47.3 F240
M106 S255
G4 P100
G0 X29.4 Y47.4 F1200
M106 S0
G4 P20
G1 X31.7 Y47.4 F240
M106 S255
G4 P100
G0 X54.2 Y47.4 F1200
M106 S0
G4 P20
G1 X55.3 Y47.4 F240
M106 S255
G4 P100
G0 X55.3 Y47.5 F1200
M106 S0
G4 P20
G1 X54.0 Y47.5 F240
M106 S255
G4 P100
G0 X31.5 Y47.5 F1200
M106 S0
G4 P20
G1 X29.3 Y47.5 F240
M106 S255
G4 P100
G0 X29.3 Y47.6 F1200
M106 S0
G4 P20
G1 X31.5 Y47.6 F240
M106 S255
G4 P100
G0 X54.0 Y47.6 F1200
M106 S0
G4 P20
G1 X55.3 Y47.6 F240
M106 S255
G4 P100
G0 X55.3 Y47.7 F1200
M106 S0
G4 P20
G1 X53.9 Y47.7 F240
M106 S255
G4 P100
G0 X31.4 Y47.7 F1200
M106 S0
G4 P20
G1 X29.3 Y47.7 F240
M106 S255
G4 P100
G0 X29.2 Y47.8 F1200
M106 S0
G4 P20
G1 X31.3 Y47.8 F240
M106 S255
G4 P100
G0 X53.8 Y47.8 F1200
M106 S0
G4 P20
G1 X55.3 Y47.8 F240
M106 S255
G4 P100
G0 X55.3 Y47.9 F1200
M106 S0
G4 P20
G1 X53.6 Y47.9 F240
M106 S255
G4 P100
G0 X31.2 Y47.9 F1200
M106 S0
G4 P20
G1 X29.0 Y47.9 F240
M106 S255
G4 P100
G0 X29.0 Y48.0 F1200
M106 S0
G4 P20
G1 X31.1 Y48.0 F240
M106 S255
G4 P100
G0 X53.6 Y48.0 F1200
M106 S0
G4 P20
G1 X55.3 Y48.0 F240
M106 S255
G4 P100
G0 X55.3 Y48.1 F1200
M106 S0
G4 P20
G1 X53.5 Y48.1 F240
M106 S255
G4 P100
G0 X31.0 Y48.1 F1200
M106 S0
G4 P20
G1 X29.0 Y48.1 F240
M106 S255
G4 P100
G0 X29.0 Y48.2 F1200
M106 S0
G4 P20
G1 X30.9 Y48.2 F240
M106 S255
G4 P100
G0 X53.5 Y48.2 F1200
M106 S0
G4 P20
G1 X55.3 Y48.2 F240
M106 S255
G4 P100
G0 X55.3 Y48.3 F1200
M106 S0
G4 P20
G1 X53.5 Y48.3 F240
M106 S255
G4 P100
G0 X30.8 Y48.3 F1200
M106 S0
G4 P20
G1 X29.0 Y48.3 F240
M106 S255
G4 P100
G0 X28.9 Y48.4 F1200
M106 S0
G4 P20
G1 X30.7 Y48.4 F240
M106 S255
G4 P100
G0 X53.4 Y48.4 F1200
M106 S0
G4 P20
G1 X55.3 Y48.4 F240
M106 S255
G4 P100
G0 X55.3 Y48.5 F1200
M106 S0
G4 P20
G1 X53.4 Y48.5 F240
M106 S255
G4 P100
G0 X31.9 Y48.5 F1200
M106 S0
G4 P20
G1 X31.6 Y48.5 F240
M106 S255
G4 P100
G0 X30.6 Y48.5 F1200
M106 S0
G4 P20
G1 X28.9 Y48.5 F240
M106 S255
G4 P100
G0 X28.9 Y48.6 F1200
M106 S0
G4 P20
G1 X30.6 Y48.6 F240
M106 S255
G4 P100
G0 X31.5 Y48.6 F1200
M106 S0
G4 P20
G1 X32.0 Y48.6 F240
M106 S255
G4 P100
G0 X53.3 Y48.6 F1200
M106 S0
G4 P20
G1 X55.3 Y48.6 F240
M106 S255
G4 P100
G0 X55.3 Y48.7 F1200
M106 S0
G4 P20
G1 X53.3 Y48.7 F240
M106 S255
G4 P100
G0 X32.1 Y48.7 F1200
M106 S0
G4 P20
G1 X31.4 Y48.7 F240
M106 S255
G4 P100
G0 X30.4 Y48.7 F1200
M106 S0
G4 P20
G1 X28.9 Y48.7 F240
M106 S255
G4 P100
G0 X28.8 Y48.8 F1200
M106 S0
G4 P20
G1 X30.3 Y48.8 F240
M106 S255
G4 P100
G0 X31.2 Y48.8 F1200
M106 S0
G4 P20
G1 X32.1 Y48.8 F240
M106 S255
G4 P100
G0 X53.2 Y48.8 F1200
M106 S0
G4 P20
G1 X55.2 Y48.8 F240
M106 S255
G4 P100
G0 X55.2 Y48.9 F1200
M106 S0
G4 P20
G1 X53.2 Y48.9 F240
M106 S255
G4 P100
G0 X32.1 Y48.9 F1200
M106 S0
G4 P20
G1 X31.1 Y48.9 F240
M106 S255
G4 P100
G0 X30.3 Y48.9 F1200
M106 S0
G4 P20
G1 X28.8 Y48.9 F240
M106 S255
G4 P100
G0 X28.7 Y49.0 F1200
M106 S0
G4 P20
G1 X30.2 Y49.0 F240
M106 S255
G4 P100
G0 X31.0 Y49.0 F1200
M106 S0
G4 P20
G1 X32.1 Y49.0 F240
M106 S255
G4 P100
G0 X53.2 Y49.0 F1200
M106 S0
G4 P20
G1 X55.2 Y49.0 F240
M106 S255
G4 P100
G0 X55.2 Y49.1 F1200
M106 S0
G4 P20
G1 X53.2 Y49.1 F240
M106 S255
G4 P100
G0 X32.1 Y49.1 F1200
M106 S0
G4 P20
G1 X30.9 Y49.1 F240
M106 S255
G4 P100
G0 X30.0 Y49.1 F1200
M106 S0
G4 P20
G1 X28.6 Y49.1 F240
M106 S255
G4 P100
G0 X28.6 Y49.2 F1200
M106 S0
G4 P20
G1 X29.9 Y49.2 F240
M106 S255
G4 P100
G0 X30.8 Y49.2 F1200
M106 S0
G4 P20
G1 X32.1 Y49.2 F240
M106 S255
G4 P100
G0 X53.3 Y49.2 F1200
M106 S0
G4 P20
G1 X55.1 Y49.2 F240
M106 S255
G4 P100
G0 X55.0 Y49.3 F1200
M106 S0
G4 P20
G1 X53.3 Y49.3 F240
M106 S255
G4 P100
G0 X32.1 Y49.3 F1200
M106 S0
G4 P20
G1 X30.8 Y49.3 F240
M106 S255
G4 P100
G0 X29.9 Y49.3 F1200
M106 S0
G4 P20
G1 X28.6 Y49.3 F240
M106 S255
G4 P100
G0 X28.5 Y49.4 F1200
M106 S0
G4 P20
G1 X29.8 Y49.4 F240
M106 S255
G4 P100
G0 X30.6 Y49.4 F1200
M106 S0
G4 P20
G1 X32.1 Y49.4 F240
M106 S255
G4 P100
G0 X53.3 Y49.4 F1200
M106 S0
G4 P20
G1 X55.0 Y49.4 F240
M106 S255
G4 P100
G0 X54.9 Y49.5 F1200
M106 S0
G4 P20
G1 X53.5 Y49.5 F240
M106 S255
G4 P100
G0 X32.1 Y49.5 F1200
M106 S0
G4 P20
G1 X30.5 Y49.5 F240
M106 S255
G4 P100
G0 X29.8 Y49.5 F1200
M106 S0
G4 P20
G1 X28.4 Y49.5 F240
M106 S255
G4 P100
G0 X28.2 Y49.6 F1200
M106 S0
G4 P20
G1 X29.8 Y49.6 F240
M106 S255
G4 P100
G0 X30.5 Y49.6 F1200
M106 S0
G4 P20
G1 X32.1 Y49.6 F240
M106 S255
G4 P100
G0 X53.5 Y49.6 F1200
M106 S0
G4 P20
G1 X54.9 Y49.6 F240
M106 S255
G4 P100
G0 X54.9 Y49.7 F1200
M106 S0
G4 P20
G1 X53.5 Y49.7 F240
M106 S255
G4 P100
G0 X32.1 Y49.7 F1200
M106 S0
G4 P20
G1 X30.5 Y49.7 F240
M106 S255
G4 P100
G0 X29.6 Y49.7 F1200
M106 S0
G4 P20
G1 X28.2 Y49.7 F240
M106 S255
G4 P100
G0 X28.2 Y49.8 F1200
M106 S0
G4 P20
G1 X29.5 Y49.8 F240
M106 S255
G4 P100
G0 X30.4 Y49.8 F1200
M106 S0
G4 P20
G1 X32.1 Y49.8 F240
M106 S255
G4 P100
G0 X53.7 Y49.8 F1200
M106 S0
G4 P20
G1 X54.8 Y49.8 F240
M106 S255
G4 P100
G0 X54.7 Y49.9 F1200
M106 S0
G4 P20
G1 X53.8 Y49.9 F240
M106 S255
G4 P100
G0 X38.1 Y49.9 F1200
M106 S0
G4 P20
G1 X37.3 Y49.9 F240
M106 S255
G4 P100
G0 X32.1 Y49.9 F1200
M106 S0
G4 P20
G1 X30.2 Y49.9 F240
M106 S255
G4 P100
G0 X29.4 Y49.9 F1200
M106 S0
G4 P20
G1 X28.1 Y49.9 F240
M106 S255
G4 P100
G0 X28.1 Y50.0 F1200
M106 S0
G4 P20
G1 X29.4 Y50.0 F240
M106 S255
G4 P100
G0 X30.2 Y50.0 F1200
M106 S0
G4 P20
G1 X32.1 Y50.0 F240
M106 S255
G4 P100
G0 X37.2 Y50.0 F1200
M106 S0
G4 P20
G1 X38.2 Y50.0 F240
M106 S255
G4 P100
G0 X53.9 Y50.0 F1200
M106 S0
G4 P20
G1 X54.7 Y50.0 F240
M106 S255
G4 P100
G0 X54.7 Y50.1 F1200
M106 S0
G4 P20
G1 X53.9 Y50.1 F240
M106 S255
G4 P100
G0 X40.2 Y50.1 F1200
M106 S0
G4 P20
G1 X36.9 Y50.1 F240
M106 S255
G4 P100
G0 X32.1 Y50.1 F1200
M106 S0
G4 P20
G1 X30.2 Y50.1 F240
M106 S255
G4 P100
G0 X29.2 Y50.1 F1200
M106 S0
G4 P20
G1 X27.9 Y50.1 F240
M106 S255
G4 P100
G0 X27.8 Y50.2 F1200
M106 S0
G4 P20
G1 X29.2 Y50.2 F240
M106 S255
G4 P100
G0 X30.1 Y50.2 F1200
M106 S0
G4 P20
G1 X32.1 Y50.2 F240
M106 S255
G4 P100
G0 X36.6 Y50.2 F1200
M106 S0
G4 P20
G1 X40.4 Y50.2 F240
M106 S255
G4 P100
G0 X53.9 Y50.2 F1200
M106 S0
G4 P20
G1 X54.7 Y50.2 F240
M106 S255
G4 P100
G0 X54.7 Y50.3 F1200
M106 S0
G4 P20
G1 X53.9 Y50.3 F240
M106 S255
G4 P100
G0 X40.5 Y50.3 F1200
M106 S0
G4 P20
G1 X36.6 Y50.3 F240
M106 S255
G4 P100
G0 X32.1 Y50.3 F1200
M106 S0
G4 P20
G1 X30.1 Y50.3 F240
M106 S255
G4 P100
G0 X29.2 Y50.3 F1200
M106 S0
G4 P20
G1 X27.8 Y50.3 F240
M106 S255
G4 P100
G0 X27.7 Y50.4 F1200
M106 S0
G4 P20
G1 X29.1 Y50.4 F240
M106 S255
G4 P100
G0 X30.1 Y50.4 F1200
M106 S0
G4 P20
G1 X32.1 Y50.4 F240
M106 S255
G4 P100
G0 X36.5 Y50.4 F1200
M106 S0
G4 P20
G1 X40.7 Y50.4 F240
M106 S255
G4 P100
G0 X53.9 Y50.4 F1200
M106 S0
G4 P20
G1 X54.7 Y50.4 F240
M106 S255
G4 P100
G0 X54.7 Y50.5 F1200
M106 S0
G4 P20
G1 X53.8 Y50.5 F240
M106 S255
G4 P100
G0 X40.8 Y50.5 F1200
M106 S0
G4 P20
G1 X36.3 Y50.5 F240
M106 S255
G4 P100
G0 X32.1 Y50.5 F1200
M106 S0
G4 P20
G1 X30.1 Y50.5 F240
M106 S255
G4 P100
G0 X29.0 Y50.5 F1200
M106 S0
G4 P20
G1 X27.7 Y50.5 F240
M106 S255
G4 P100
G0 X27.5 Y50.6 F1200
M106 S0
G4 P20
G1 X28.9 Y50.6 F240
M106 S255
G4 P100
G0 X30.1 Y50.6 F1200
M106 S0
G4 P20
G1 X32.1 Y50.6 F240
M106 S255
G4 P100
G0 X36.2 Y50.6 F1200
M106 S0
G4 P20
G1 X41.1 Y50.6 F240
M106 S255
G4 P100
G0 X53.5 Y50.6 F1200
M106 S0
G4 P20
G1 X54.7 Y50.6 F240
M106 S255
G4 P100
G0 X54.7 Y50.7 F1200
M106 S0
G4 P20
G1 X53.5 Y50.7 F240
M106 S255
G4 P100
G0 X41.1 Y50.7 F1200
M106 S0
G4 P20
G1 X36.2 Y50.7 F240
M106 S255
G4 P100
G0 X32.1 Y50.7 F1200
M106 S0
G4 P20
G1 X30.1 Y50.7 F240
M106 S255
G4 P100
G0 X28.8 Y50.7 F1200
M106 S0
G4 P20
G1 X27.5 Y50.7 F240
M106 S255
G4 P100
G0 X27.4 Y50.8 F1200
M106 S0
G4 P20
G1 X28.8 Y50.8 F240
M106 S255
G4 P100
G0 X30.1 Y50.8 F1200
M106 S0
G4 P20
G1 X31.9 Y50.8 F240
M106 S255
G4 P100
G0 X36.1 Y50.8 F1200
M106 S0
G4 P20
G1 X41.2 Y50.8 F240
M106 S255
G4 P100
G0 X53.3 Y50.8 F1200
M106 S0
G4 P20
G1 X54.7 Y50.8 F240
M106 S255
G4 P100
G0 X54.7 Y50.9 F1200
M106 S0
G4 P20
G1 X53.1 Y50.9 F240
M106 S255
G4 P100
G0 X41.2 Y50.9 F1200
M106 S0
G4 P20
G1 X35.9 Y50.9 F240
M106 S255
G4 P100
G0 X31.9 Y50.9 F1200
M106 S0
G4 P20
G1 X30.1 Y50.9 F240
M106 S255
G4 P100
G0 X28.7 Y50.9 F1200
M106 S0
G4 P20
G1 X27.3 Y50.9 F240
M106 S255
G4 P100
G0 X27.3 Y51.0 F1200
M106 S0
G4 P20
G1 X28.7 Y51.0 F240
M106 S255
G4 P100
G0 X30.1 Y51.0 F1200
M106 S0
G4 P20
G1 X31.9 Y51.0 F240
M106 S255
G4 P100
G0 X35.9 Y51.0 F1200
M106 S0
G4 P20
G1 X41.3 Y51.0 F240
M106 S255
G4 P100
G0 X53.1 Y51.0 F1200
M106 S0
G4 P20
G1 X54.7 Y51.0 F240
M106 S255
G4 P100
G0 X54.7 Y51.1 F1200
M106 S0
G4 P20
G1 X53.1 Y51.1 F240
M106 S255
G4 P100
G0 X41.4 Y51.1 F1200
M106 S0
G4 P20
G1 X35.8 Y51.1 F240
M106 S255
G4 P100
G0 X31.9 Y51.1 F1200
M106 S0
G4 P20
G1 X30.1 Y51.1 F240
M106 S255
G4 P100
G0 X28.6 Y51.1 F1200
M106 S0
G4 P20
G1 X27.1 Y51.1 F240
M106 S255
G4 P100
G0 X27.0 Y51.2 F1200
M106 S0
G4 P20
G1 X28.5 Y51.2 F240
M106 S255
G4 P100
G0 X30.1 Y51.2 F1200
M106 S0
G4 P20
G1 X31.9 Y51.2 F240
M106 S255
G4 P100
G0 X35.7 Y51.2 F1200
M106 S0
G4 P20
G1 X41.5 Y51.2 F240
M106 S255
G4 P100
G0 X52.9 Y51.2 F1200
M106 S0
G4 P20
G1 X54.7 Y51.2 F240
M106 S255
G4 P100
G0 X54.7 Y51.3 F1200
M106 S0
G4 P20
G1 X52.9 Y51.3 F240
M106 S255
G4 P100
G0 X41.6 Y51.3 F1200
M106 S0
G4 P20
G1 X35.7 Y51.3 F240
M106 S255
G4 P100
G0 X31.9 Y51.3 F1200
M106 S0
G4 P20
G1 X30.0 Y51.3 F240
M106 S255
G4 P100
G0 X28.5 Y51.3 F1200
M106 S0
G4 P20
G1 X26.9 Y51.3 F240
M106 S255
G4 P100
G0 X26.9 Y51.4 F1200
M106 S0
G4 P20
G1 X28.4 Y51.4 F240
M106 S255
G4 P100
G0 X30.0 Y51.4 F1200
M106 S0
G4 P20
G1 X31.8 Y51.4 F240
M106 S255
G4 P100
G0 X35.8 Y51.4 F1200
M106 S0
G4 P20
G1 X41.8 Y51.4 F240
M106 S255
G4 P100
G0 X52.9 Y51.4 F1200
M106 S0
G4 P20
G1 X54.7 Y51.4 F240
M106 S255
G4 P100
G0 X54.6 Y51.5 F1200
M106 S0
G4 P20
G1 X52.8 Y51.5 F240
M106 S255
G4 P100
G0 X41.9 Y51.5 F1200
M106 S0
G4 P20
G1 X35.9 Y51.5 F240
M106 S255
G4 P100
G0 X31.8 Y51.5 F1200
M106 S0
G4 P20
G1 X29.8 Y51.5 F240
M106 S255
G4 P100
G0 X28.4 Y51.5 F1200
M106 S0
G4 P20
G1 X26.7 Y51.5 F240
M106 S255
G4 P100
G0 X26.7 Y51.6 F1200
M106 S0
G4 P20
G1 X28.4 Y51.6 F240
M106 S255
G4 P100
G0 X29.6 Y51.6 F1200
M106 S0
G4 P20
G1 X31.8 Y51.6 F240
M106 S255
G4 P100
G0 X35.9 Y51.6 F1200
M106 S0
G4 P20
G1 X42.1 Y51.6 F240
M106 S255
G4 P100
G0 X52.8 Y51.6 F1200
M106 S0
G4 P20
G1 X54.6 Y51.6 F240
M106 S255
G4 P100
G0 X54.6 Y51.7 F1200
M106 S0
G4 P20
G1 X52.8 Y51.7 F240
M106 S255
G4 P100
G0 X42.1 Y51.7 F1200
M106 S0
G4 P20
G1 X36.1 Y51.7 F240
M106 S255
G4 P100
G0 X31.7 Y51.7 F1200
M106 S0
G4 P20
G1 X29.6 Y51.7 F240
M106 S255
G4 P100
G0 X28.3 Y51.7 F1200
M106 S0
G4 P20
G1 X26.7 Y51.7 F240
M106 S255
G4 P100
G0 X26.6 Y51.8 F1200
M106 S0
G4 P20
G1 X28.1 Y51.8 F240
M106 S255
G4 P100
G0 X29.4 Y51.8 F1200
M106 S0
G4 P20
G1 X31.5 Y51.8 F240
M106 S255
G4 P100
G0 X36.3 Y51.8 F1200
M106 S0
G4 P20
G1 X42.3 Y51.8 F240
M106 S255
G4 P100
G0 X52.7 Y51.8 F1200
M106 S0
G4 P20
G1 X54.6 Y51.8 F240
M106 S255
G4 P100
G0 X54.6 Y51.9 F1200
M106 S0
G4 P20
G1 X52.7 Y51.9 F240
M106 S255
G4 P100
G0 X42.6 Y51.9 F1200
M106 S0
G4 P20
G1 X39.0 Y51.9 F240
M106 S255
G4 P100
G0 X38.6 Y51.9 F1200
M106 S0
G4 P20
G1 X36.4 Y51.9 F240
M106 S255
G4 P100
G0 X31.4 Y51.9 F1200
M106 S0
G4 P20
G1 X29.3 Y51.9 F240
M106 S255
G4 P100
G0 X28.1 Y51.9 F1200
M106 S0
G4 P20
G1 X26.5 Y51.9 F240
M106 S255
G4 P100
G0 X26.4 Y52.0 F1200
M106 S0
G4 P20
G1 X28.1 Y52.0 F240
M106 S255
G4 P100
G0 X29.3 Y52.0 F1200
M106 S0
G4 P20
G1 X31.4 Y52.0 F240
M106 S255
G4 P100
G0 X36.5 Y52.0 F1200
M106 S0
G4 P20
G1 X38.5 Y52.0 F240
M106 S255
G4 P100
G0 X39.0 Y52.0 F1200
M106 S0
G4 P20
G1 X42.6 Y52.0 F240
M106 S255
G4 P100
G0 X52.7 Y52.0 F1200
M106 S0
G4 P20
G1 X54.6 Y52.0 F240
M106 S255
G4 P100
G0 X54.6 Y52.1 F1200
M106 S0
G4 P20
G1 X52.7 Y52.1 F240
M106 S255
G4 P100
G0 X42.7 Y52.1 F1200
M106 S0
G4 P20
G1 X39.4 Y52.1 F240
M106 S255
G4 P100
G0 X38.3 Y52.1 F1200
M106 S0
G4 P20
G1 X36.6 Y52.1 F240
M106 S255
G4 P100
G0 X31.4 Y52.1 F1200
M106 S0
G4 P20
G1 X29.2 Y52.1 F240
M106 S255
G4 P100
G0 X28.1 Y52.1 F1200
M106 S0
G4 P20
G1 X26.3 Y52.1 F240
M106 S255
G4 P100
G0 X26.2 Y52.2 F1200
M106 S0
G4 P20
G1 X28.0 Y52.2 F240
M106 S255
G4 P100
G0 X28.9 Y52.2 F1200
M106 S0
G4 P20
G1 X31.1 Y52.2 F240
M106 S255
G4 P100
G0 X36.7 Y52.2 F1200
M106 S0
G4 P20
G1 X38.2 Y52.2 F240
M106 S255
G4 P100
G0 X39.7 Y52.2 F1200
M106 S0
G4 P20
G1 X43.0 Y52.2 F240
M106 S255
G4 P100
G0 X52.7 Y52.2 F1200
M106 S0
G4 P20
G1 X54.6 Y52.2 F240
M106 S255
G4 P100
G0 X54.6 Y52.3 F1200
M106 S0
G4 P20
G1 X52.7 Y52.3 F240
M106 S255
G4 P100
G0 X43.3 Y52.3 F1200
M106 S0
G4 P20
G1 X39.7 Y52.3 F240
M106 S255
G4 P100
G0 X38.1 Y52.3 F1200
M106 S0
G4 P20
G1 X36.7 Y52.3 F240
M106 S255
G4 P100
G0 X31.1 Y52.3 F1200
M106 S0
G4 P20
G1 X28.8 Y52.3 F240
M106 S255
G4 P100
G0 X28.0 Y52.3 F1200
M106 S0
G4 P20
G1 X26.1 Y52.3 F240
M106 S255
G4 P100
G0 X26.0 Y52.4 F1200
M106 S0
G4 P20
G1 X27.9 Y52.4 F240
M106 S255
G4 P100
G0 X28.8 Y52.4 F1200
M106 S0
G4 P20
G1 X31.0 Y52.4 F240
M106 S255
G4 P100
G0 X36.7 Y52.4 F1200
M106 S0
G4 P20
G1 X38.1 Y52.4 F240
M106 S255
G4 P100
G0 X40.6 Y52.4 F1200
M106 S0
G4 P20
G1 X43.3 Y52.4 F240
M106 S255
G4 P100
G0 X52.7 Y52.4 F1200
M106 S0
G4 P20
G1 X54.5 Y52.4 F240
M106 S255
G4 P100
G0 X54.5 Y52.5 F1200
M106 S0
G4 P20
G1 X52.5 Y52.5 F240
M106 S255
G4 P100
G0 X43.5 Y52.5 F1200
M106 S0
G4 P20
G1 X41.3 Y52.5 F240
M106 S255
G4 P100
G0 X38.0 Y52.5 F1200
M106 S0
G4 P20
G1 X36.9 Y52.5 F240
M106 S255
G4 P100
G0 X30.9 Y52.5 F1200
M106 S0
G4 P20
G1 X28.6 Y52.5 F240
M106 S255
G4 P100
G0 X27.9 Y52.5 F1200
M106 S0
G4 P20
G1 X25.9 Y52.5 F240
M106 S255
G4 P100
G0 X25.8 Y52.6 F1200
M106 S0
G4 P20
G1 X27.8 Y52.6 F240
M106 S255
G4 P100
G0 X28.5 Y52.6 F1200
M106 S0
G4 P20
G1 X30.8 Y52.6 F240
M106 S255
G4 P100
G0 X36.9 Y52.6 F1200
M106 S0
G4 P20
G1 X37.9 Y52.6 F240
M106 S255
G4 P100
G0 X41.6 Y52.6 F1200
M106 S0
G4 P20
G1 X43.8 Y52.6 F240
M106 S255
G4 P100
G0 X52.5 Y52.6 F1200
M106 S0
G4 P20
G1 X54.5 Y52.6 F240
M106 S255
G4 P100
G0 X54.5 Y52.7 F1200
M106 S0
G4 P20
G1 X52.5 Y52.7 F240
M106 S255
G4 P100
G0 X43.8 Y52.7 F1200
M106 S0
G4 P20
G1 X41.7 Y52.7 F240
M106 S255
G4 P100
G0 X37.9 Y52.7 F1200
M106 S0
G4 P20
G1 X37.0 Y52.7 F240
M106 S255
G4 P100
G0 X30.7 Y52.7 F1200
M106 S0
G4 P20
G1 X28.5 Y52.7 F240
M106 S255
G4 P100
G0 X27.7 Y52.7 F1200
M106 S0
G4 P20
G1 X25.8 Y52.7 F240
M106 S255
G4 P100
G0 X25.7 Y52.8 F1200
M106 S0
G4 P20
G1 X27.7 Y52.8 F240
M106 S255
G4 P100
G0 X28.5 Y52.8 F1200
M106 S0
G4 P20
G1 X30.7 Y52.8 F240
M106 S255
G4 P100
G0 X37.1 Y52.8 F1200
M106 S0
G4 P20
G1 X37.7 Y52.8 F240
M106 S255
G4 P100
G0 X42.0 Y52.8 F1200
M106 S0
G4 P20
G1 X44.1 Y52.8 F240
M106 S255
G4 P100
G0 X52.5 Y52.8 F1200
M106 S0
G4 P20
G1 X54.5 Y52.8 F240
M106 S255
G4 P100
G0 X54.4 Y52.9 F1200
M106 S0
G4 P20
G1 X52.5 Y52.9 F240
M106 S255
G4 P100
G0 X44.2 Y52.9 F1200
M106 S0
G4 P20
G1 X42.2 Y52.9 F240
M106 S255
G4 P100
G0 X37.6 Y52.9 F1200
M106 S0
G4 P20
G1 X37.2 Y52.9 F240
M106 S255
G4 P100
G0 X30.6 Y52.9 F1200
M106 S0
G4 P20
G1 X28.4 Y52.9 F240
M106 S255
G4 P100
G0 X27.7 Y52.9 F1200
M106 S0
G4 P20
G1 X25.5 Y52.9 F240
M106 S255
G4 P100
G0 X25.5 Y53.0 F1200
M106 S0
G4 P20
G1 X27.7 Y53.0 F240
M106 S255
G4 P100
G0 X28.3 Y53.0 F1200
M106 S0
G4 P20
G1 X30.6 Y53.0 F240
M106 S255
G4 P100
G0 X37.3 Y53.0 F1200
M106 S0
G4 P20
G1 X37.6 Y53.0 F240
M106 S255
G4 P100
G0 X42.3 Y53.0 F1200
M106 S0
G4 P20
G1 X44.3 Y53.0 F240
M106 S255
G4 P100
G0 X52.5 Y53.0 F1200
M106 S0
G4 P20
G1 X54.3 Y53.0 F240
M106 S255
G4 P100
G0 X54.3 Y53.1 F1200
M106 S0
G4 P20
G1 X52.5 Y53.1 F240
M106 S255
G4 P100
G0 X44.5 Y53.1 F1200
M106 S0
G4 P20
G1 X42.4 Y53.1 F240
M106 S255
G4 P100
G0 X30.6 Y53.1 F1200
M106 S0
G4 P20
G1 X28.2 Y53.1 F240
M106 S255
G4 P100
G0 X27.6 Y53.1 F1200
M106 S0
G4 P20
G1 X25.4 Y53.1 F240
M106 S255
G4 P100
G0 X25.2 Y53.2 F1200
M106 S0
G4 P20
G1 X27.6 Y53.2 F240
M106 S255
G4 P100
G0 X28.2 Y53.2 F1200
M106 S0
G4 P20
G1 X30.5 Y53.2 F240
M106 S255
G4 P100
G0 X42.5 Y53.2 F1200
M106 S0
G4 P20
G1 X44.5 Y53.2 F240
M106 S255
G4 P100
G0 X52.5 Y53.2 F1200
M106 S0
G4 P20
G1 X54.3 Y53.2 F240
M106 S255
G4 P100
G0 X54.3 Y53.3 F1200
M106 S0
G4 P20
G1 X52.5 Y53.3 F240
M106 S255
G4 P100
G0 X44.6 Y53.3 F1200
M106 S0
G4 P20
G1 X42.5 Y53.3 F240
M106 S255
G4 P100
G0 X30.4 Y53.3 F1200
M106 S0
G4 P20
G1 X25.1 Y53.3 F240
M106 S255
G4 P100
G0 X25.1 Y53.4 F1200
M106 S0
G4 P20
G1 X30.4 Y53.4 F240
M106 S255
G4 P100
G0 X42.8 Y53.4 F1200
M106 S0
G4 P20
G1 X44.6 Y53.4 F240
M106 S255
G4 P100
G0 X52.5 Y53.4 F1200
M106 S0
G4 P20
G1 X54.3 Y53.4 F240
M106 S255
G4 P100
G0 X54.2 Y53.5 F1200
M106 S0
G4 P20
G1 X52.5 Y53.5 F240
M106 S255
G4 P100
G0 X44.8 Y53.5 F1200
M106 S0
G4 P20
G1 X42.9 Y53.5 F240
M106 S255
G4 P100
G0 X30.3 Y53.5 F1200
M106 S0
G4 P20
G1 X25.0 Y53.5 F240
M106 S255
G4 P100
G0 X25.0 Y53.6 F1200
M106 S0
G4 P20
G1 X30.3 Y53.6 F240
M106 S255
G4 P100
G0 X43.1 Y53.6 F1200
M106 S0
G4 P20
G1 X45.0 Y53.6 F240
M106 S255
G4 P100
G0 X52.5 Y53.6 F1200
M106 S0
G4 P20
G1 X54.2 Y53.6 F240
M106 S255
G4 P100
G0 X54.2 Y53.7 F1200
M106 S0
G4 P20
G1 X52.5 Y53.7 F240
M106 S255
G4 P100
G0 X45.0 Y53.7 F1200
M106 S0
G4 P20
G1 X43.2 Y53.7 F240
M106 S255
G4 P100
G0 X30.3 Y53.7 F1200
M106 S0
G4 P20
G1 X24.9 Y53.7 F240
M106 S255
G4 P100
G0 X24.8 Y53.8 F1200
M106 S0
G4 P20
G1 X30.2 Y53.8 F240
M106 S255
G4 P100
G0 X43.2 Y53.8 F1200
M106 S0
G4 P20
G1 X45.2 Y53.8 F240
M106 S255
G4 P100
G0 X52.5 Y53.8 F1200
M106 S0
G4 P20
G1 X54.2 Y53.8 F240
M106 S255
G4 P100
G0 X54.1 Y53.9 F1200
M106 S0
G4 P20
G1 X52.5 Y53.9 F240
M106 S255
G4 P100
G0 X45.2 Y53.9 F1200
M106 S0
G4 P20
G1 X43.3 Y53.9 F240
M106 S255
G4 P100
G0 X30.0 Y53.9 F1200
M106 S0
G4 P20
G1 X24.7 Y53.9 F240
M106 S255
G4 P100
G0 X24.6 Y54.0 F1200
M106 S0
G4 P20
G1 X30.0 Y54.0 F240
M106 S255
G4 P100
G0 X43.4 Y54.0 F1200
M106 S0
G4 P20
G1 X45.3 Y54.0 F240
M106 S255
G4 P100
G0 X52.5 Y54.0 F1200
M106 S0
G4 P20
G1 X54.1 Y54.0 F240
M106 S255
G4 P100
G0 X54.1 Y54.1 F1200
M106 S0
G4 P20
G1 X52.4 Y54.1 F240
M106 S255
G4 P100
G0 X45.3 Y54.1 F1200
M106 S0
G4 P20
G1 X43.8 Y54.1 F240
M106 S255
G4 P100
G0 X29.9 Y54.1 F1200
M106 S0
G4 P20
G1 X24.6 Y54.1 F240
M106 S255
G4 P100
G0 X24.6 Y54.2 F1200
M106 S0
G4 P20
G1 X29.6 Y54.2 F240
M106 S255
G4 P100
G0 X43.9 Y54.2 F1200
M106 S0
G4 P20
G1 X45.4 Y54.2 F240
M106 S255
G4 P100
G0 X52.4 Y54.2 F1200
M106 S0
G4 P20
G1 X54.0 Y54.2 F240
M106 S255
G4 P100
G0 X53.9 Y54.3 F1200
M106 S0
G4 P20
G1 X52.4 Y54.3 F240
M106 S255
G4 P100
G0 X45.4 Y54.3 F1200
M106 S0
G4 P20
G1 X43.9 Y54.3 F240
M106 S255
G4 P100
G0 X29.6 Y54.3 F1200
M106 S0
G4 P20
G1 X24.6 Y54.3 F240
M106 S255
G4 P100
G0 X24.6 Y54.4 F1200
M106 S0
G4 P20
G1 X29.5 Y54.4 F240
M106 S255
G4 P100
G0 X43.9 Y54.4 F1200
M106 S0
G4 P20
G1 X45.4 Y54.4 F240
M106 S255
G4 P100
G0 X52.4 Y54.4 F1200
M106 S0
G4 P20
G1 X53.9 Y54.4 F240
M106 S255
G4 P100
G0 X53.8 Y54.5 F1200
M106 S0
G4 P20
G1 X52.4 Y54.5 F240
M106 S255
G4 P100
G0 X45.4 Y54.5 F1200
M106 S0
G4 P20
G1 X43.9 Y54.5 F240
M106 S255
G4 P100
G0 X29.2 Y54.5 F1200
M106 S0
G4 P20
G1 X24.4 Y54.5 F240
M106 S255
G4 P100
G0 X24.4 Y54.6 F1200
M106 S0
G4 P20
G1 X29.0 Y54.6 F240
M106 S255
G4 P100
G0 X43.9 Y54.6 F1200
M106 S0
G4 P20
G1 X45.6 Y54.6 F240
M106 S255
G4 P100
G0 X52.3 Y54.6 F1200
M106 S0
G4 P20
G1 X53.8 Y54.6 F240
M106 S255
G4 P100
G0 X53.8 Y54.7 F1200
M106 S0
G4 P20
G1 X52.3 Y54.7 F240
M106 S255
G4 P100
G0 X45.6 Y54.7 F1200
M106 S0
G4 P20
G1 X43.9 Y54.7 F240
M106 S255
G4 P100
G0 X28.9 Y54.7 F1200
M106 S0
G4 P20
G1 X24.4 Y54.7 F240
M106 S255
G4 P100
G0 X24.4 Y54.8 F1200
M106 S0
G4 P20
G1 X28.7 Y54.8 F240
M106 S255
G4 P100
G0 X43.9 Y54.8 F1200
M106 S0
G4 P20
G1 X45.6 Y54.8 F240
M106 S255
G4 P100
G0 X52.3 Y54.8 F1200
M106 S0
G4 P20
G1 X53.7 Y54.8 F240
M106 S255
G4 P100
G0 X53.7 Y54.9 F1200
M106 S0
G4 P20
G1 X52.1 Y54.9 F240
M106 S255
G4 P100
G0 X45.6 Y54.9 F1200
M106 S0
G4 P20
G1 X43.9 Y54.9 F240
M106 S255
G4 P100
G0 X28.4 Y54.9 F1200
M106 S0
G4 P20
G1 X24.4 Y54.9 F240
M106 S255
G4 P100
G0 X24.4 Y55.0 F1200
M106 S0
G4 P20
G1 X28.4 Y55.0 F240
M106 S255
G4 P100
G0 X43.9 Y55.0 F1200
M106 S0
G4 P20
G1 X45.6 Y55.0 F240
M106 S255
G4 P100
G0 X52.1 Y55.0 F1200
M106 S0
G4 P20
G1 X53.7 Y55.0 F240
M106 S255
G4 P100
G0 X53.5 Y55.1 F1200
M106 S0
G4 P20
G1 X52.1 Y55.1 F240
M106 S255
G4 P100
G0 X45.6 Y55.1 F1200
M106 S0
G4 P20
G1 X43.9 Y55.1 F240
M106 S255
G4 P100
G0 X28.1 Y55.1 F1200
M106 S0
G4 P20
G1 X24.4 Y55.1 F240
M106 S255
G4 P100
G0 X24.2 Y55.2 F1200
M106 S0
G4 P20
G1 X27.9 Y55.2 F240
M106 S255
G4 P100
G0 X43.9 Y55.2 F1200
M106 S0
G4 P20
G1 X45.6 Y55.2 F240
M106 S255
G4 P100
G0 X52.0 Y55.2 F1200
M106 S0
G4 P20
G1 X53.5 Y55.2 F240
M106 S255
G4 P100
G0 X53.5 Y55.3 F1200
M106 S0
G4 P20
G1 X52.0 Y55.3 F240
M106 S255
G4 P100
G0 X45.6 Y55.3 F1200
M106 S0
G4 P20
G1 X43.9 Y55.3 F240
M106 S255
G4 P100
G0 X27.7 Y55.3 F1200
M106 S0
G4 P20
G1 X23.5 Y55.3 F240
M106 S255
G4 P100
G0 X23.5 Y55.4 F1200
M106 S0
G4 P20
G1 X27.6 Y55.4 F240
M106 S255
G4 P100
G0 X43.9 Y55.4 F1200
M106 S0
G4 P20
G1 X45.6 Y55.4 F240
M106 S255
G4 P100
G0 X52.0 Y55.4 F1200
M106 S0
G4 P20
G1 X53.4 Y55.4 F240
M106 S255
G4 P100
G0 X53.4 Y55.5 F1200
M106 S0
G4 P20
G1 X51.9 Y55.5 F240
M106 S255
G4 P100
G0 X45.4 Y55.5 F1200
M106 S0
G4 P20
G1 X43.8 Y55.5 F240
M106 S255
G4 P100
G0 X27.5 Y55.5 F1200
M106 S0
G4 P20
G1 X23.1 Y55.5 F240
M106 S255
G4 P100
G0 X22.7 Y55.6 F1200
M106 S0
G4 P20
G1 X27.5 Y55.6 F240
M106 S255
G4 P100
G0 X43.8 Y55.6 F1200
M106 S0
G4 P20
G1 X45.4 Y55.6 F240
M106 S255
G4 P100
G0 X51.9 Y55.6 F1200
M106 S0
G4 P20
G1 X53.3 Y55.6 F240
M106 S255
G4 P100
G0 X53.3 Y55.7 F1200
M106 S0
G4 P20
G1 X51.9 Y55.7 F240
M106 S255
G4 P100
G0 X45.4 Y55.7 F1200
M106 S0
G4 P20
G1 X43.8 Y55.7 F240
M106 S255
G4 P100
G0 X27.5 Y55.7 F1200
M106 S0
G4 P20
G1 X22.6 Y55.7 F240
M106 S255
G4 P100
G0 X22.3 Y55.8 F1200
M106 S0
G4 P20
G1 X27.5 Y55.8 F240
M106 S255
G4 P100
G0 X43.7 Y55.8 F1200
M106 S0
G4 P20
G1 X45.4 Y55.8 F240
M106 S255
G4 P100
G0 X51.9 Y55.8 F1200
M106 S0
G4 P20
G1 X53.3 Y55.8 F240
M106 S255
G4 P100
G0 X53.1 Y55.9 F1200
M106 S0
G4 P20
G1 X51.7 Y55.9 F240
M106 S255
G4 P100
G0 X45.3 Y55.9 F1200
M106 S0
G4 P20
G1 X43.6 Y55.9 F240
M106 S255
G4 P100
G0 X27.3 Y55.9 F1200
M106 S0
G4 P20
G1 X22.1 Y55.9 F240
M106 S255
G4 P100
G0 X22.0 Y56.0 F1200
M106 S0
G4 P20
G1 X27.3 Y56.0 F240
M106 S255
G4 P100
G0 X43.5 Y56.0 F1200
M106 S0
G4 P20
G1 X45.3 Y56.0 F240
M106 S255
G4 P100
G0 X51.6 Y56.0 F1200
M106 S0
G4 P20
G1 X53.1 Y56.0 F240
M106 S255
G4 P100
G0 X53.1 Y56.1 F1200
M106 S0
G4 P20
G1 X51.6 Y56.1 F240
M106 S255
G4 P100
G0 X45.3 Y56.1 F1200
M106 S0
G4 P20
G1 X43.5 Y56.1 F240
M106 S255
G4 P100
G0 X27.3 Y56.1 F1200
M106 S0
G4 P20
G1 X22.0 Y56.1 F240
M106 S255
G4 P100
G0 X21.9 Y56.2 F1200
M106 S0
G4 P20
G1 X27.3 Y56.2 F240
M106 S255
G4 P100
G0 X43.5 Y56.2 F1200
M106 S0
G4 P20
G1 X45.2 Y56.2 F240
M106 S255
G4 P100
G0 X51.6 Y56.2 F1200
M106 S0
G4 P20
G1 X53.0 Y56.2 F240
M106 S255
G4 P100
G0 X53.0 Y56.3 F1200
M106 S0
G4 P20
G1 X51.5 Y56.3 F240
M106 S255
G4 P100
G0 X45.2 Y56.3 F1200
M106 S0
G4 P20
G1 X43.4 Y56.3 F240
M106 S255
G4 P100
G0 X27.3 Y56.3 F1200
M106 S0
G4 P20
G1 X21.9 Y56.3 F240
M106 S255
G4 P100
G0 X21.8 Y56.4 F1200
M106 S0
G4 P20
G1 X27.3 Y56.4 F240
M106 S255
G4 P100
G0 X43.4 Y56.4 F1200
M106 S0
G4 P20
G1 X45.2 Y56.4 F240
M106 S255
G4 P100
G0 X51.5 Y56.4 F1200
M106 S0
G4 P20
G1 X53.0 Y56.4 F240
M106 S255
G4 P100
G0 X53.0 Y56.5 F1200
M106 S0
G4 P20
G1 X51.5 Y56.5 F240
M106 S255
G4 P100
G0 X45.2 Y56.5 F1200
M106 S0
G4 P20
G1 X43.3 Y56.5 F240
M106 S255
G4 P100
G0 X27.3 Y56.5 F1200
M106 S0
G4 P20
G1 X21.7 Y56.5 F240
M106 S255
G4 P100
G0 X21.7 Y56.6 F1200
M106 S0
G4 P20
G1 X27.3 Y56.6 F240
M106 S255
G4 P100
G0 X43.2 Y56.6 F1200
M106 S0
G4 P20
G1 X45.0 Y56.6 F240
M106 S255
G4 P100
G0 X51.3 Y56.6 F1200
M106 S0
G4 P20
G1 X52.9 Y56.6 F240
M106 S255
G4 P100
G0 X52.9 Y56.7 F1200
M106 S0
G4 P20
G1 X51.3 Y56.7 F240
M106 S255
G4 P100
G0 X45.0 Y56.7 F1200
M106 S0
G4 P20
G1 X43.1 Y56.7 F240
M106 S255
G4 P100
G0 X27.3 Y56.7 F1200
M106 S0
G4 P20
G1 X21.6 Y56.7 F240
M106 S255
G4 P100
G0 X21.6 Y56.8 F1200
M106 S0
G4 P20
G1 X27.3 Y56.8 F240
M106 S255
G4 P100
G0 X43.1 Y56.8 F1200
M106 S0
G4 P20
G1 X45.0 Y56.8 F240
M106 S255
G4 P100
G0 X51.3 Y56.8 F1200
M106 S0
G4 P20
G1 X52.9 Y56.8 F240
M106 S255
G4 P100
G0 X52.7 Y56.9 F1200
M106 S0
G4 P20
G1 X51.2 Y56.9 F240
M106 S255
G4 P100
G0 X44.9 Y56.9 F1200
M106 S0
G4 P20
G1 X42.9 Y56.9 F240
M106 S255
G4 P100
G0 X27.3 Y56.9 F1200
M106 S0
G4 P20
G1 X21.6 Y56.9 F240
M106 S255
G4 P100
G0 X21.5 Y57.0 F1200
M106 S0
G4 P20
G1 X27.3 Y57.0 F240
M106 S255
G4 P100
G0 X42.8 Y57.0 F1200
M106 S0
G4 P20
G1 X44.9 Y57.0 F240
M106 S255
G4 P100
G0 X51.2 Y57.0 F1200
M106 S0
G4 P20
G1 X52.7 Y57.0 F240
M106 S255
G4 P100
G0 X52.7 Y57.1 F1200
M106 S0
G4 P20
G1 X51.2 Y57.1 F240
M106 S255
G4 P100
G0 X44.9 Y57.1 F1200
M106 S0
G4 P20
G1 X42.8 Y57.1 F240
M106 S255
G4 P100
G0 X27.3 Y57.1 F1200
M106 S0
G4 P20
G1 X21.5 Y57.1 F240
M106 S255
G4 P100
G0 X21.5 Y57.2 F1200
M106 S0
G4 P20
G1 X27.3 Y57.2 F240
M106 S255
G4 P100
G0 X42.7 Y57.2 F1200
M106 S0
G4 P20
G1 X44.9 Y57.2 F240
M106 S255
G4 P100
G0 X51.1 Y57.2 F1200
M106 S0
G4 P20
G1 X52.7 Y57.2 F240
M106 S255
G4 P100
G0 X52.6 Y57.3 F1200
M106 S0
G4 P20
G1 X51.1 Y57.3 F240
M106 S255
G4 P100
G0 X44.8 Y57.3 F1200
M106 S0
G4 P20
G1 X42.5 Y57.3 F240
M106 S255
G4 P100
G0 X27.3 Y57.3 F1200
M106 S0
G4 P20
G1 X21.5 Y57.3 F240
M106 S255
G4 P100
G0 X21.5 Y57.4 F1200
M106 S0
G4 P20
G1 X27.3 Y57.4 F240
M106 S255
G4 P100
G0 X42.5 Y57.4 F1200
M106 S0
G4 P20
G1 X44.8 Y57.4 F240
M106 S255
G4 P100
G0 X51.0 Y57.4 F1200
M106 S0
G4 P20
G1 X52.6 Y57.4 F240
M106 S255
G4 P100
G0 X52.6 Y57.5 F1200
M106 S0
G4 P20
G1 X50.9 Y57.5 F240
M106 S255
G4 P100
G0 X44.8 Y57.5 F1200
M106 S0
G4 P20
G1 X42.4 Y57.5 F240
M106 S255
G4 P100
G0 X27.3 Y57.5 F1200
M106 S0
G4 P20
G1 X21.5 Y57.5 F240
M106 S255
G4 P100
G0 X21.5 Y57.6 F1200
M106 S0
G4 P20
G1 X27.3 Y57.6 F240
M106 S255
G4 P100
G0 X42.4 Y57.6 F1200
M106 S0
G4 P20
G1 X44.8 Y57.6 F240
M106 S255
G4 P100
G0 X50.8 Y57.6 F1200
M106 S0
G4 P20
G1 X52.6 Y57.6 F240
M106 S255
G4 P100
G0 X52.6 Y57.7 F1200
M106 S0
G4 P20
G1 X50.7 Y57.7 F240
M106 S255
G4 P100
G0 X44.8 Y57.7 F1200
M106 S0
G4 P20
G1 X42.3 Y57.7 F240
M106 S255
G4 P100
G0 X27.3 Y57.7 F1200
M106 S0
G4 P20
G1 X21.5 Y57.7 F240
M106 S255
G4 P100
G0 X21.6 Y57.8 F1200
M106 S0
G4 P20
G1 X27.3 Y57.8 F240
M106 S255
G4 P100
G0 X42.3 Y57.8 F1200
M106 S0
G4 P20
G1 X44.6 Y57.8 F240
M106 S255
G4 P100
G0 X50.6 Y57.8 F1200
M106 S0
G4 P20
G1 X52.6 Y57.8 F240
M106 S255
G4 P100
G0 X52.5 Y57.9 F1200
M106 S0
G4 P20
G1 X50.5 Y57.9 F240
M106 S255
G4 P100
G0 X44.6 Y57.9 F1200
M106 S0
G4 P20
G1 X42.1 Y57.9 F240
M106 S255
G4 P100
G0 X27.3 Y57.9 F1200
M106 S0
G4 P20
G1 X21.6 Y57.9 F240
M106 S255
G4 P100
G0 X21.7 Y58.0 F1200
M106 S0
G4 P20
G1 X27.3 Y58.0 F240
M106 S255
G4 P100
G0 X42.0 Y58.0 F1200
M106 S0
G4 P20
G1 X44.6 Y58.0 F240
M106 S255
G4 P100
G0 X50.2 Y58.0 F1200
M106 S0
G4 P20
G1 X52.5 Y58.0 F240
M106 S255
G4 P100
G0 X52.5 Y58.1 F1200
M106 S0
G4 P20
G1 X50.2 Y58.1 F240
M106 S255
G4 P100
G0 X44.6 Y58.1 F1200
M106 S0
G4 P20
G1 X42.0 Y58.1 F240
M106 S255
G4 P100
G0 X27.3 Y58.1 F1200
M106 S0
G4 P20
G1 X21.7 Y58.1 F240
M106 S255
G4 P100
G0 X21.9 Y58.2 F1200
M106 S0
G4 P20
G1 X27.3 Y58.2 F240
M106 S255
G4 P100
G0 X41.9 Y58.2 F1200
M106 S0
G4 P20
G1 X44.5 Y58.2 F240
M106 S255
G4 P100
G0 X50.1 Y58.2 F1200
M106 S0
G4 P20
G1 X52.5 Y58.2 F240
M106 S255
G4 P100
G0 X52.5 Y58.3 F1200
M106 S0
G4 P20
G1 X49.7 Y58.3 F240
M106 S255
G4 P100
G0 X44.5 Y58.3 F1200
M106 S0
G4 P20
G1 X41.7 Y58.3 F240
M106 S255
G4 P100
G0 X27.3 Y58.3 F1200
M106 S0
G4 P20
G1 X21.9 Y58.3 F240
M106 S255
G4 P100
G0 X21.9 Y58.4 F1200
M106 S0
G4 P20
G1 X27.3 Y58.4 F240
M106 S255
G4 P100
G0 X41.7 Y58.4 F1200
M106 S0
G4 P20
G1 X44.5 Y58.4 F240
M106 S255
G4 P100
G0 X49.6 Y58.4 F1200
M106 S0
G4 P20
G1 X52.5 Y58.4 F240
M106 S255
G4 P100
G0 X52.5 Y58.5 F1200
M106 S0
G4 P20
G1 X49.4 Y58.5 F240
M106 S255
G4 P100
G0 X44.5 Y58.5 F1200
M106 S0
G4 P20
G1 X41.6 Y58.5 F240
M106 S255
G4 P100
G0 X27.3 Y58.5 F1200
M106 S0
G4 P20
G1 X22.0 Y58.5 F240
M106 S255
G4 P100
G0 X22.0 Y58.6 F1200
M106 S0
G4 P20
G1 X27.3 Y58.6 F240
M106 S255
G4 P100
G0 X41.5 Y58.6 F1200
M106 S0
G4 P20
G1 X44.4 Y58.6 F240
M106 S255
G4 P100
G0 X48.9 Y58.6 F1200
M106 S0
G4 P20
G1 X52.3 Y58.6 F240
M106 S255
G4 P100
G0 X52.3 Y58.7 F1200
M106 S0
G4 P20
G1 X48.5 Y58.7 F240
M106 S255
G4 P100
G0 X44.3 Y58.7 F1200
M106 S0
G4 P20
G1 X41.5 Y58.7 F240
M106 S255
G4 P100
G0 X27.3 Y58.7 F1200
M106 S0
G4 P20
G1 X22.0 Y58.7 F240
M106 S255
G4 P100
G0 X22.0 Y58.8 F1200
M106 S0
G4 P20
G1 X27.2 Y58.8 F240
M106 S255
G4 P100
G0 X41.4 Y58.8 F1200
M106 S0
G4 P20
G1 X44.3 Y58.8 F240
M106 S255
G4 P100
G0 X48.5 Y58.8 F1200
M106 S0
G4 P20
G1 X52.3 Y58.8 F240
M106 S255
G4 P100
G0 X52.2 Y58.9 F1200
M106 S0
G4 P20
G1 X48.1 Y58.9 F240
M106 S255
G4 P100
G0 X44.3 Y58.9 F1200
M106 S0
G4 P20
G1 X41.3 Y58.9 F240
M106 S255
G4 P100
G0 X27.2 Y58.9 F1200
M106 S0
G4 P20
G1 X22.1 Y58.9 F240
M106 S255
G4 P100
G0 X22.1 Y59.0 F1200
M106 S0
G4 P20
G1 X27.2 Y59.0 F240
M106 S255
G4 P100
G0 X41.2 Y59.0 F1200
M106 S0
G4 P20
G1 X44.3 Y59.0 F240
M106 S255
G4 P100
G0 X47.8 Y59.0 F1200
M106 S0
G4 P20
G1 X52.2 Y59.0 F240
M106 S255
G4 P100
G0 X52.2 Y59.1 F1200
M106 S0
G4 P20
G1 X47.8 Y59.1 F240
M106 S255
G4 P100
G0 X44.3 Y59.1 F1200
M106 S0
G4 P20
G1 X41.2 Y59.1 F240
M106 S255
G4 P100
G0 X27.2 Y59.1 F1200
M106 S0
G4 P20
G1 X22.1 Y59.1 F240
M106 S255
G4 P100
G0 X22.1 Y59.2 F1200
M106 S0
G4 P20
G1 X27.2 Y59.2 F240
M106 S255
G4 P100
G0 X41.1 Y59.2 F1200
M106 S0
G4 P20
G1 X44.2 Y59.2 F240
M106 S255
G4 P100
G0 X47.5 Y59.2 F1200
M106 S0
G4 P20
G1 X52.1 Y59.2 F240
M106 S255
G4 P100
G0 X51.9 Y59.3 F1200
M106 S0
G4 P20
G1 X47.1 Y59.3 F240
M106 S255
G4 P100
G0 X44.2 Y59.3 F1200
M106 S0
G4 P20
G1 X40.9 Y59.3 F240
M106 S255
G4 P100
G0 X27.2 Y59.3 F1200
M106 S0
G4 P20
G1 X22.1 Y59.3 F240
M106 S255
G4 P100
G0 X22.1 Y59.4 F1200
M106 S0
G4 P20
G1 X27.2 Y59.4 F240
M106 S255
G4 P100
G0 X40.8 Y59.4 F1200
M106 S0
G4 P20
G1 X44.2 Y59.4 F240
M106 S255
G4 P100
G0 X47.0 Y59.4 F1200
M106 S0
G4 P20
G1 X51.9 Y59.4 F240
M106 S255
G4 P100
G0 X51.8 Y59.5 F1200
M106 S0
G4 P20
G1 X46.9 Y59.5 F240
M106 S255
G4 P100
G0 X44.2 Y59.5 F1200
M106 S0
G4 P20
G1 X40.8 Y59.5 F240
M106 S255
G4 P100
G0 X27.2 Y59.5 F1200
M106 S0
G4 P20
G1 X22.1 Y59.5 F240
M106 S255
G4 P100
G0 X22.1 Y59.6 F1200
M106 S0
G4 P20
G1 X27.2 Y59.6 F240
M106 S255
G4 P100
G0 X40.8 Y59.6 F1200
M106 S0
G4 P20
G1 X44.2 Y59.6 F240
M106 S255
G4 P100
G0 X46.6 Y59.6 F1200
M106 S0
G4 P20
G1 X51.7 Y59.6 F240
M106 S255
G4 P100
G0 X51.6 Y59.7 F1200
M106 S0
G4 P20
G1 X46.2 Y59.7 F240
M106 S255
G4 P100
G0 X44.2 Y59.7 F1200
M106 S0
G4 P20
G1 X40.7 Y59.7 F240
M106 S255
G4 P100
G0 X27.2 Y59.7 F1200
M106 S0
G4 P20
G1 X22.1 Y59.7 F240
M106 S255
G4 P100
G0 X22.1 Y59.8 F1200
M106 S0
G4 P20
G1 X27.2 Y59.8 F240
M106 S255
G4 P100
G0 X40.6 Y59.8 F1200
M106 S0
G4 P20
G1 X44.2 Y59.8 F240
M106 S255
G4 P100
G0 X46.2 Y59.8 F1200
M106 S0
G4 P20
G1 X51.5 Y59.8 F240
M106 S255
G4 P100
G0 X51.4 Y59.9 F1200
M106 S0
G4 P20
G1 X45.9 Y59.9 F240
M106 S255
G4 P100
G0 X44.1 Y59.9 F1200
M106 S0
G4 P20
G1 X40.5 Y59.9 F240
M106 S255
G4 P100
G0 X27.2 Y59.9 F1200
M106 S0
G4 P20
G1 X22.1 Y59.9 F240
M106 S255
G4 P100
G0 X22.1 Y60.0 F1200
M106 S0
G4 P20
G1 X27.2 Y60.0 F240
M106 S255
G4 P100
G0 X40.4 Y60.0 F1200
M106 S0
G4 P20
G1 X44.1 Y60.0 F240
M106 S255
G4 P100
G0 X45.2 Y60.0 F1200
M106 S0
G4 P20
G1 X51.1 Y60.0 F240
M106 S255
G4 P100
G0 X51.1 Y60.1 F1200
M106 S0
G4 P20
G1 X45.2 Y60.1 F240
M106 S255
G4 P100
G0 X44.1 Y60.1 F1200
M106 S0
G4 P20
G1 X40.4 Y60.1 F240
M106 S255
G4 P100
G0 X27.2 Y60.1 F1200
M106 S0
G4 P20
G1 X22.1 Y60.1 F240
M106 S255
G4 P100
G0 X22.1 Y60.2 F1200
M106 S0
G4 P20
G1 X27.2 Y60.2 F240
M106 S255
G4 P100
G0 X40.4 Y60.2 F1200
M106 S0
G4 P20
G1 X44.1 Y60.2 F240
M106 S255
G4 P100
G0 X44.6 Y60.2 F1200
M106 S0
G4 P20
G1 X51.0 Y60.2 F240
M106 S255
G4 P100
G0 X50.8 Y60.3 F1200
M106 S0
G4 P20
G1 X40.2 Y60.3 F240
M106 S255
G4 P100
G0 X27.1 Y60.3 F1200
M106 S0
G4 P20
G1 X22.1 Y60.3 F240
M106 S255
G4 P100
G0 X22.1 Y60.4 F1200
M106 S0
G4 P20
G1 X27.1 Y60.4 F240
M106 S255
G4 P100
G0 X40.1 Y60.4 F1200
M106 S0
G4 P20
G1 X50.8 Y60.4 F240
M106 S255
G4 P100
G0 X50.7 Y60.5 F1200
M106 S0
G4 P20
G1 X40.1 Y60.5 F240
M106 S255
G4 P100
G0 X27.1 Y60.5 F1200
M106 S0
G4 P20
G1 X22.1 Y60.5 F240
M106 S255
G4 P100
G0 X22.1 Y60.6 F1200
M106 S0
G4 P20
G1 X27.1 Y60.6 F240
M106 S255
G4 P100
G0 X40.0 Y60.6 F1200
M106 S0
G4 P20
G1 X50.4 Y60.6 F240
M106 S255
G4 P100
G0 X50.4 Y60.7 F1200
M106 S0
G4 P20
G1 X40.0 Y60.7 F240
M106 S255
G4 P100
G0 X27.1 Y60.7 F1200
M106 S0
G4 P20
G1 X22.1 Y60.7 F240
M106 S255
G4 P100
G0 X22.1 Y60.8 F1200
M106 S0
G4 P20
G1 X27.1 Y60.8 F240
M106 S255
G4 P100
G0 X40.0 Y60.8 F1200
M106 S0
G4 P20
G1 X50.3 Y60.8 F240
M106 S255
G4 P100
G0 X50.2 Y60.9 F1200
M106 S0
G4 P20
G1 X39.8 Y60.9 F240
M106 S255
G4 P100
G0 X36.8 Y60.9 F1200
M106 S0
G4 P20
G1 X34.7 Y60.9 F240
M106 S255
G4 P100
G0 X27.1 Y60.9 F1200
M106 S0
G4 P20
G1 X22.1 Y60.9 F240
M106 S255
G4 P100
G0 X22.0 Y61.0 F1200
M106 S0
G4 P20
G1 X27.1 Y61.0 F240
M106 S255
G4 P100
G0 X33.5 Y61.0 F1200
M106 S0
G4 P20
G1 X38.1 Y61.0 F240
M106 S255
G4 P100
G0 X39.8 Y61.0 F1200
M106 S0
G4 P20
G1 X50.0 Y61.0 F240
M106 S255
G4 P100
G0 X50.0 Y61.1 F1200
M106 S0
G4 P20
G1 X39.8 Y61.1 F240
M106 S255
G4 P100
G0 X38.2 Y61.1 F1200
M106 S0
G4 P20
G1 X33.4 Y61.1 F240
M106 S255
G4 P100
G0 X27.1 Y61.1 F1200
M106 S0
G4 P20
G1 X22.0 Y61.1 F240
M106 S255
G4 P100
G0 X22.0 Y61.2 F1200
M106 S0
G4 P20
G1 X27.1 Y61.2 F240
M106 S255
G4 P100
G0 X32.8 Y61.2 F1200
M106 S0
G4 P20
G1 X39.0 Y61.2 F240
M106 S255
G4 P100
G0 X39.7 Y61.2 F1200
M106 S0
G4 P20
G1 X49.9 Y61.2 F240
M106 S255
G4 P100
G0 X49.6 Y61.3 F1200
M106 S0
G4 P20
G1 X32.3 Y61.3 F240
M106 S255
G4 P100
G0 X27.1 Y61.3 F1200
M106 S0
G4 P20
G1 X22.0 Y61.3 F240
M106 S255
G4 P100
G0 X22.0 Y61.4 F1200
M106 S0
G4 P20
G1 X27.1 Y61.4 F240
M106 S255
G4 P100
G0 X31.9 Y61.4 F1200
M106 S0
G4 P20
G1 X49.6 Y61.4 F240
M106 S255
G4 P100
G0 X49.5 Y61.5 F1200
M106 S0
G4 P20
G1 X31.9 Y61.5 F240
M106 S255
G4 P100
G0 X26.9 Y61.5 F1200
M106 S0
G4 P20
G1 X22.0 Y61.5 F240
M106 S255
G4 P100
G0 X21.9 Y61.6 F1200
M106 S0
G4 P20
G1 X26.9 Y61.6 F240
M106 S255
G4 P100
G0 X31.5 Y61.6 F1200
M106 S0
G4 P20
G1 X49.4 Y61.6 F240
M106 S255
G4 P100
G0 X49.3 Y61.7 F1200
M106 S0
G4 P20
G1 X31.2 Y61.7 F240
M106 S255
G4 P100
G0 X26.9 Y61.7 F1200
M106 S0
G4 P20
G1 X21.9 Y61.7 F240
M106 S255
G4 P100
G0 X21.9 Y61.8 F1200
M106 S0
G4 P20
G1 X26.9 Y61.8 F240
M106 S255
G4 P100
G0 X31.2 Y61.8 F1200
M106 S0
G4 P20
G1 X49.2 Y61.8 F240
M106 S255
G4 P100
G0 X49.1 Y61.9 F1200
M106 S0
G4 P20
G1 X30.8 Y61.9 F240
M106 S255
G4 P100
G0 X26.9 Y61.9 F1200
M106 S0
G4 P20
G1 X21.9 Y61.9 F240
M106 S255
G4 P100
G0 X21.7 Y62.0 F1200
M106 S0
G4 P20
G1 X26.9 Y62.0 F240
M106 S255
G4 P100
G0 X30.5 Y62.0 F1200
M106 S0
G4 P20
G1 X49.0 Y62.0 F240
M106 S255
G4 P100
G0 X48.9 Y62.1 F1200
M106 S0
G4 P20
G1 X30.4 Y62.1 F240
M106 S255
G4 P100
G0 X26.9 Y62.1 F1200
M106 S0
G4 P20
G1 X21.7 Y62.1 F240
M106 S255
G4 P100
G0 X21.7 Y62.2 F1200
M106 S0
G4 P20
G1 X26.9 Y62.2 F240
M106 S255
G4 P100
G0 X30.2 Y62.2 F1200
M106 S0
G4 P20
G1 X48.8 Y62.2 F240
M106 S255
G4 P100
G0 X48.7 Y62.3 F1200
M106 S0
G4 P20
G1 X30.1 Y62.3 F240
M106 S255
G4 P100
G0 X26.9 Y62.3 F1200
M106 S0
G4 P20
G1 X21.6 Y62.3 F240
M106 S255
G4 P100
G0 X21.5 Y62.4 F1200
M106 S0
G4 P20
G1 X26.9 Y62.4 F240
M106 S255
G4 P100
G0 X29.8 Y62.4 F1200
M106 S0
G4 P20
G1 X48.7 Y62.4 F240
M106 S255
G4 P100
G0 X48.5 Y62.5 F1200
M106 S0
G4 P20
G1 X29.8 Y62.5 F240
M106 S255
G4 P100
G0 X26.9 Y62.5 F1200
M106 S0
G4 P20
G1 X21.5 Y62.5 F240
M106 S255
G4 P100
G0 X21.5 Y62.6 F1200
M106 S0
G4 P20
G1 X26.9 Y62.6 F240
M106 S255
G4 P100
G0 X29.6 Y62.6 F1200
M106 S0
G4 P20
G1 X48.3 Y62.6 F240
M106 S255
G4 P100
G0 X48.2 Y62.7 F1200
M106 S0
G4 P20
G1 X29.4 Y62.7 F240
M106 S255
G4 P100
G0 X26.9 Y62.7 F1200
M106 S0
G4 P20
G1 X21.3 Y62.7 F240
M106 S255
G4 P100
G0 X21.3 Y62.8 F1200
M106 S0
G4 P20
G1 X26.9 Y62.8 F240
M106 S255
G4 P100
G0 X29.4 Y62.8 F1200
M106 S0
G4 P20
G1 X48.1 Y62.8 F240
M106 S255
G4 P100
G0 X48.0 Y62.9 F1200
M106 S0
G4 P20
G1 X29.2 Y62.9 F240
M106 S255
G4 P100
G0 X26.9 Y62.9 F1200
M106 S0
G4 P20
G1 X21.2 Y62.9 F240
M106 S255
G4 P100
G0 X21.2 Y63.0 F1200
M106 S0
G4 P20
G1 X26.9 Y63.0 F240
M106 S255
G4 P100
G0 X29.0 Y63.0 F1200
M106 S0
G4 P20
G1 X48.0 Y63.0 F240
M106 S255
G4 P100
G0 X48.0 Y63.1 F1200
M106 S0
G4 P20
G1 X28.9 Y63.1 F240
M106 S255
G4 P100
G0 X26.9 Y63.1 F1200
M106 S0
G4 P20
G1 X21.1 Y63.1 F240
M106 S255
G4 P100
G0 X21.0 Y63.2 F1200
M106 S0
G4 P20
G1 X26.9 Y63.2 F240
M106 S255
G4 P100
G0 X28.9 Y63.2 F1200
M106 S0
G4 P20
G1 X47.9 Y63.2 F240
M106 S255
G4 P100
G0 X47.7 Y63.3 F1200
M106 S0
G4 P20
G1 X28.6 Y63.3 F240
M106 S255
G4 P100
G0 X26.9 Y63.3 F1200
M106 S0
G4 P20
G1 X20.9 Y63.3 F240
M106 S255
G4 P100
G0 X20.8 Y63.4 F1200
M106 S0
G4 P20
G1 X26.9 Y63.4 F240
M106 S255
G4 P100
G0 X28.5 Y63.4 F1200
M106 S0
G4 P20
G1 X47.7 Y63.4 F240
M106 S255
G4 P100
G0 X47.6 Y63.5 F1200
M106 S0
G4 P20
G1 X28.5 Y63.5 F240
M106 S255
G4 P100
G0 X26.9 Y63.5 F1200
M106 S0
G4 P20
G1 X20.8 Y63.5 F240
M106 S255
G4 P100
G0 X20.7 Y63.6 F1200
M106 S0
G4 P20
G1 X26.9 Y63.6 F240
M106 S255
G4 P100
G0 X28.4 Y63.6 F1200
M106 S0
G4 P20
G1 X47.5 Y63.6 F240
M106 S255
G4 P100
G0 X47.3 Y63.7 F1200
M106 S0
G4 P20
G1 X28.2 Y63.7 F240
M106 S255
G4 P100
G0 X26.9 Y63.7 F1200
M106 S0
G4 P20
G1 X20.5 Y63.7 F240
M106 S255
G4 P100
G0 X20.5 Y63.8 F1200
M106 S0
G4 P20
G1 X27.0 Y63.8 F240
M106 S255
G4 P100
G0 X28.2 Y63.8 F1200
M106 S0
G4 P20
G1 X47.3 Y63.8 F240
M106 S255
G4 P100
G0 X47.2 Y63.9 F1200
M106 S0
G4 P20
G1 X28.1 Y63.9 F240
M106 S255
G4 P100
G0 X27.1 Y63.9 F1200
M106 S0
G4 P20
G1 X20.4 Y63.9 F240
M106 S255
G4 P100
G0 X20.2 Y64.0 F1200
M106 S0
G4 P20
G1 X27.1 Y64.0 F240
M106 S255
G4 P100
G0 X27.9 Y64.0 F1200
M106 S0
G4 P20
G1 X47.1 Y64.0 F240
M106 S255
G4 P100
G0 X47.0 Y64.1 F1200
M106 S0
G4 P20
G1 X27.8 Y64.1 F240
M106 S255
G4 P100
G0 X27.2 Y64.1 F1200
M106 S0
G4 P20
G1 X20.1 Y64.1 F240
M106 S255
G4 P100
G0 X20.1 Y64.2 F1200
M106 S0
G4 P20
G1 X27.2 Y64.2 F240
M106 S255
G4 P100
G0 X27.8 Y64.2 F1200
M106 S0
G4 P20
G1 X46.9 Y64.2 F240
M106 S255
G4 P100
G0 X46.8 Y64.3 F1200
M106 S0
G4 P20
G1 X27.7 Y64.3 F240
M106 S255
G4 P100
G0 X27.2 Y64.3 F1200
M106 S0
G4 P20
G1 X19.8 Y64.3 F240
M106 S255
G4 P100
G0 X19.7 Y64.4 F1200
M106 S0
G4 P20
G1 X46.7 Y64.4 F240
M106 S255
G4 P100
G0 X46.6 Y64.5 F1200
M106 S0
G4 P20
G1 X19.7 Y64.5 F240
M106 S255
G4 P100
G0 X19.6 Y64.6 F1200
M106 S0
G4 P20
G1 X46.5 Y64.6 F240
M106 S255
G4 P100
G0 X46.5 Y64.7 F1200
M106 S0
G4 P20
G1 X19.4 Y64.7 F240
M106 S255
G4 P100
G0 X8.7 Y64.7 F1200
M106 S0
G4 P20
G1 X7.5 Y64.7 F240
M106 S255
G4 P100
G0 X7.4 Y64.8 F1200
M106 S0
G4 P20
G1 X8.8 Y64.8 F240
M106 S255
G4 P100
G0 X19.3 Y64.8 F1200
M106 S0
G4 P20
G1 X46.5 Y64.8 F240
M106 S255
G4 P100
G0 X46.4 Y64.9 F1200
M106 S0
G4 P20
G1 X19.3 Y64.9 F240
M106 S255
G4 P100
G0 X9.4 Y64.9 F1200
M106 S0
G4 P20
G1 X6.7 Y64.9 F240
M106 S255
G4 P100
G0 X6.3 Y65.0 F1200
M106 S0
G4 P20
G1 X9.8 Y65.0 F240
M106 S255
G4 P100
G0 X19.2 Y65.0 F1200
M106 S0
G4 P20
G1 X46.2 Y65.0 F240
M106 S255
G4 P100
G0 X46.2 Y65.1 F1200
M106 S0
G4 P20
G1 X18.9 Y65.1 F240
M106 S255
G4 P100
G0 X10.0 Y65.1 F1200
M106 S0
G4 P20
G1 X6.9 Y65.1 F240
M106 S255
G4 P100
G0 X7.0 Y65.2 F1200
M106 S0
G4 P20
G1 X10.1 Y65.2 F240
M106 S255
G4 P100
G0 X18.9 Y65.2 F1200
M106 S0
G4 P20
G1 X46.1 Y65.2 F240
M106 S255
G4 P100
G0 X46.0 Y65.3 F1200
M106 S0
G4 P20
G1 X18.8 Y65.3 F240
M106 S255
G4 P100
G0 X10.3 Y65.3 F1200
M106 S0
G4 P20
G1 X7.4 Y65.3 F240
M106 S255
G4 P100
G0 X7.8 Y65.4 F1200
M106 S0
G4 P20
G1 X10.6 Y65.4 F240
M106 S255
G4 P100
G0 X18.6 Y65.4 F1200
M106 S0
G4 P20
G1 X45.9 Y65.4 F240
M106 S255
G4 P100
G0 X45.8 Y65.5 F1200
M106 S0
G4 P20
G1 X18.6 Y65.5 F240
M106 S255
G4 P100
G0 X10.6 Y65.5 F1200
M106 S0
G4 P20
G1 X7.8 Y65.5 F240
M106 S255
G4 P100
G0 X8.0 Y65.6 F1200
M106 S0
G4 P20
G1 X10.7 Y65.6 F240
M106 S255
G4 P100
G0 X18.5 Y65.6 F1200
M106 S0
G4 P20
G1 X45.8 Y65.6 F240
M106 S255
G4 P100
G0 X45.7 Y65.7 F1200
M106 S0
G4 P20
G1 X18.4 Y65.7 F240
M106 S255
G4 P100
G0 X11.0 Y65.7 F1200
M106 S0
G4 P20
G1 X8.2 Y65.7 F240
M106 S255
G4 P100
G0 X8.2 Y65.8 F1200
M106 S0
G4 P20
G1 X11.1 Y65.8 F240
M106 S255
G4 P100
G0 X18.1 Y65.8 F1200
M106 S0
G4 P20
G1 X45.7 Y65.8 F240
M106 S255
G4 P100
G0 X45.7 Y65.9 F1200
M106 S0
G4 P20
G1 X18.1 Y65.9 F240
M106 S255
G4 P100
G0 X11.1 Y65.9 F1200
M106 S0
G4 P20
G1 X8.2 Y65.9 F240
M106 S255
G4 P100
G0 X7.8 Y66.0 F1200
M106 S0
G4 P20
G1 X11.3 Y66.0 F240
M106 S255
G4 P100
G0 X18.0 Y66.0 F1200
M106 S0
G4 P20
G1 X45.6 Y66.0 F240
M106 S255
G4 P100
G0 X45.6 Y66.1 F1200
M106 S0
G4 P20
G1 X17.8 Y66.1 F240
M106 S255
G4 P100
G0 X11.4 Y66.1 F1200
M106 S0
G4 P20
G1 X7.3 Y66.1 F240
M106 S255
G4 P100
G0 X7.3 Y66.2 F1200
M106 S0
G4 P20
G1 X11.4 Y66.2 F240
M106 S255
G4 P100
G0 X17.8 Y66.2 F1200
M106 S0
G4 P20
G1 X45.6 Y66.2 F240
M106 S255
G4 P100
G0 X45.6 Y66.3 F1200
M106 S0
G4 P20
G1 X17.7 Y66.3 F240
M106 S255
G4 P100
G0 X11.5 Y66.3 F1200
M106 S0
G4 P20
G1 X6.9 Y66.3 F240
M106 S255
G4 P100
G0 X6.6 Y66.4 F1200
M106 S0
G4 P20
G1 X11.7 Y66.4 F240
M106 S255
G4 P100
G0 X17.5 Y66.4 F1200
M106 S0
G4 P20
G1 X45.6 Y66.4 F240
M106 S255
G4 P100
G0 X45.6 Y66.5 F1200
M106 S0
G4 P20
G1 X17.5 Y66.5 F240
M106 S255
G4 P100
G0 X11.7 Y66.5 F1200
M106 S0
G4 P20
G1 X6.5 Y66.5 F240
M106 S255
G4 P100
G0 X6.3 Y66.6 F1200
M106 S0
G4 P20
G1 X11.8 Y66.6 F240
M106 S255
G4 P100
G0 X17.4 Y66.6 F1200
M106 S0
G4 P20
G1 X45.6 Y66.6 F240
M106 S255
G4 P100
G0 X45.7 Y66.7 F1200
M106 S0
G4 P20
G1 X17.3 Y66.7 F240
M106 S255
G4 P100
G0 X11.9 Y66.7 F1200
M106 S0
G4 P20
G1 X6.1 Y66.7 F240
M106 S255
G4 P100
G0 X5.9 Y66.8 F1200
M106 S0
G4 P20
G1 X12.1 Y66.8 F240
M106 S255
G4 P100
G0 X12.8 Y66.8 F1200
M106 S0
G4 P20
G1 X12.9 Y66.8 F240
M106 S255
G4 P100
G0 X17.3 Y66.8 F1200
M106 S0
G4 P20
G1 X45.7 Y66.8 F240
M106 S255
G4 P100
G0 X45.7 Y66.9 F1200
M106 S0
G4 P20
G1 X17.3 Y66.9 F240
M106 S255
G4 P100
G0 X12.9 Y66.9 F1200
M106 S0
G4 P20
G1 X12.8 Y66.9 F240
M106 S255
G4 P100
G0 X12.1 Y66.9 F1200
M106 S0
G4 P20
G1 X5.9 Y66.9 F240
M106 S255
G4 P100
G0 X5.7 Y67.0 F1200
M106 S0
G4 P20
G1 X12.1 Y67.0 F240
M106 S255
G4 P100
G0 X12.8 Y67.0 F1200
M106 S0
G4 P20
G1 X13.0 Y67.0 F240
M106 S255
G4 P100
G0 X17.1 Y67.0 F1200
M106 S0
G4 P20
G1 X45.8 Y67.0 F240
M106 S255
G4 P100
G0 X45.8 Y67.1 F1200
M106 S0
G4 P20
G1 X17.0 Y67.1 F240
M106 S255
G4 P100
G0 X13.1 Y67.1 F1200
M106 S0
G4 P20
G1 X12.8 Y67.1 F240
M106 S255
G4 P100
G0 X12.2 Y67.1 F1200
M106 S0
G4 P20
G1 X5.5 Y67.1 F240
M106 S255
G4 P100
G0 X5.5 Y67.2 F1200
M106 S0
G4 P20
G1 X12.2 Y67.2 F240
M106 S255
G4 P100
G0 X12.8 Y67.2 F1200
M106 S0
G4 P20
G1 X13.1 Y67.2 F240
M106 S255
G4 P100
G0 X17.0 Y67.2 F1200
M106 S0
G4 P20
G1 X45.9 Y67.2 F240
M106 S255
G4 P100
G0 X46.0 Y67.3 F1200
M106 S0
G4 P20
G1 X16.9 Y67.3 F240
M106 S255
G4 P100
G0 X13.1 Y67.3 F1200
M106 S0
G4 P20
G1 X12.8 Y67.3 F240
M106 S255
G4 P100
G0 X12.3 Y67.3 F1200
M106 S0
G4 P20
G1 X5.4 Y67.3 F240
M106 S255
G4 P100
G0 X5.3 Y67.4 F1200
M106 S0
G4 P20
G1 X12.3 Y67.4 F240
M106 S255
G4 P100
G0 X12.8 Y67.4 F1200
M106 S0
G4 P20
G1 X13.3 Y67.4 F240
M106 S255
G4 P100
G0 X16.9 Y67.4 F1200
M106 S0
G4 P20
G1 X46.0 Y67.4 F240
M106 S255
G4 P100
G0 X46.1 Y67.5 F1200
M106 S0
G4 P20
G1 X16.8 Y67.5 F240
M106 S255
G4 P100
G0 X13.4 Y67.5 F1200
M106 S0
G4 P20
G1 X5.1 Y67.5 F240
M106 S255
G4 P100
G0 X5.1 Y67.6 F1200
M106 S0
G4 P20
G1 X13.4 Y67.6 F240
M106 S255
G4 P100
G0 X16.7 Y67.6 F1200
M106 S0
G4 P20
G1 X46.1 Y67.6 F240
M106 S255
G4 P100
G0 X46.1 Y67.7 F1200
M106 S0
G4 P20
G1 X16.7 Y67.7 F240
M106 S255
G4 P100
G0 X13.4 Y67.7 F1200
M106 S0
G4 P20
G1 X5.1 Y67.7 F240
M106 S255
G4 P100
G0 X5.0 Y67.8 F1200
M106 S0
G4 P20
G1 X13.5 Y67.8 F240
M106 S255
G4 P100
G0 X16.7 Y67.8 F1200
M106 S0
G4 P20
G1 X46.2 Y67.8 F240
M106 S255
G4 P100
G0 X46.2 Y67.9 F1200
M106 S0
G4 P20
G1 X16.7 Y67.9 F240
M106 S255
G4 P100
G0 X13.6 Y67.9 F1200
M106 S0
G4 P20
G1 X5.0 Y67.9 F240
M106 S255
G4 P100
G0 X4.9 Y68.0 F1200
M106 S0
G4 P20
G1 X13.7 Y68.0 F240
M106 S255
G4 P100
G0 X16.6 Y68.0 F1200
M106 S0
G4 P20
G1 X46.2 Y68.0 F240
M106 S255
G4 P100
G0 X46.4 Y68.1 F1200
M106 S0
G4 P20
G1 X16.6 Y68.1 F240
M106 S255
G4 P100
G0 X13.7 Y68.1 F1200
M106 S0
G4 P20
G1 X4.8 Y68.1 F240
M106 S255
G4 P100
G0 X4.8 Y68.2 F1200
M106 S0
G4 P20
G1 X13.7 Y68.2 F240
M106 S255
G4 P100
G0 X16.6 Y68.2 F1200
M106 S0
G4 P20
G1 X46.4 Y68.2 F240
M106 S255
G4 P100
G0 X46.4 Y68.3 F1200
M106 S0
G4 P20
G1 X16.6 Y68.3 F240
M106 S255
G4 P100
G0 X13.8 Y68.3 F1200
M106 S0
G4 P20
G1 X4.7 Y68.3 F240
M106 S255
G4 P100
G0 X4.6 Y68.4 F1200
M106 S0
G4 P20
G1 X13.8 Y68.4 F240
M106 S255
G4 P100
G0 X16.5 Y68.4 F1200
M106 S0
G4 P20
G1 X46.5 Y68.4 F240
M106 S255
G4 P100
G0 X46.6 Y68.5 F1200
M106 S0
G4 P20
G1 X16.5 Y68.5 F240
M106 S255
G4 P100
G0 X13.8 Y68.5 F1200
M106 S0
G4 P20
G1 X4.6 Y68.5 F240
M106 S255
G4 P100
G0 X4.6 Y68.6 F1200
M106 S0
G4 P20
G1 X13.8 Y68.6 F240
M106 S255
G4 P100
G0 X16.5 Y68.6 F1200
M106 S0
G4 P20
G1 X46.6 Y68.6 F240
M106 S255
G4 P100
G0 X46.6 Y68.7 F1200
M106 S0
G4 P20
G1 X16.5 Y68.7 F240
M106 S255
G4 P100
G0 X13.9 Y68.7 F1200
M106 S0
G4 P20
G1 X4.4 Y68.7 F240
M106 S255
G4 P100
G0 X4.4 Y68.8 F1200
M106 S0
G4 P20
G1 X14.0 Y68.8 F240
M106 S255
G4 P100
G0 X16.3 Y68.8 F1200
M106 S0
G4 P20
G1 X46.8 Y68.8 F240
M106 S255
G4 P100
G0 X46.8 Y68.9 F1200
M106 S0
G4 P20
G1 X16.3 Y68.9 F240
M106 S255
G4 P100
G0 X14.0 Y68.9 F1200
M106 S0
G4 P20
G1 X4.4 Y68.9 F240
M106 S255
G4 P100
G0 X4.4 Y69.0 F1200
M106 S0
G4 P20
G1 X14.1 Y69.0 F240
M106 S255
G4 P100
G0 X16.3 Y69.0 F1200
M106 S0
G4 P20
G1 X46.8 Y69.0 F240
M106 S255
G4 P100
G0 X46.9 Y69.1 F1200
M106 S0
G4 P20
G1 X16.3 Y69.1 F240
M106 S255
G4 P100
G0 X14.1 Y69.1 F1200
M106 S0
G4 P20
G1 X4.3 Y69.1 F240
M106 S255
G4 P100
G0 X4.3 Y69.2 F1200
M106 S0
G4 P20
G1 X14.1 Y69.2 F240
M106 S255
G4 P100
G0 X16.3 Y69.2 F1200
M106 S0
G4 P20
G1 X46.9 Y69.2 F240
M106 S255
G4 P100
G0 X46.9 Y69.3 F1200
M106 S0
G4 P20
G1 X16.3 Y69.3 F240
M106 S255
G4 P100
G0 X14.1 Y69.3 F1200
M106 S0
G4 P20
G1 X4.3 Y69.3 F240
M106 S255
G4 P100
G0 X4.3 Y69.4 F1200
M106 S0
G4 P20
G1 X14.2 Y69.4 F240
M106 S255
G4 P100
G0 X16.3 Y69.4 F1200
M106 S0
G4 P20
G1 X47.0 Y69.4 F240
M106 S255
G4 P100
G0 X47.0 Y69.5 F1200
M106 S0
G4 P20
G1 X16.2 Y69.5 F240
M106 S255
G4 P100
G0 X14.2 Y69.5 F1200
M106 S0
G4 P20
G1 X4.2 Y69.5 F240
M106 S255
G4 P100
G0 X4.2 Y69.6 F1200
M106 S0
G4 P20
G1 X6.1 Y69.6 F240
M106 S255
G4 P100
G0 X8.0 Y69.6 F1200
M106 S0
G4 P20
G1 X14.2 Y69.6 F240
M106 S255
G4 P100
G0 X16.2 Y69.6 F1200
M106 S0
G4 P20
G1 X47.1 Y69.6 F240
M106 S255
G4 P100
G0 X47.2 Y69.7 F1200
M106 S0
G4 P20
G1 X16.2 Y69.7 F240
M106 S255
G4 P100
G0 X14.2 Y69.7 F1200
M106 S0
G4 P20
G1 X8.5 Y69.7 F240
M106 S255
G4 P100
G0 X5.6 Y69.7 F1200
M106 S0
G4 P20
G1 X4.2 Y69.7 F240
M106 S255
G4 P100
G0 X4.2 Y69.8 F1200
M106 S0
G4 P20
G1 X5.3 Y69.8 F240
M106 S255
G4 P100
G0 X8.9 Y69.8 F1200
M106 S0
G4 P20
G1 X14.4 Y69.8 F240
M106 S255
G4 P100
G0 X16.2 Y69.8 F1200
M106 S0
G4 P20
G1 X47.2 Y69.8 F240
M106 S255
G4 P100
G0 X47.2 Y69.9 F1200
M106 S0
G4 P20
G1 X16.2 Y69.9 F240
M106 S255
G4 P100
G0 X14.4 Y69.9 F1200
M106 S0
G4 P20
G1 X8.9 Y69.9 F240
M106 S255
G4 P100
G0 X5.3 Y69.9 F1200
M106 S0
G4 P20
G1 X4.2 Y69.9 F240
M106 S255
G4 P100
G0 X4.2 Y70.0 F1200
M106 S0
G4 P20
G1 X5.0 Y70.0 F240
M106 S255
G4 P100
G0 X9.2 Y70.0 F1200
M106 S0
G4 P20
G1 X14.4 Y70.0 F240
M106 S255
G4 P100
G0 X16.2 Y70.0 F1200
M106 S0
G4 P20
G1 X47.3 Y70.0 F240
M106 S255
G4 P100
G0 X47.3 Y70.1 F1200
M106 S0
G4 P20
G1 X16.2 Y70.1 F240
M106 S255
G4 P100
G0 X14.4 Y70.1 F1200
M106 S0
G4 P20
G1 X9.3 Y70.1 F240
M106 S255
G4 P100
G0 X4.8 Y70.1 F1200
M106 S0
G4 P20
G1 X4.0 Y70.1 F240
M106 S255
G4 P100
G0 X4.0 Y70.2 F1200
M106 S0
G4 P20
G1 X4.8 Y70.2 F240
M106 S255
G4 P100
G0 X9.3 Y70.2 F1200
M106 S0
G4 P20
G1 X14.4 Y70.2 F240
M106 S255
G4 P100
G0 X16.2 Y70.2 F1200
M106 S0
G4 P20
G1 X47.4 Y70.2 F240
M106 S255
G4 P100
G0 X47.5 Y70.3 F1200
M106 S0
G4 P20
G1 X16.2 Y70.3 F240
M106 S255
G4 P100
G0 X14.4 Y70.3 F1200
M106 S0
G4 P20
G1 X9.6 Y70.3 F240
M106 S255
G4 P100
G0 X4.5 Y70.3 F1200
M106 S0
G4 P20
G1 X4.0 Y70.3 F240
M106 S255
G4 P100
G0 X4.0 Y70.4 F1200
M106 S0
G4 P20
G1 X4.4 Y70.4 F240
M106 S255
G4 P100
G0 X9.7 Y70.4 F1200
M106 S0
G4 P20
G1 X14.5 Y70.4 F240
M106 S255
G4 P100
G0 X16.2 Y70.4 F1200
M106 S0
G4 P20
G1 X47.5 Y70.4 F240
M106 S255
G4 P100
G0 X47.6 Y70.5 F1200
M106 S0
G4 P20
G1 X16.1 Y70.5 F240
M106 S255
G4 P100
G0 X14.5 Y70.5 F1200
M106 S0
G4 P20
G1 X9.7 Y70.5 F240
M106 S255
G4 P100
G0 X4.2 Y70.5 F1200
M106 S0
G4 P20
G1 X4.0 Y70.5 F240
M106 S255
G4 P100
G0 X4.0 Y70.6 F1200
M106 S0
G4 P20
G1 X4.1 Y70.6 F240
M106 S255
G4 P100
G0 X9.7 Y70.6 F1200
M106 S0
G4 P20
G1 X14.5 Y70.6 F240
M106 S255
G4 P100
G0 X16.1 Y70.6 F1200
M106 S0
G4 P20
G1 X47.6 Y70.6 F240
M106 S255
G4 P100
G0 X47.6 Y70.7 F1200
M106 S0
G4 P20
G1 X16.1 Y70.7 F240
M106 S255
G4 P100
G0 X14.5 Y70.7 F1200
M106 S0
G4 P20
G1 X9.4 Y70.7 F240
M106 S255
G4 P100
G0 X4.0 Y70.7 F1200
M106 S0
G4 P20
G1 X4.0 Y70.7 F240
M106 S255
G4 P100
G0 X9.9 Y70.8 F1200
M106 S0
G4 P20
G1 X14.6 Y70.8 F240
M106 S255
G4 P100
G0 X16.1 Y70.8 F1200
M106 S0
G4 P20
G1 X47.6 Y70.8 F240
M106 S255
G4 P100
G0 X47.6 Y70.9 F1200
M106 S0
G4 P20
G1 X16.1 Y70.9 F240
M106 S255
G4 P100
G0 X14.6 Y70.9 F1200
M106 S0
G4 P20
G1 X10.0 Y70.9 F240
M106 S255
G4 P100
G0 X10.4 Y71.0 F1200
M106 S0
G4 P20
G1 X14.6 Y71.0 F240
M106 S255
G4 P100
G0 X16.1 Y71.0 F1200
M106 S0
G4 P20
G1 X47.7 Y71.0 F240
M106 S255
G4 P100
G0 X47.7 Y71.1 F1200
M106 S0
G4 P20
G1 X16.1 Y71.1 F240
M106 S255
G4 P100
G0 X14.6 Y71.1 F1200
M106 S0
G4 P20
G1 X10.8 Y71.1 F240
M106 S255
G4 P100
G0 X10.8 Y71.2 F1200
M106 S0
G4 P20
G1 X14.8 Y71.2 F240
M106 S255
G4 P100
G0 X16.1 Y71.2 F1200
M106 S0
G4 P20
G1 X47.9 Y71.2 F240
M106 S255
G4 P100
G0 X47.9 Y71.3 F1200
M106 S0
G4 P20
G1 X16.1 Y71.3 F240
M106 S255
G4 P100
G0 X14.8 Y71.3 F1200
M106 S0
G4 P20
G1 X10.9 Y71.3 F240
M106 S255
G4 P100
G0 X11.2 Y71.4 F1200
M106 S0
G4 P20
G1 X14.8 Y71.4 F240
M106 S255
G4 P100
G0 X16.1 Y71.4 F1200
M106 S0
G4 P20
G1 X47.9 Y71.4 F240
M106 S255
G4 P100
G0 X47.9 Y71.5 F1200
M106 S0
G4 P20
G1 X16.1 Y71.5 F240
M106 S255
G4 P100
G0 X14.9 Y71.5 F1200
M106 S0
G4 P20
G1 X11.3 Y71.5 F240
M106 S255
G4 P100
G0 X11.3 Y71.6 F1200
M106 S0
G4 P20
G1 X14.9 Y71.6 F240
M106 S255
G4 P100
G0 X16.1 Y71.6 F1200
M106 S0
G4 P20
G1 X47.9 Y71.6 F240
M106 S255
G4 P100
G0 X48.0 Y71.7 F1200
M106 S0
G4 P20
G1 X16.1 Y71.7 F240
M106 S255
G4 P100
G0 X14.9 Y71.7 F1200
M106 S0
G4 P20
G1 X11.5 Y71.7 F240
M106 S255
G4 P100
G0 X11.5 Y71.8 F1200
M106 S0
G4 P20
G1 X15.0 Y71.8 F240
M106 S255
G4 P100
G0 X15.9 Y71.8 F1200
M106 S0
G4 P20
G1 X48.0 Y71.8 F240
M106 S255
G4 P100
G0 X48.1 Y71.9 F1200
M106 S0
G4 P20
G1 X15.9 Y71.9 F240
M106 S255
G4 P100
G0 X15.1 Y71.9 F1200
M106 S0
G4 P20
G1 X11.5 Y71.9 F240
M106 S255
G4 P100
G0 X11.6 Y72.0 F1200
M106 S0
G4 P20
G1 X15.2 Y72.0 F240
M106 S255
G4 P100
G0 X15.9 Y72.0 F1200
M106 S0
G4 P20
G1 X48.1 Y72.0 F240
M106 S255
G4 P100
G0 X48.1 Y72.1 F1200
M106 S0
G4 P20
G1 X11.7 Y72.1 F240
M106 S255
G4 P100
G0 X11.7 Y72.2 F1200
M106 S0
G4 P20
G1 X48.3 Y72.2 F240
M106 S255
G4 P100
G0 X56.5 Y72.2 F1200
M106 S0
G4 P20
G1 X56.5 Y72.2 F240
M106 S255
G4 P100
G0 X56.5 Y72.3 F1200
M106 S0
G4 P20
G1 X56.4 Y72.3 F240
M106 S255
G4 P100
G0 X48.3 Y72.3 F1200
M106 S0
G4 P20
G1 X11.9 Y72.3 F240
M106 S255
G4 P100
G0 X11.9 Y72.4 F1200
M106 S0
G4 P20
G1 X48.3 Y72.4 F240
M106 S255
G4 P100
G0 X56.0 Y72.4 F1200
M106 S0
G4 P20
G1 X57.2 Y72.4 F240
M106 S255
G4 P100
G0 X58.0 Y72.5 F1200
M106 S0
G4 P20
G1 X55.9 Y72.5 F240
M106 S255
G4 P100
G0 X48.3 Y72.5 F1200
M106 S0
G4 P20
G1 X12.0 Y72.5 F240
M106 S255
G4 P100
G0 X12.0 Y72.6 F1200
M106 S0
G4 P20
G1 X48.3 Y72.6 F240
M106 S255
G4 P100
G0 X55.9 Y72.6 F1200
M106 S0
G4 P20
G1 X58.0 Y72.6 F240
M106 S255
G4 P100
G0 X58.1 Y72.7 F1200
M106 S0
G4 P20
G1 X55.8 Y72.7 F240
M106 S255
G4 P100
G0 X48.4 Y72.7 F1200
M106 S0
G4 P20
G1 X12.1 Y72.7 F240
M106 S255
G4 P100
G0 X12.3 Y72.8 F1200
M106 S0
G4 P20
G1 X48.4 Y72.8 F240
M106 S255
G4 P100
G0 X55.6 Y72.8 F1200
M106 S0
G4 P20
G1 X58.3 Y72.8 F240
M106 S255
G4 P100
G0 X58.4 Y72.9 F1200
M106 S0
G4 P20
G1 X55.6 Y72.9 F240
M106 S255
G4 P100
G0 X48.5 Y72.9 F1200
M106 S0
G4 P20
G1 X12.3 Y72.9 F240
M106 S255
G4 P100
G0 X12.4 Y73.0 F1200
M106 S0
G4 P20
G1 X48.5 Y73.0 F240
M106 S255
G4 P100
G0 X55.6 Y73.0 F1200
M106 S0
G4 P20
G1 X58.4 Y73.0 F240
M106 S255
G4 P100
G0 X58.5 Y73.1 F1200
M106 S0
G4 P20
G1 X55.6 Y73.1 F240
M106 S255
G4 P100
G0 X48.5 Y73.1 F1200
M106 S0
G4 P20
G1 X12.5 Y73.1 F240
M106 S255
G4 P100
G0 X12.7 Y73.2 F1200
M106 S0
G4 P20
G1 X48.7 Y73.2 F240
M106 S255
G4 P100
G0 X55.5 Y73.2 F1200
M106 S0
G4 P20
G1 X58.5 Y73.2 F240
M106 S255
G4 P100
G0 X58.6 Y73.3 F1200
M106 S0
G4 P20
G1 X55.5 Y73.3 F240
M106 S255
G4 P100
G0 X48.7 Y73.3 F1200
M106 S0
G4 P20
G1 X12.8 Y73.3 F240
M106 S255
G4 P100
G0 X13.0 Y73.4 F1200
M106 S0
G4 P20
G1 X48.7 Y73.4 F240
M106 S255
G4 P100
G0 X55.5 Y73.4 F1200
M106 S0
G4 P20
G1 X58.7 Y73.4 F240
M106 S255
G4 P100
G0 X58.7 Y73.5 F1200
M106 S0
G4 P20
G1 X55.5 Y73.5 F240
M106 S255
G4 P100
G0 X48.8 Y73.5 F1200
M106 S0
G4 P20
G1 X13.2 Y73.5 F240
M106 S255
G4 P100
G0 X13.2 Y73.6 F1200
M106 S0
G4 P20
G1 X48.8 Y73.6 F240
M106 S255
G4 P100
G0 X55.4 Y73.6 F1200
M106 S0
G4 P20
G1 X58.7 Y73.6 F240
M106 S255
G4 P100
G0 X58.8 Y73.7 F1200
M106 S0
G4 P20
G1 X55.2 Y73.7 F240
M106 S255
G4 P100
G0 X48.8 Y73.7 F1200
M106 S0
G4 P20
G1 X13.5 Y73.7 F240
M106 S255
G4 P100
G0 X13.9 Y73.8 F1200
M106 S0
G4 P20
G1 X16.4 Y73.8 F240
M106 S255
G4 P100
G0 X16.7 Y73.8 F1200
M106 S0
G4 P20
G1 X48.9 Y73.8 F240
M106 S255
G4 P100
G0 X55.1 Y73.8 F1200
M106 S0
G4 P20
G1 X58.8 Y73.8 F240
M106 S255
G4 P100
G0 X58.8 Y73.9 F1200
M106 S0
G4 P20
G1 X55.0 Y73.9 F240
M106 S255
G4 P100
G0 X49.1 Y73.9 F1200
M106 S0
G4 P20
G1 X16.7 Y73.9 F240
M106 S255
G4 P100
G0 X16.4 Y73.9 F1200
M106 S0
G4 P20
G1 X13.9 Y73.9 F240
M106 S255
G4 P100
G0 X14.3 Y74.0 F1200
M106 S0
G4 P20
G1 X15.8 Y74.0 F240
M106 S255
G4 P100
G0 X17.0 Y74.0 F1200
M106 S0
G4 P20
G1 X49.1 Y74.0 F240
M106 S255
G4 P100
G0 X55.0 Y74.0 F1200
M106 S0
G4 P20
G1 X58.8 Y74.0 F240
M106 S255
G4 P100
G0 X58.9 Y74.1 F1200
M106 S0
G4 P20
G1 X54.7 Y74.1 F240
M106 S255
G4 P100
G0 X49.1 Y74.1 F1200
M106 S0
G4 P20
G1 X17.1 Y74.1 F240
M106 S255
G4 P100
G0 X17.2 Y74.2 F1200
M106 S0
G4 P20
G1 X49.2 Y74.2 F240
M106 S255
G4 P100
G0 X54.4 Y74.2 F1200
M106 S0
G4 P20
G1 X58.9 Y74.2 F240
M106 S255
G4 P100
G0 X58.9 Y74.3 F1200
M106 S0
G4 P20
G1 X54.4 Y74.3 F240
M106 S255
G4 P100
G0 X49.2 Y74.3 F1200
M106 S0
G4 P20
G1 X17.3 Y74.3 F240
M106 S255
G4 P100
G0 X17.4 Y74.4 F1200
M106 S0
G4 P20
G1 X49.3 Y74.4 F240
M106 S255
G4 P100
G0 X54.2 Y74.4 F1200
M106 S0
G4 P20
G1 X58.9 Y74.4 F240
M106 S255
G4 P100
G0 X58.9 Y74.5 F1200
M106 S0
G4 P20
G1 X53.8 Y74.5 F240
M106 S255
G4 P100
G0 X49.3 Y74.5 F1200
M106 S0
G4 P20
G1 X17.5 Y74.5 F240
M106 S255
G4 P100
G0 X17.5 Y74.6 F1200
M106 S0
G4 P20
G1 X49.4 Y74.6 F240
M106 S255
G4 P100
G0 X53.7 Y74.6 F1200
M106 S0
G4 P20
G1 X58.9 Y74.6 F240
M106 S255
G4 P100
G0 X58.9 Y74.7 F1200
M106 S0
G4 P20
G1 X53.3 Y74.7 F240
M106 S255
G4 P100
G0 X49.5 Y74.7 F1200
M106 S0
G4 P20
G1 X17.7 Y74.7 F240
M106 S255
G4 P100
G0 X17.8 Y74.8 F1200
M106 S0
G4 P20
G1 X49.6 Y74.8 F240
M106 S255
G4 P100
G0 X52.9 Y74.8 F1200
M106 S0
G4 P20
G1 X58.9 Y74.8 F240
M106 S255
G4 P100
G0 X58.9 Y74.9 F1200
M106 S0
G4 P20
G1 X52.7 Y74.9 F240
M106 S255
G4 P100
G0 X49.7 Y74.9 F1200
M106 S0
G4 P20
G1 X17.8 Y74.9 F240
M106 S255
G4 P100
G0 X18.0 Y75.0 F1200
M106 S0
G4 P20
G1 X49.8 Y75.0 F240
M106 S255
G4 P100
G0 X52.7 Y75.0 F1200
M106 S0
G4 P20
G1 X58.9 Y75.0 F240
M106 S255
G4 P100
G0 X58.9 Y75.1 F1200
M106 S0
G4 P20
G1 X52.4 Y75.1 F240
M106 S255
G4 P100
G0 X49.9 Y75.1 F1200
M106 S0
G4 P20
G1 X18.1 Y75.1 F240
M106 S255
G4 P100
G0 X18.2 Y75.2 F1200
M106 S0
G4 P20
G1 X50.0 Y75.2 F240
M106 S255
G4 P100
G0 X52.1 Y75.2 F1200
M106 S0
G4 P20
G1 X58.8 Y75.2 F240
M106 S255
G4 P100
G0 X58.8 Y75.3 F1200
M106 S0
G4 P20
G1 X52.1 Y75.3 F240
M106 S255
G4 P100
G0 X50.1 Y75.3 F1200
M106 S0
G4 P20
G1 X18.2 Y75.3 F240
M106 S255
G4 P100
G0 X18.4 Y75.4 F1200
M106 S0
G4 P20
G1 X50.2 Y75.4 F240
M106 S255
G4 P100
G0 X52.0 Y75.4 F1200
M106 S0
G4 P20
G1 X58.8 Y75.4 F240
M106 S255
G4 P100
G0 X58.7 Y75.5 F1200
M106 S0
G4 P20
G1 X51.9 Y75.5 F240
M106 S255
G4 P100
G0 X50.3 Y75.5 F1200
M106 S0
G4 P20
G1 X18.5 Y75.5 F240
M106 S255
G4 P100
G0 X18.5 Y75.6 F1200
M106 S0
G4 P20
G1 X50.6 Y75.6 F240
M106 S255
G4 P100
G0 X51.7 Y75.6 F1200
M106 S0
G4 P20
G1 X58.7 Y75.6 F240
M106 S255
G4 P100
G0 X58.4 Y75.7 F1200
M106 S0
G4 P20
G1 X51.7 Y75.7 F240
M106 S255
G4 P100
G0 X50.6 Y75.7 F1200
M106 S0
G4 P20
G1 X18.6 Y75.7 F240
M106 S255
G4 P100
G0 X18.8 Y75.8 F1200
M106 S0
G4 P20
G1 X50.8 Y75.8 F240
M106 S255
G4 P100
G0 X51.6 Y75.8 F1200
M106 S0
G4 P20
G1 X58.3 Y75.8 F240
M106 S255
G4 P100
G0 X58.2 Y75.9 F1200
M106 S0
G4 P20
G1 X19.0 Y75.9 F240
M106 S255
G4 P100
G0 X19.0 Y76.0 F1200
M106 S0
G4 P20
G1 X58.1 Y76.0 F240
M106 S255
G4 P100
G0 X58.0 Y76.1 F1200
M106 S0
G4 P20
G1 X19.2 Y76.1 F240
M106 S255
G4 P100
G0 X19.4 Y76.2 F1200
M106 S0
G4 P20
G1 X57.9 Y76.2 F240
M106 S255
G4 P100
G0 X57.9 Y76.3 F1200
M106 S0
G4 P20
G1 X19.4 Y76.3 F240
M106 S255
G4 P100
G0 X19.6 Y76.4 F1200
M106 S0
G4 P20
G1 X30.4 Y76.4 F240
M106 S255
G4 P100
G0 X33.9 Y76.4 F1200
M106 S0
G4 P20
G1 X57.9 Y76.4 F240
M106 S255
G4 P100
G0 X57.7 Y76.5 F1200
M106 S0
G4 P20
G1 X35.0 Y76.5 F240
M106 S255
G4 P100
G0 X29.4 Y76.5 F1200
M106 S0
G4 P20
G1 X19.8 Y76.5 F240
M106 S255
G4 P100
G0 X19.8 Y76.6 F1200
M106 S0
G4 P20
G1 X29.4 Y76.6 F240
M106 S255
G4 P100
G0 X35.0 Y76.6 F1200
M106 S0
G4 P20
G1 X57.7 Y76.6 F240
M106 S255
G4 P100
G0 X57.6 Y76.7 F1200
M106 S0
G4 P20
G1 X35.6 Y76.7 F240
M106 S255
G4 P100
G0 X28.7 Y76.7 F1200
M106 S0
G4 P20
G1 X20.1 Y76.7 F240
M106 S255
G4 P100
G0 X20.5 Y76.8 F1200
M106 S0
G4 P20
G1 X28.0 Y76.8 F240
M106 S255
G4 P100
G0 X36.2 Y76.8 F1200
M106 S0
G4 P20
G1 X57.5 Y76.8 F240
M106 S255
G4 P100
G0 X57.4 Y76.9 F1200
M106 S0
G4 P20
G1 X36.7 Y76.9 F240
M106 S255
G4 P100
G0 X27.4 Y76.9 F1200
M106 S0
G4 P20
G1 X20.7 Y76.9 F240
M106 S255
G4 P100
G0 X20.8 Y77.0 F1200
M106 S0
G4 P20
G1 X27.3 Y77.0 F240
M106 S255
G4 P100
G0 X36.7 Y77.0 F1200
M106 S0
G4 P20
G1 X57.3 Y77.0 F240
M106 S255
G4 P100
G0 X57.3 Y77.1 F1200
M106 S0
G4 P20
G1 X37.1 Y77.1 F240
M106 S255
G4 P100
G0 X26.7 Y77.1 F1200
M106 S0
G4 P20
G1 X21.3 Y77.1 F240
M106 S255
G4 P100
G0 X21.8 Y77.2 F1200
M106 S0
G4 P20
G1 X25.9 Y77.2 F240
M106 S255
G4 P100
G0 X37.4 Y77.2 F1200
M106 S0
G4 P20
G1 X57.2 Y77.2 F240
M106 S255
G4 P100
G0 X57.2 Y77.3 F1200
M106 S0
G4 P20
G1 X37.4 Y77.3 F240
M106 S255
G4 P100
G0 X25.8 Y77.3 F1200
M106 S0
G4 P20
G1 X21.9 Y77.3 F240
M106 S255
G4 P100
G0 X22.9 Y77.4 F1200
M106 S0
G4 P20
G1 X24.8 Y77.4 F240
M106 S255
G4 P100
G0 X37.4 Y77.4 F1200
M106 S0
G4 P20
G1 X57.0 Y77.4 F240
M106 S255
G4 P100
G0 X57.0 Y77.5 F1200
M106 S0
G4 P20
G1 X37.4 Y77.5 F240
M106 S255
G4 P100
G0 X37.0 Y77.6 F1200
M106 S0
G4 P20
G1 X57.0 Y77.6 F240
M106 S255
G4 P100
G0 X56.9 Y77.7 F1200
M106 S0
G4 P20
G1 X37.0 Y77.7 F240
M106 S255
G4 P100
G0 X36.7 Y77.8 F1200
M106 S0
G4 P20
G1 X56.8 Y77.8 F240
M106 S255
G4 P100
G0 X56.7 Y77.9 F1200
M106 S0
G4 P20
G1 X36.3 Y77.9 F240
M106 S255
G4 P100
G0 X36.3 Y78.0 F1200
M106 S0
G4 P20
G1 X56.6 Y78.0 F240
M106 S255
G4 P100
G0 X56.6 Y78.1 F1200
M106 S0
G4 P20
G1 X36.0 Y78.1 F240
M106 S255
G4 P100
G0 X35.8 Y78.2 F1200
M106 S0
G4 P20
G1 X56.5 Y78.2 F240
M106 S255
G4 P100
G0 X56.5 Y78.3 F1200
M106 S0
G4 P20
G1 X35.7 Y78.3 F240
M106 S255
G4 P100
G0 X37.8 Y78.4 F1200
M106 S0
G4 P20
G1 X56.4 Y78.4 F240
M106 S255
G4 P100
G0 X56.2 Y78.5 F1200
M106 S0
G4 P20
G1 X38.3 Y78.5 F240
M106 S255
G4 P100
G0 X38.7 Y78.6 F1200
M106 S0
G4 P20
G1 X56.2 Y78.6 F240
M106 S255
G4 P100
G0 X56.1 Y78.7 F1200
M106 S0
G4 P20
G1 X38.8 Y78.7 F240
M106 S255
G4 P100
G0 X39.0 Y78.8 F1200
M106 S0
G4 P20
G1 X56.0 Y78.8 F240
M106 S255
G4 P100
G0 X56.0 Y78.9 F1200
M106 S0
G4 P20
G1 X39.4 Y78.9 F240
M106 S255
G4 P100
G0 X39.4 Y79.0 F1200
M106 S0
G4 P20
G1 X56.0 Y79.0 F240
M106 S255
G4 P100
G0 X55.8 Y79.1 F1200
M106 S0
G4 P20
G1 X40.2 Y79.1 F240
M106 S255
G4 P100
G0 X40.2 Y79.2 F1200
M106 S0
G4 P20
G1 X55.7 Y79.2 F240
M106 S255
G4 P100
G0 X55.7 Y79.3 F1200
M106 S0
G4 P20
G1 X40.2 Y79.3 F240
M106 S255
G4 P100
G0 X40.2 Y79.4 F1200
M106 S0
G4 P20
G1 X55.6 Y79.4 F240
M106 S255
G4 P100
G0 X55.4 Y79.5 F1200
M106 S0
G4 P20
G1 X40.0 Y79.5 F240
M106 S255
G4 P100
G0 X39.8 Y79.6 F1200
M106 S0
G4 P20
G1 X55.3 Y79.6 F240
M106 S255
G4 P100
G0 X55.3 Y79.7 F1200
M106 S0
G4 P20
G1 X39.8 Y79.7 F240
M106 S255
G4 P100
G0 X39.8 Y79.8 F1200
M106 S0
G4 P20
G1 X55.3 Y79.8 F240
M106 S255
G4 P100
G0 X55.2 Y79.9 F1200
M106 S0
G4 P20
G1 X39.7 Y79.9 F240
M106 S255
G4 P100
G0 X39.6 Y80.0 F1200
M106 S0
G4 P20
G1 X55.2 Y80.0 F240
M106 S255
G4 P100
G0 X55.0 Y80.1 F1200
M106 S0
G4 P20
G1 X39.6 Y80.1 F240
M106 S255
G4 P100
G0 X39.6 Y80.2 F1200
M106 S0
G4 P20
G1 X54.9 Y80.2 F240
M106 S255
G4 P100
G0 X54.9 Y80.3 F1200
M106 S0
G4 P20
G1 X39.4 Y80.3 F240
M106 S255
G4 P100
G0 X39.4 Y80.4 F1200
M106 S0
G4 P20
G1 X54.8 Y80.4 F240
M106 S255
G4 P100
G0 X54.7 Y80.5 F1200
M106 S0
G4 P20
G1 X39.4 Y80.5 F240
M106 S255
G4 P100
G0 X39.4 Y80.6 F1200
M106 S0
G4 P20
G1 X54.6 Y80.6 F240
M106 S255
G4 P100
G0 X54.6 Y80.7 F1200
M106 S0
G4 P20
G1 X39.4 Y80.7 F240
M106 S255
G4 P100
G0 X39.3 Y80.8 F1200
M106 S0
G4 P20
G1 X54.5 Y80.8 F240
M106 S255
G4 P100
G0 X54.4 Y80.9 F1200
M106 S0
G4 P20
G1 X39.3 Y80.9 F240
M106 S255
G4 P100
G0 X39.3 Y81.0 F1200
M106 S0
G4 P20
G1 X54.3 Y81.0 F240
M106 S255
G4 P100
G0 X54.3 Y81.1 F1200
M106 S0
G4 P20
G1 X39.3 Y81.1 F240
M106 S255
G4 P100
G0 X39.2 Y81.2 F1200
M106 S0
G4 P20
G1 X40.4 Y81.2 F240
M106 S255
G4 P100
G0 X42.1 Y81.2 F1200
M106 S0
G4 P20
G1 X54.2 Y81.2 F240
M106 S255
G4 P100
G0 X54.2 Y81.3 F1200
M106 S0
G4 P20
G1 X42.1 Y81.3 F240
M106 S255
G4 P100
G0 X40.1 Y81.3 F1200
M106 S0
G4 P20
G1 X39.2 Y81.3 F240
M106 S255
G4 P100
G0 X39.2 Y81.4 F1200
M106 S0
G4 P20
G1 X40.0 Y81.4 F240
M106 S255
G4 P100
G0 X42.1 Y81.4 F1200
M106 S0
G4 P20
G1 X54.1 Y81.4 F240
M106 S255
G4 P100
G0 X54.1 Y81.5 F1200
M106 S0
G4 P20
G1 X42.0 Y81.5 F240
M106 S255
G4 P100
G0 X39.6 Y81.5 F1200
M106 S0
G4 P20
G1 X39.2 Y81.5 F240
M106 S255
G4 P100
G0 X39.2 Y81.6 F1200
M106 S0
G4 P20
G1 X39.4 Y81.6 F240
M106 S255
G4 P100
G0 X41.7 Y81.6 F1200
M106 S0
G4 P20
G1 X54.0 Y81.6 F240
M106 S255
G4 P100
G0 X53.9 Y81.7 F1200
M106 S0
G4 P20
G1 X41.7 Y81.7 F240
M106 S255
G4 P100
G0 X39.3 Y81.7 F1200
M106 S0
G4 P20
G1 X39.2 Y81.7 F240
M106 S255
G4 P100
G0 X42.1 Y81.8 F1200
M106 S0
G4 P20
G1 X53.9 Y81.8 F240
M106 S255
G4 P100
G0 X53.9 Y81.9 F1200
M106 S0
G4 P20
G1 X42.7 Y81.9 F240
M106 S255
G4 P100
G0 X42.7 Y82.0 F1200
M106 S0
G4 P20
G1 X53.9 Y82.0 F240
M106 S255
G4 P100
G0 X53.8 Y82.1 F1200
M106 S0
G4 P20
G1 X43.5 Y82.1 F240
M106 S255
G4 P100
G0 X44.2 Y82.2 F1200
M106 S0
G4 P20
G1 X53.8 Y82.2 F240
M106 S255
G4 P100
G0 X53.7 Y82.3 F1200
M106 S0
G4 P20
G1 X44.5 Y82.3 F240
M106 S255
G4 P100
G0 X44.6 Y82.4 F1200
M106 S0
G4 P20
G1 X53.7 Y82.4 F240
M106 S255
G4 P100
G0 X53.7 Y82.5 F1200
M106 S0
G4 P20
G1 X45.0 Y82.5 F240
M106 S255
G4 P100
G0 X45.1 Y82.6 F1200
M106 S0
G4 P20
G1 X53.6 Y82.6 F240
M106 S255
G4 P100
G0 X53.5 Y82.7 F1200
M106 S0
G4 P20
G1 X45.1 Y82.7 F240
M106 S255
G4 P100
G0 X45.5 Y82.8 F1200
M106 S0
G4 P20
G1 X53.5 Y82.8 F240
M106 S255
G4 P100
G0 X53.5 Y82.9 F1200
M106 S0
G4 P20
G1 X45.6 Y82.9 F240
M106 S255
G4 P100
G0 X45.7 Y83.0 F1200
M106 S0
G4 P20
G1 X53.5 Y83.0 F240
M106 S255
G4 P100
G0 X53.4 Y83.1 F1200
M106 S0
G4 P20
G1 X45.9 Y83.1 F240
M106 S255
G4 P100
G0 X46.0 Y83.2 F1200
M106 S0
G4 P20
G1 X53.3 Y83.2 F240
M106 S255
G4 P100
G0 X53.3 Y83.3 F1200
M106 S0
G4 P20
G1 X46.2 Y83.3 F240
M106 S255
G4 P100
G0 X46.2 Y83.4 F1200
M106 S0
G4 P20
G1 X53.3 Y83.4 F240
M106 S255
G4 P100
G0 X53.1 Y83.5 F1200
M106 S0
G4 P20
G1 X46.5 Y83.5 F240
M106 S255
G4 P100
G0 X46.6 Y83.6 F1200
M106 S0
G4 P20
G1 X53.0 Y83.6 F240
M106 S255
G4 P100
G0 X53.0 Y83.7 F1200
M106 S0
G4 P20
G1 X46.6 Y83.7 F240
M106 S255
G4 P100
G0 X46.7 Y83.8 F1200
M106 S0
G4 P20
G1 X52.9 Y83.8 F240
M106 S255
G4 P100
G0 X52.7 Y83.9 F1200
M106 S0
G4 P20
G1 X47.0 Y83.9 F240
M106 S255
G4 P100
G0 X47.2 Y84.0 F1200
M106 S0
G4 P20
G1 X49.0 Y84.0 F240
M106 S255
G4 P100
G0 X49.6 Y84.0 F1200
M106 S0
G4 P20
G1 X52.6 Y84.0 F240
M106 S255
G4 P100
G0 X52.6 Y84.1 F1200
M106 S0
G4 P20
G1 X49.7 Y84.1 F240
M106 S255
G4 P100
G0 X48.9 Y84.1 F1200
M106 S0
G4 P20
G1 X47.3 Y84.1 F240
M106 S255
G4 P100
G0 X49.7 Y84.2 F1200
M106 S0
G4 P20
G1 X52.5 Y84.2 F240
M106 S255
G4 P100
G0 X52.3 Y84.3 F1200
M106 S0
G4 P20
G1 X49.6 Y84.3 F240
M106 S255
G4 P100
G0 X49.6 Y84.4 F1200
M106 S0
G4 P20
G1 X52.3 Y84.4 F240
M106 S255
G4 P100
G0 X52.2 Y84.5 F1200
M106 S0
G4 P20
G1 X49.6 Y84.5 F240
M106 S255
G4 P100
G0 X49.6 Y84.6 F1200
M106 S0
G4 P20
G1 X52.1 Y84.6 F240
M106 S255
G4 P100
G0 X52.0 Y84.7 F1200
M106 S0
G4 P20
G1 X49.6 Y84.7 F240
M106 S255
G4 P100
G0 X49.6 Y84.8 F1200
M106 S0
G4 P20
G1 X51.9 Y84.8 F240
M106 S255
G4 P100
G0 X51.8 Y84.9 F1200
M106 S0
G4 P20
G1 X50.9 Y84.9 F240
M106 S255
G4 P100
G0 X50.6 Y84.9 F1200
M106 S0
G4 P20
G1 X49.6 Y84.9 F240
M106 S255
G4 P100
G0 X49.6 Y85.0 F1200
M106 S0
G4 P20
G1 X50.5 Y85.0 F240
M106 S255
G4 P100
G0 X50.9 Y85.0 F1200
M106 S0
G4 P20
G1 X51.7 Y85.0 F240
M106 S255
G4 P100
G0 X51.6 Y85.1 F1200
M106 S0
G4 P20
G1 X50.9 Y85.1 F240
M106 S255
G4 P100
G0 X50.4 Y85.1 F1200
M106 S0
G4 P20
G1 X49.6 Y85.1 F240
M106 S255
G4 P100
G0 X49.6 Y85.2 F1200
M106 S0
G4 P20
G1 X50.3 Y85.2 F240
M106 S255
G4 P100
G0 X50.9 Y85.2 F1200
M106 S0
G4 P20
G1 X51.6 Y85.2 F240
M106 S255
G4 P100
G0 X51.5 Y85.3 F1200
M106 S0
G4 P20
G1 X50.9 Y85.3 F240
M106 S255
G4 P100
G0 X50.3 Y85.3 F1200
M106 S0
G4 P20
G1 X49.6 Y85.3 F240
M106 S255
G4 P100
G0 X49.6 Y85.4 F1200
M106 S0
G4 P20
G1 X50.3 Y85.4 F240
M106 S255
G4 P100
G0 X50.9 Y85.4 F1200
M106 S0
G4 P20
G1 X51.5 Y85.4 F240
M106 S255
G4 P100
G0 X51.5 Y85.5 F1200
M106 S0
G4 P20
G1 X50.9 Y85.5 F240
M106 S255
G4 P100
G0 X50.2 Y85.5 F1200
M106 S0
G4 P20
G1 X49.6 Y85.5 F240
M106 S255
G4 P100
G0 X49.7 Y85.6 F1200
M106 S0
G4 P20
G1 X50.2 Y85.6 F240
M106 S255
G4 P100
G0 X50.9 Y85.6 F1200
M106 S0
G4 P20
G1 X51.5 Y85.6 F240
M106 S255
G4 P100
G0 X51.5 Y85.7 F1200
M106 S0
G4 P20
G1 X50.9 Y85.7 F240
M106 S255
G4 P100
G0 X50.2 Y85.7 F1200
M106 S0
G4 P20
G1 X49.7 Y85.7 F240
M106 S255
G4 P100
G0 X49.7 Y85.8 F1200
M106 S0
G4 P20
G1 X50.2 Y85.8 F240
M106 S255
G4 P100
G0 X50.9 Y85.8 F1200
M106 S0
G4 P20
G1 X51.5 Y85.8 F240
M106 S255
G4 P100
G0 X51.4 Y85.9 F1200
M106 S0
G4 P20
G1 X50.9 Y85.9 F240
M106 S255
G4 P100
G0 X50.0 Y85.9 F1200
M106 S0
G4 P20
G1 X49.8 Y85.9 F240
M106 S255
G4 P100
G0 X49.8 Y86.0 F1200
M106 S0
G4 P20
G1 X49.9 Y86.0 F240
M106 S255
G4 P100
G0 X50.9 Y86.0 F1200
M106 S0
G4 P20
G1 X51.4 Y86.0 F240
M106 S255
G4 P100
G0 X51.4 Y86.1 F1200
M106 S0
G4 P20
G1 X50.9 Y86.1 F240
M106 S255
G4 P100
G0 X49.9 Y86.1 F1200
M106 S0
G4 P20
G1 X49.8 Y86.1 F240
M106 S255
G4 P100
G0 X51.0 Y86.2 F1200
M106 S0
G4 P20
G1 X51.2 Y86.2 F240
M106 S255
G4 P100
G0 X51.2 Y86.3 F1200
M106 S0
G4 P20
G1 X51.1 Y86.3 F240
M106 S255
G4 P100
G0 X51.1 Y86.4 F1200
M106 S0
G4 P20
G1 X51.2 Y86.4 F240
M106 S255
G4 P100
G28 X0 Y0; home
