; Generated with "ZONESTAR Laser Engraving Gcode generator V3"
;
M106 S255 ; turn off laser
G21; Set units to millimeters
G90; Use absolute coordinates
G28; home all axes
G92 X-5 Y0 Z0; Coordinate Offset
M0 turn on laser power and press knob ;Wait for laser turn on
;
G1 Z20 F400 ;Move up Z axis before engraving
;
G0 X7.85 Y12.9 F1200
M106 S0
G4 P20
G1 X8.45 Y12.9 F120
M106 S255
G4 P100
G0 X13.8 Y12.9 F1200
M106 S0
G4 P20
G1 X14.45 Y12.9 F120
M106 S255
G4 P100
G0 X21.0 Y12.95 F1200
M106 S0
G4 P20
G1 X20.3 Y12.95 F120
M106 S255
G4 P100
G0 X19.95 Y12.95 F1200
M106 S0
G4 P20
G1 X19.25 Y12.95 F120
M106 S255
G4 P100
G0 X19.0 Y12.95 F1200
M106 S0
G4 P20
G1 X18.25 Y12.95 F120
M106 S255
G4 P100
G0 X17.8 Y12.95 F1200
M106 S0
G4 P20
G1 X17.05 Y12.95 F120
M106 S255
G4 P100
G0 X16.45 Y12.95 F1200
M106 S0
G4 P20
G1 X15.7 Y12.95 F120
M106 S255
G4 P100
G0 X14.6 Y12.95 F1200
M106 S0
G4 P20
G1 X13.65 Y12.95 F120
M106 S255
G4 P100
G0 X12.95 Y12.95 F1200
M106 S0
G4 P20
G1 X11.6 Y12.95 F120
M106 S255
G4 P100
G0 X11.2 Y12.95 F1200
M106 S0
G4 P20
G1 X10.55 Y12.95 F120
M106 S255
G4 P100
G0 X10.05 Y12.95 F1200
M106 S0
G4 P20
G1 X9.45 Y12.95 F120
M106 S255
G4 P100
G0 X8.6 Y12.95 F1200
M106 S0
G4 P20
G1 X7.7 Y12.95 F120
M106 S255
G4 P100
G0 X6.95 Y12.95 F1200
M106 S0
G4 P20
G1 X5.5 Y12.95 F120
M106 S255
G4 P100
G0 X5.5 Y13.0 F1200
M106 S0
G4 P20
G1 X6.95 Y13.0 F120
M106 S255
G4 P100
G0 X7.6 Y13.0 F1200
M106 S0
G4 P20
G1 X8.7 Y13.0 F120
M106 S255
G4 P100
G0 X9.45 Y13.0 F1200
M106 S0
G4 P20
G1 X10.05 Y13.0 F120
M106 S255
G4 P100
G0 X10.55 Y13.0 F1200
M106 S0
G4 P20
G1 X11.2 Y13.0 F120
M106 S255
G4 P100
G0 X11.6 Y13.0 F1200
M106 S0
G4 P20
G1 X12.95 Y13.0 F120
M106 S255
G4 P100
G0 X13.55 Y13.0 F1200
M106 S0
G4 P20
G1 X14.7 Y13.0 F120
M106 S255
G4 P100
G0 X15.7 Y13.0 F1200
M106 S0
G4 P20
G1 X16.45 Y13.0 F120
M106 S255
G4 P100
G0 X17.05 Y13.0 F1200
M106 S0
G4 P20
G1 X17.8 Y13.0 F120
M106 S255
G4 P100
G0 X18.25 Y13.0 F1200
M106 S0
G4 P20
G1 X19.0 Y13.0 F120
M106 S255
G4 P100
G0 X19.25 Y13.0 F1200
M106 S0
G4 P20
G1 X19.95 Y13.0 F120
M106 S255
G4 P100
G0 X20.3 Y13.0 F1200
M106 S0
G4 P20
G1 X21.0 Y13.0 F120
M106 S255
G4 P100
G0 X21.0 Y13.05 F1200
M106 S0
G4 P20
G1 X20.3 Y13.05 F120
M106 S255
G4 P100
G0 X19.95 Y13.05 F1200
M106 S0
G4 P20
G1 X19.25 Y13.05 F120
M106 S255
G4 P100
G0 X19.0 Y13.05 F1200
M106 S0
G4 P20
G1 X18.25 Y13.05 F120
M106 S255
G4 P100
G0 X17.8 Y13.05 F1200
M106 S0
G4 P20
G1 X17.05 Y13.05 F120
M106 S255
G4 P100
G0 X16.45 Y13.05 F1200
M106 S0
G4 P20
G1 X15.7 Y13.05 F120
M106 S255
G4 P100
G0 X14.8 Y13.05 F1200
M106 S0
G4 P20
G1 X13.5 Y13.05 F120
M106 S255
G4 P100
G0 X12.95 Y13.05 F1200
M106 S0
G4 P20
G1 X11.6 Y13.05 F120
M106 S255
G4 P100
G0 X11.2 Y13.05 F1200
M106 S0
G4 P20
G1 X10.5 Y13.05 F120
M106 S255
G4 P100
G0 X10.05 Y13.05 F1200
M106 S0
G4 P20
G1 X9.45 Y13.05 F120
M106 S255
G4 P100
G0 X8.75 Y13.05 F1200
M106 S0
G4 P20
G1 X7.5 Y13.05 F120
M106 S255
G4 P100
G0 X6.95 Y13.05 F1200
M106 S0
G4 P20
G1 X5.5 Y13.05 F120
M106 S255
G4 P100
G0 X5.5 Y13.1 F1200
M106 S0
G4 P20
G1 X6.95 Y13.1 F120
M106 S255
G4 P100
G0 X7.45 Y13.1 F1200
M106 S0
G4 P20
G1 X8.8 Y13.1 F120
M106 S255
G4 P100
G0 X9.45 Y13.1 F1200
M106 S0
G4 P20
G1 X10.05 Y13.1 F120
M106 S255
G4 P100
G0 X10.5 Y13.1 F1200
M106 S0
G4 P20
G1 X11.2 Y13.1 F120
M106 S255
G4 P100
G0 X11.6 Y13.1 F1200
M106 S0
G4 P20
G1 X12.95 Y13.1 F120
M106 S255
G4 P100
G0 X13.4 Y13.1 F1200
M106 S0
G4 P20
G1 X14.85 Y13.1 F120
M106 S255
G4 P100
G0 X15.7 Y13.1 F1200
M106 S0
G4 P20
G1 X16.45 Y13.1 F120
M106 S255
G4 P100
G0 X17.05 Y13.1 F1200
M106 S0
G4 P20
G1 X17.8 Y13.1 F120
M106 S255
G4 P100
G0 X18.25 Y13.1 F1200
M106 S0
G4 P20
G1 X18.95 Y13.1 F120
M106 S255
G4 P100
G0 X19.25 Y13.1 F1200
M106 S0
G4 P20
G1 X19.95 Y13.1 F120
M106 S255
G4 P100
G0 X20.3 Y13.1 F1200
M106 S0
G4 P20
G1 X21.0 Y13.1 F120
M106 S255
G4 P100
G0 X21.0 Y13.15 F1200
M106 S0
G4 P20
G1 X20.3 Y13.15 F120
M106 S255
G4 P100
G0 X19.95 Y13.15 F1200
M106 S0
G4 P20
G1 X19.25 Y13.15 F120
M106 S255
G4 P100
G0 X18.95 Y13.15 F1200
M106 S0
G4 P20
G1 X18.25 Y13.15 F120
M106 S255
G4 P100
G0 X17.8 Y13.15 F1200
M106 S0
G4 P20
G1 X17.05 Y13.15 F120
M106 S255
G4 P100
G0 X16.45 Y13.15 F1200
M106 S0
G4 P20
G1 X15.7 Y13.15 F120
M106 S255
G4 P100
G0 X14.9 Y13.15 F1200
M106 S0
G4 P20
G1 X13.4 Y13.15 F120
M106 S255
G4 P100
G0 X12.95 Y13.15 F1200
M106 S0
G4 P20
G1 X11.6 Y13.15 F120
M106 S255
G4 P100
G0 X11.2 Y13.15 F1200
M106 S0
G4 P20
G1 X10.5 Y13.15 F120
M106 S255
G4 P100
G0 X10.05 Y13.15 F1200
M106 S0
G4 P20
G1 X9.45 Y13.15 F120
M106 S255
G4 P100
G0 X8.85 Y13.15 F1200
M106 S0
G4 P20
G1 X7.4 Y13.15 F120
M106 S255
G4 P100
G0 X6.95 Y13.15 F1200
M106 S0
G4 P20
G1 X5.5 Y13.15 F120
M106 S255
G4 P100
G0 X5.5 Y13.2 F1200
M106 S0
G4 P20
G1 X6.95 Y13.2 F120
M106 S255
G4 P100
G0 X7.35 Y13.2 F1200
M106 S0
G4 P20
G1 X8.9 Y13.2 F120
M106 S255
G4 P100
G0 X9.45 Y13.2 F1200
M106 S0
G4 P20
G1 X10.05 Y13.2 F120
M106 S255
G4 P100
G0 X10.45 Y13.2 F1200
M106 S0
G4 P20
G1 X11.2 Y13.2 F120
M106 S255
G4 P100
G0 X11.6 Y13.2 F1200
M106 S0
G4 P20
G1 X12.95 Y13.2 F120
M106 S255
G4 P100
G0 X13.35 Y13.2 F1200
M106 S0
G4 P20
G1 X14.95 Y13.2 F120
M106 S255
G4 P100
G0 X15.7 Y13.2 F1200
M106 S0
G4 P20
G1 X16.45 Y13.2 F120
M106 S255
G4 P100
G0 X17.05 Y13.2 F1200
M106 S0
G4 P20
G1 X17.8 Y13.2 F120
M106 S255
G4 P100
G0 X18.25 Y13.2 F1200
M106 S0
G4 P20
G1 X18.95 Y13.2 F120
M106 S255
G4 P100
G0 X19.25 Y13.2 F1200
M106 S0
G4 P20
G1 X19.95 Y13.2 F120
M106 S255
G4 P100
G0 X20.3 Y13.2 F1200
M106 S0
G4 P20
G1 X21.0 Y13.2 F120
M106 S255
G4 P100
G0 X21.0 Y13.25 F1200
M106 S0
G4 P20
G1 X20.3 Y13.25 F120
M106 S255
G4 P100
G0 X19.95 Y13.25 F1200
M106 S0
G4 P20
G1 X19.25 Y13.25 F120
M106 S255
G4 P100
G0 X18.95 Y13.25 F1200
M106 S0
G4 P20
G1 X18.25 Y13.25 F120
M106 S255
G4 P100
G0 X17.8 Y13.25 F1200
M106 S0
G4 P20
G1 X17.05 Y13.25 F120
M106 S255
G4 P100
G0 X16.45 Y13.25 F1200
M106 S0
G4 P20
G1 X15.7 Y13.25 F120
M106 S255
G4 P100
G0 X14.95 Y13.25 F1200
M106 S0
G4 P20
G1 X13.3 Y13.25 F120
M106 S255
G4 P100
G0 X12.95 Y13.25 F1200
M106 S0
G4 P20
G1 X11.6 Y13.25 F120
M106 S255
G4 P100
G0 X11.2 Y13.25 F1200
M106 S0
G4 P20
G1 X10.45 Y13.25 F120
M106 S255
G4 P100
G0 X10.05 Y13.25 F1200
M106 S0
G4 P20
G1 X9.45 Y13.25 F120
M106 S255
G4 P100
G0 X8.95 Y13.25 F1200
M106 S0
G4 P20
G1 X7.35 Y13.25 F120
M106 S255
G4 P100
G0 X6.95 Y13.25 F1200
M106 S0
G4 P20
G1 X5.5 Y13.25 F120
M106 S255
G4 P100
G0 X5.5 Y13.3 F1200
M106 S0
G4 P20
G1 X6.95 Y13.3 F120
M106 S255
G4 P100
G0 X7.3 Y13.3 F1200
M106 S0
G4 P20
G1 X8.95 Y13.3 F120
M106 S255
G4 P100
G0 X9.45 Y13.3 F1200
M106 S0
G4 P20
G1 X10.05 Y13.3 F120
M106 S255
G4 P100
G0 X10.45 Y13.3 F1200
M106 S0
G4 P20
G1 X11.2 Y13.3 F120
M106 S255
G4 P100
G0 X11.6 Y13.3 F1200
M106 S0
G4 P20
G1 X12.95 Y13.3 F120
M106 S255
G4 P100
G0 X13.3 Y13.3 F1200
M106 S0
G4 P20
G1 X14.95 Y13.3 F120
M106 S255
G4 P100
G0 X15.7 Y13.3 F1200
M106 S0
G4 P20
G1 X16.45 Y13.3 F120
M106 S255
G4 P100
G0 X17.1 Y13.3 F1200
M106 S0
G4 P20
G1 X17.8 Y13.3 F120
M106 S255
G4 P100
G0 X18.25 Y13.3 F1200
M106 S0
G4 P20
G1 X18.95 Y13.3 F120
M106 S255
G4 P100
G0 X19.25 Y13.3 F1200
M106 S0
G4 P20
G1 X19.95 Y13.3 F120
M106 S255
G4 P100
G0 X20.3 Y13.3 F1200
M106 S0
G4 P20
G1 X21.0 Y13.3 F120
M106 S255
G4 P100
G0 X21.0 Y13.35 F1200
M106 S0
G4 P20
G1 X20.3 Y13.35 F120
M106 S255
G4 P100
G0 X19.95 Y13.35 F1200
M106 S0
G4 P20
G1 X19.25 Y13.35 F120
M106 S255
G4 P100
G0 X18.95 Y13.35 F1200
M106 S0
G4 P20
G1 X18.2 Y13.35 F120
M106 S255
G4 P100
G0 X17.8 Y13.35 F1200
M106 S0
G4 P20
G1 X17.1 Y13.35 F120
M106 S255
G4 P100
G0 X16.45 Y13.35 F1200
M106 S0
G4 P20
G1 X15.7 Y13.35 F120
M106 S255
G4 P100
G0 X15.0 Y13.35 F1200
M106 S0
G4 P20
G1 X14.25 Y13.35 F120
M106 S255
G4 P100
G0 X13.95 Y13.35 F1200
M106 S0
G4 P20
G1 X13.3 Y13.35 F120
M106 S255
G4 P100
G0 X12.95 Y13.35 F1200
M106 S0
G4 P20
G1 X11.6 Y13.35 F120
M106 S255
G4 P100
G0 X11.2 Y13.35 F1200
M106 S0
G4 P20
G1 X10.4 Y13.35 F120
M106 S255
G4 P100
G0 X10.05 Y13.35 F1200
M106 S0
G4 P20
G1 X9.45 Y13.35 F120
M106 S255
G4 P100
G0 X9.0 Y13.35 F1200
M106 S0
G4 P20
G1 X8.25 Y13.35 F120
M106 S255
G4 P100
G0 X8.0 Y13.35 F1200
M106 S0
G4 P20
G1 X7.3 Y13.35 F120
M106 S255
G4 P100
G0 X6.95 Y13.35 F1200
M106 S0
G4 P20
G1 X5.55 Y13.35 F120
M106 S255
G4 P100
G0 X5.55 Y13.4 F1200
M106 S0
G4 P20
G1 X6.95 Y13.4 F120
M106 S255
G4 P100
G0 X7.25 Y13.4 F1200
M106 S0
G4 P20
G1 X7.95 Y13.4 F120
M106 S255
G4 P100
G0 X8.3 Y13.4 F1200
M106 S0
G4 P20
G1 X9.0 Y13.4 F120
M106 S255
G4 P100
G0 X9.45 Y13.4 F1200
M106 S0
G4 P20
G1 X10.05 Y13.4 F120
M106 S255
G4 P100
G0 X10.4 Y13.4 F1200
M106 S0
G4 P20
G1 X11.2 Y13.4 F120
M106 S255
G4 P100
G0 X11.6 Y13.4 F1200
M106 S0
G4 P20
G1 X12.95 Y13.4 F120
M106 S255
G4 P100
G0 X13.25 Y13.4 F1200
M106 S0
G4 P20
G1 X13.95 Y13.4 F120
M106 S255
G4 P100
G0 X14.3 Y13.4 F1200
M106 S0
G4 P20
G1 X15.0 Y13.4 F120
M106 S255
G4 P100
G0 X15.7 Y13.4 F1200
M106 S0
G4 P20
G1 X16.45 Y13.4 F120
M106 S255
G4 P100
G0 X17.1 Y13.4 F1200
M106 S0
G4 P20
G1 X17.8 Y13.4 F120
M106 S255
G4 P100
G0 X18.2 Y13.4 F1200
M106 S0
G4 P20
G1 X18.95 Y13.4 F120
M106 S255
G4 P100
G0 X19.25 Y13.4 F1200
M106 S0
G4 P20
G1 X19.95 Y13.4 F120
M106 S255
G4 P100
G0 X20.3 Y13.4 F1200
M106 S0
G4 P20
G1 X21.0 Y13.4 F120
M106 S255
G4 P100
G0 X21.0 Y13.45 F1200
M106 S0
G4 P20
G1 X20.3 Y13.45 F120
M106 S255
G4 P100
G0 X19.95 Y13.45 F1200
M106 S0
G4 P20
G1 X19.25 Y13.45 F120
M106 S255
G4 P100
G0 X18.9 Y13.45 F1200
M106 S0
G4 P20
G1 X17.1 Y13.45 F120
M106 S255
G4 P100
G0 X16.45 Y13.45 F1200
M106 S0
G4 P20
G1 X15.7 Y13.45 F120
M106 S255
G4 P100
G0 X15.0 Y13.45 F1200
M106 S0
G4 P20
G1 X14.3 Y13.45 F120
M106 S255
G4 P100
G0 X13.9 Y13.45 F1200
M106 S0
G4 P20
G1 X13.25 Y13.45 F120
M106 S255
G4 P100
G0 X12.95 Y13.45 F1200
M106 S0
G4 P20
G1 X11.6 Y13.45 F120
M106 S255
G4 P100
G0 X11.2 Y13.45 F1200
M106 S0
G4 P20
G1 X10.4 Y13.45 F120
M106 S255
G4 P100
G0 X10.05 Y13.45 F1200
M106 S0
G4 P20
G1 X9.45 Y13.45 F120
M106 S255
G4 P100
G0 X9.0 Y13.45 F1200
M106 S0
G4 P20
G1 X8.3 Y13.45 F120
M106 S255
G4 P100
G0 X7.95 Y13.45 F1200
M106 S0
G4 P20
G1 X7.25 Y13.45 F120
M106 S255
G4 P100
G0 X6.95 Y13.45 F1200
M106 S0
G4 P20
G1 X5.55 Y13.45 F120
M106 S255
G4 P100
G0 X5.6 Y13.5 F1200
M106 S0
G4 P20
G1 X6.35 Y13.5 F120
M106 S255
G4 P100
G0 X7.25 Y13.5 F1200
M106 S0
G4 P20
G1 X7.95 Y13.5 F120
M106 S255
G4 P100
G0 X8.3 Y13.5 F1200
M106 S0
G4 P20
G1 X9.0 Y13.5 F120
M106 S255
G4 P100
G0 X9.45 Y13.5 F1200
M106 S0
G4 P20
G1 X10.05 Y13.5 F120
M106 S255
G4 P100
G0 X10.35 Y13.5 F1200
M106 S0
G4 P20
G1 X11.2 Y13.5 F120
M106 S255
G4 P100
G0 X11.6 Y13.5 F1200
M106 S0
G4 P20
G1 X12.35 Y13.5 F120
M106 S255
G4 P100
G0 X13.25 Y13.5 F1200
M106 S0
G4 P20
G1 X13.9 Y13.5 F120
M106 S255
G4 P100
G0 X14.3 Y13.5 F1200
M106 S0
G4 P20
G1 X15.0 Y13.5 F120
M106 S255
G4 P100
G0 X15.7 Y13.5 F1200
M106 S0
G4 P20
G1 X16.45 Y13.5 F120
M106 S255
G4 P100
G0 X17.1 Y13.5 F1200
M106 S0
G4 P20
G1 X18.9 Y13.5 F120
M106 S255
G4 P100
G0 X19.25 Y13.5 F1200
M106 S0
G4 P20
G1 X19.95 Y13.5 F120
M106 S255
G4 P100
G0 X20.3 Y13.5 F1200
M106 S0
G4 P20
G1 X21.0 Y13.5 F120
M106 S255
G4 P100
G0 X21.0 Y13.55 F1200
M106 S0
G4 P20
G1 X20.3 Y13.55 F120
M106 S255
G4 P100
G0 X19.95 Y13.55 F1200
M106 S0
G4 P20
G1 X19.25 Y13.55 F120
M106 S255
G4 P100
G0 X18.9 Y13.55 F1200
M106 S0
G4 P20
G1 X17.1 Y13.55 F120
M106 S255
G4 P100
G0 X16.45 Y13.55 F1200
M106 S0
G4 P20
G1 X15.7 Y13.55 F120
M106 S255
G4 P100
G0 X15.0 Y13.55 F1200
M106 S0
G4 P20
G1 X14.3 Y13.55 F120
M106 S255
G4 P100
G0 X13.9 Y13.55 F1200
M106 S0
G4 P20
G1 X13.25 Y13.55 F120
M106 S255
G4 P100
G0 X12.35 Y13.55 F1200
M106 S0
G4 P20
G1 X11.6 Y13.55 F120
M106 S255
G4 P100
G0 X11.2 Y13.55 F1200
M106 S0
G4 P20
G1 X10.35 Y13.55 F120
M106 S255
G4 P100
G0 X10.05 Y13.55 F1200
M106 S0
G4 P20
G1 X9.45 Y13.55 F120
M106 S255
G4 P100
G0 X9.0 Y13.55 F1200
M106 S0
G4 P20
G1 X8.3 Y13.55 F120
M106 S255
G4 P100
G0 X7.95 Y13.55 F1200
M106 S0
G4 P20
G1 X7.25 Y13.55 F120
M106 S255
G4 P100
G0 X6.35 Y13.55 F1200
M106 S0
G4 P20
G1 X5.6 Y13.55 F120
M106 S255
G4 P100
G0 X5.6 Y13.6 F1200
M106 S0
G4 P20
G1 X6.35 Y13.6 F120
M106 S255
G4 P100
G0 X7.25 Y13.6 F1200
M106 S0
G4 P20
G1 X7.95 Y13.6 F120
M106 S255
G4 P100
G0 X8.3 Y13.6 F1200
M106 S0
G4 P20
G1 X9.0 Y13.6 F120
M106 S255
G4 P100
G0 X9.45 Y13.6 F1200
M106 S0
G4 P20
G1 X10.05 Y13.6 F120
M106 S255
G4 P100
G0 X10.35 Y13.6 F1200
M106 S0
G4 P20
G1 X11.2 Y13.6 F120
M106 S255
G4 P100
G0 X11.6 Y13.6 F1200
M106 S0
G4 P20
G1 X12.35 Y13.6 F120
M106 S255
G4 P100
G0 X13.25 Y13.6 F1200
M106 S0
G4 P20
G1 X13.9 Y13.6 F120
M106 S255
G4 P100
G0 X14.3 Y13.6 F1200
M106 S0
G4 P20
G1 X15.0 Y13.6 F120
M106 S255
G4 P100
G0 X15.7 Y13.6 F1200
M106 S0
G4 P20
G1 X16.45 Y13.6 F120
M106 S255
G4 P100
G0 X17.1 Y13.6 F1200
M106 S0
G4 P20
G1 X18.9 Y13.6 F120
M106 S255
G4 P100
G0 X19.25 Y13.6 F1200
M106 S0
G4 P20
G1 X19.95 Y13.6 F120
M106 S255
G4 P100
G0 X20.3 Y13.6 F1200
M106 S0
G4 P20
G1 X21.0 Y13.6 F120
M106 S255
G4 P100
G0 X21.0 Y13.65 F1200
M106 S0
G4 P20
G1 X20.3 Y13.65 F120
M106 S255
G4 P100
G0 X19.95 Y13.65 F1200
M106 S0
G4 P20
G1 X19.25 Y13.65 F120
M106 S255
G4 P100
G0 X18.9 Y13.65 F1200
M106 S0
G4 P20
G1 X17.15 Y13.65 F120
M106 S255
G4 P100
G0 X16.45 Y13.65 F1200
M106 S0
G4 P20
G1 X15.7 Y13.65 F120
M106 S255
G4 P100
G0 X15.0 Y13.65 F1200
M106 S0
G4 P20
G1 X14.3 Y13.65 F120
M106 S255
G4 P100
G0 X13.9 Y13.65 F1200
M106 S0
G4 P20
G1 X13.25 Y13.65 F120
M106 S255
G4 P100
G0 X12.35 Y13.65 F1200
M106 S0
G4 P20
G1 X11.6 Y13.65 F120
M106 S255
G4 P100
G0 X11.2 Y13.65 F1200
M106 S0
G4 P20
G1 X10.3 Y13.65 F120
M106 S255
G4 P100
G0 X10.05 Y13.65 F1200
M106 S0
G4 P20
G1 X9.45 Y13.65 F120
M106 S255
G4 P100
G0 X9.05 Y13.65 F1200
M106 S0
G4 P20
G1 X8.3 Y13.65 F120
M106 S255
G4 P100
G0 X7.95 Y13.65 F1200
M106 S0
G4 P20
G1 X7.25 Y13.65 F120
M106 S255
G4 P100
G0 X6.4 Y13.65 F1200
M106 S0
G4 P20
G1 X5.65 Y13.65 F120
M106 S255
G4 P100
G0 X5.65 Y13.7 F1200
M106 S0
G4 P20
G1 X6.4 Y13.7 F120
M106 S255
G4 P100
G0 X7.25 Y13.7 F1200
M106 S0
G4 P20
G1 X7.95 Y13.7 F120
M106 S255
G4 P100
G0 X8.3 Y13.7 F1200
M106 S0
G4 P20
G1 X9.05 Y13.7 F120
M106 S255
G4 P100
G0 X9.45 Y13.7 F1200
M106 S0
G4 P20
G1 X10.05 Y13.7 F120
M106 S255
G4 P100
G0 X10.3 Y13.7 F1200
M106 S0
G4 P20
G1 X11.2 Y13.7 F120
M106 S255
G4 P100
G0 X11.6 Y13.7 F1200
M106 S0
G4 P20
G1 X12.35 Y13.7 F120
M106 S255
G4 P100
G0 X13.25 Y13.7 F1200
M106 S0
G4 P20
G1 X13.9 Y13.7 F120
M106 S255
G4 P100
G0 X14.3 Y13.7 F1200
M106 S0
G4 P20
G1 X15.0 Y13.7 F120
M106 S255
G4 P100
G0 X15.7 Y13.7 F1200
M106 S0
G4 P20
G1 X16.45 Y13.7 F120
M106 S255
G4 P100
G0 X17.15 Y13.7 F1200
M106 S0
G4 P20
G1 X18.9 Y13.7 F120
M106 S255
G4 P100
G0 X19.25 Y13.7 F1200
M106 S0
G4 P20
G1 X19.95 Y13.7 F120
M106 S255
G4 P100
G0 X20.3 Y13.7 F1200
M106 S0
G4 P20
G1 X21.0 Y13.7 F120
M106 S255
G4 P100
G0 X21.0 Y13.75 F1200
M106 S0
G4 P20
G1 X20.3 Y13.75 F120
M106 S255
G4 P100
G0 X19.95 Y13.75 F1200
M106 S0
G4 P20
G1 X19.25 Y13.75 F120
M106 S255
G4 P100
G0 X18.85 Y13.75 F1200
M106 S0
G4 P20
G1 X17.15 Y13.75 F120
M106 S255
G4 P100
G0 X16.45 Y13.75 F1200
M106 S0
G4 P20
G1 X15.7 Y13.75 F120
M106 S255
G4 P100
G0 X15.0 Y13.75 F1200
M106 S0
G4 P20
G1 X14.3 Y13.75 F120
M106 S255
G4 P100
G0 X13.9 Y13.75 F1200
M106 S0
G4 P20
G1 X13.25 Y13.75 F120
M106 S255
G4 P100
G0 X12.35 Y13.75 F1200
M106 S0
G4 P20
G1 X11.6 Y13.75 F120
M106 S255
G4 P100
G0 X11.2 Y13.75 F1200
M106 S0
G4 P20
G1 X10.3 Y13.75 F120
M106 S255
G4 P100
G0 X10.05 Y13.75 F1200
M106 S0
G4 P20
G1 X9.45 Y13.75 F120
M106 S255
G4 P100
G0 X9.05 Y13.75 F1200
M106 S0
G4 P20
G1 X8.3 Y13.75 F120
M106 S255
G4 P100
G0 X7.95 Y13.75 F1200
M106 S0
G4 P20
G1 X7.25 Y13.75 F120
M106 S255
G4 P100
G0 X6.4 Y13.75 F1200
M106 S0
G4 P20
G1 X5.65 Y13.75 F120
M106 S255
G4 P100
G0 X5.7 Y13.8 F1200
M106 S0
G4 P20
G1 X6.45 Y13.8 F120
M106 S255
G4 P100
G0 X7.25 Y13.8 F1200
M106 S0
G4 P20
G1 X7.95 Y13.8 F120
M106 S255
G4 P100
G0 X8.3 Y13.8 F1200
M106 S0
G4 P20
G1 X9.05 Y13.8 F120
M106 S255
G4 P100
G0 X9.45 Y13.8 F1200
M106 S0
G4 P20
G1 X10.05 Y13.8 F120
M106 S255
G4 P100
G0 X10.25 Y13.8 F1200
M106 S0
G4 P20
G1 X11.2 Y13.8 F120
M106 S255
G4 P100
G0 X11.6 Y13.8 F1200
M106 S0
G4 P20
G1 X12.35 Y13.8 F120
M106 S255
G4 P100
G0 X13.25 Y13.8 F1200
M106 S0
G4 P20
G1 X13.9 Y13.8 F120
M106 S255
G4 P100
G0 X14.3 Y13.8 F1200
M106 S0
G4 P20
G1 X15.0 Y13.8 F120
M106 S255
G4 P100
G0 X15.7 Y13.8 F1200
M106 S0
G4 P20
G1 X16.45 Y13.8 F120
M106 S255
G4 P100
G0 X17.15 Y13.8 F1200
M106 S0
G4 P20
G1 X18.85 Y13.8 F120
M106 S255
G4 P100
G0 X19.25 Y13.8 F1200
M106 S0
G4 P20
G1 X19.95 Y13.8 F120
M106 S255
G4 P100
G0 X20.3 Y13.8 F1200
M106 S0
G4 P20
G1 X21.0 Y13.8 F120
M106 S255
G4 P100
G0 X21.0 Y13.85 F1200
M106 S0
G4 P20
G1 X20.3 Y13.85 F120
M106 S255
G4 P100
G0 X19.95 Y13.85 F1200
M106 S0
G4 P20
G1 X19.25 Y13.85 F120
M106 S255
G4 P100
G0 X18.85 Y13.85 F1200
M106 S0
G4 P20
G1 X17.15 Y13.85 F120
M106 S255
G4 P100
G0 X16.45 Y13.85 F1200
M106 S0
G4 P20
G1 X15.7 Y13.85 F120
M106 S255
G4 P100
G0 X15.0 Y13.85 F1200
M106 S0
G4 P20
G1 X14.25 Y13.85 F120
M106 S255
G4 P100
G0 X13.9 Y13.85 F1200
M106 S0
G4 P20
G1 X13.25 Y13.85 F120
M106 S255
G4 P100
G0 X12.35 Y13.85 F1200
M106 S0
G4 P20
G1 X11.6 Y13.85 F120
M106 S255
G4 P100
G0 X11.2 Y13.85 F1200
M106 S0
G4 P20
G1 X10.25 Y13.85 F120
M106 S255
G4 P100
G0 X10.05 Y13.85 F1200
M106 S0
G4 P20
G1 X9.45 Y13.85 F120
M106 S255
G4 P100
G0 X9.05 Y13.85 F1200
M106 S0
G4 P20
G1 X8.3 Y13.85 F120
M106 S255
G4 P100
G0 X7.95 Y13.85 F1200
M106 S0
G4 P20
G1 X7.25 Y13.85 F120
M106 S255
G4 P100
G0 X6.45 Y13.85 F1200
M106 S0
G4 P20
G1 X5.7 Y13.85 F120
M106 S255
G4 P100
G0 X5.7 Y13.9 F1200
M106 S0
G4 P20
G1 X6.5 Y13.9 F120
M106 S255
G4 P100
G0 X7.25 Y13.9 F1200
M106 S0
G4 P20
G1 X7.95 Y13.9 F120
M106 S255
G4 P100
G0 X8.3 Y13.9 F1200
M106 S0
G4 P20
G1 X9.05 Y13.9 F120
M106 S255
G4 P100
G0 X9.45 Y13.9 F1200
M106 S0
G4 P20
G1 X10.05 Y13.9 F120
M106 S255
G4 P100
G0 X10.25 Y13.9 F1200
M106 S0
G4 P20
G1 X11.2 Y13.9 F120
M106 S255
G4 P100
G0 X11.6 Y13.9 F1200
M106 S0
G4 P20
G1 X12.35 Y13.9 F120
M106 S255
G4 P100
G0 X13.25 Y13.9 F1200
M106 S0
G4 P20
G1 X13.9 Y13.9 F120
M106 S255
G4 P100
G0 X14.25 Y13.9 F1200
M106 S0
G4 P20
G1 X15.0 Y13.9 F120
M106 S255
G4 P100
G0 X15.7 Y13.9 F1200
M106 S0
G4 P20
G1 X16.45 Y13.9 F120
M106 S255
G4 P100
G0 X17.15 Y13.9 F1200
M106 S0
G4 P20
G1 X18.85 Y13.9 F120
M106 S255
G4 P100
G0 X19.25 Y13.9 F1200
M106 S0
G4 P20
G1 X19.95 Y13.9 F120
M106 S255
G4 P100
G0 X20.3 Y13.9 F1200
M106 S0
G4 P20
G1 X21.0 Y13.9 F120
M106 S255
G4 P100
G0 X21.0 Y13.95 F1200
M106 S0
G4 P20
G1 X20.3 Y13.95 F120
M106 S255
G4 P100
G0 X19.95 Y13.95 F1200
M106 S0
G4 P20
G1 X19.25 Y13.95 F120
M106 S255
G4 P100
G0 X18.85 Y13.95 F1200
M106 S0
G4 P20
G1 X18.2 Y13.95 F120
M106 S255
G4 P100
G0 X17.8 Y13.95 F1200
M106 S0
G4 P20
G1 X17.15 Y13.95 F120
M106 S255
G4 P100
G0 X16.45 Y13.95 F1200
M106 S0
G4 P20
G1 X15.7 Y13.95 F120
M106 S255
G4 P100
G0 X14.95 Y13.95 F1200
M106 S0
G4 P20
G1 X14.2 Y13.95 F120
M106 S255
G4 P100
G0 X12.35 Y13.95 F1200
M106 S0
G4 P20
G1 X11.6 Y13.95 F120
M106 S255
G4 P100
G0 X11.2 Y13.95 F1200
M106 S0
G4 P20
G1 X10.2 Y13.95 F120
M106 S255
G4 P100
G0 X10.05 Y13.95 F1200
M106 S0
G4 P20
G1 X9.45 Y13.95 F120
M106 S255
G4 P100
G0 X9.05 Y13.95 F1200
M106 S0
G4 P20
G1 X8.3 Y13.95 F120
M106 S255
G4 P100
G0 X7.95 Y13.95 F1200
M106 S0
G4 P20
G1 X7.25 Y13.95 F120
M106 S255
G4 P100
G0 X6.5 Y13.95 F1200
M106 S0
G4 P20
G1 X5.75 Y13.95 F120
M106 S255
G4 P100
G0 X5.75 Y14.0 F1200
M106 S0
G4 P20
G1 X6.5 Y14.0 F120
M106 S255
G4 P100
G0 X7.25 Y14.0 F1200
M106 S0
G4 P20
G1 X7.95 Y14.0 F120
M106 S255
G4 P100
G0 X8.3 Y14.0 F1200
M106 S0
G4 P20
G1 X9.05 Y14.0 F120
M106 S255
G4 P100
G0 X9.45 Y14.0 F1200
M106 S0
G4 P20
G1 X10.05 Y14.0 F120
M106 S255
G4 P100
G0 X10.2 Y14.0 F1200
M106 S0
G4 P20
G1 X11.2 Y14.0 F120
M106 S255
G4 P100
G0 X11.6 Y14.0 F1200
M106 S0
G4 P20
G1 X12.35 Y14.0 F120
M106 S255
G4 P100
G0 X14.1 Y14.0 F1200
M106 S0
G4 P20
G1 X14.95 Y14.0 F120
M106 S255
G4 P100
G0 X15.7 Y14.0 F1200
M106 S0
G4 P20
G1 X16.45 Y14.0 F120
M106 S255
G4 P100
G0 X17.2 Y14.0 F1200
M106 S0
G4 P20
G1 X17.8 Y14.0 F120
M106 S255
G4 P100
G0 X18.2 Y14.0 F1200
M106 S0
G4 P20
G1 X18.85 Y14.0 F120
M106 S255
G4 P100
G0 X19.25 Y14.0 F1200
M106 S0
G4 P20
G1 X19.95 Y14.0 F120
M106 S255
G4 P100
G0 X20.3 Y14.0 F1200
M106 S0
G4 P20
G1 X21.0 Y14.0 F120
M106 S255
G4 P100
G0 X20.95 Y14.05 F1200
M106 S0
G4 P20
G1 X20.3 Y14.05 F120
M106 S255
G4 P100
G0 X19.95 Y14.05 F1200
M106 S0
G4 P20
G1 X19.25 Y14.05 F120
M106 S255
G4 P100
G0 X18.8 Y14.05 F1200
M106 S0
G4 P20
G1 X18.2 Y14.05 F120
M106 S255
G4 P100
G0 X17.85 Y14.05 F1200
M106 S0
G4 P20
G1 X17.2 Y14.05 F120
M106 S255
G4 P100
G0 X16.45 Y14.05 F1200
M106 S0
G4 P20
G1 X15.7 Y14.05 F120
M106 S255
G4 P100
G0 X14.95 Y14.05 F1200
M106 S0
G4 P20
G1 X14.05 Y14.05 F120
M106 S255
G4 P100
G0 X12.35 Y14.05 F1200
M106 S0
G4 P20
G1 X11.6 Y14.05 F120
M106 S255
G4 P100
G0 X11.2 Y14.05 F1200
M106 S0
G4 P20
G1 X10.2 Y14.05 F120
M106 S255
G4 P100
G0 X10.05 Y14.05 F1200
M106 S0
G4 P20
G1 X9.45 Y14.05 F120
M106 S255
G4 P100
G0 X9.05 Y14.05 F1200
M106 S0
G4 P20
G1 X8.3 Y14.05 F120
M106 S255
G4 P100
G0 X7.95 Y14.05 F1200
M106 S0
G4 P20
G1 X7.25 Y14.05 F120
M106 S255
G4 P100
G0 X6.55 Y14.05 F1200
M106 S0
G4 P20
G1 X5.75 Y14.05 F120
M106 S255
G4 P100
G0 X5.8 Y14.1 F1200
M106 S0
G4 P20
G1 X6.55 Y14.1 F120
M106 S255
G4 P100
G0 X7.25 Y14.1 F1200
M106 S0
G4 P20
G1 X7.95 Y14.1 F120
M106 S255
G4 P100
G0 X8.3 Y14.1 F1200
M106 S0
G4 P20
G1 X9.05 Y14.1 F120
M106 S255
G4 P100
G0 X9.45 Y14.1 F1200
M106 S0
G4 P20
G1 X10.05 Y14.1 F120
M106 S255
G4 P100
G0 X10.15 Y14.1 F1200
M106 S0
G4 P20
G1 X11.2 Y14.1 F120
M106 S255
G4 P100
G0 X11.6 Y14.1 F1200
M106 S0
G4 P20
G1 X12.35 Y14.1 F120
M106 S255
G4 P100
G0 X13.95 Y14.1 F1200
M106 S0
G4 P20
G1 X14.95 Y14.1 F120
M106 S255
G4 P100
G0 X15.7 Y14.1 F1200
M106 S0
G4 P20
G1 X16.45 Y14.1 F120
M106 S255
G4 P100
G0 X17.2 Y14.1 F1200
M106 S0
G4 P20
G1 X17.85 Y14.1 F120
M106 S255
G4 P100
G0 X18.15 Y14.1 F1200
M106 S0
G4 P20
G1 X18.8 Y14.1 F120
M106 S255
G4 P100
G0 X19.25 Y14.1 F1200
M106 S0
G4 P20
G1 X19.95 Y14.1 F120
M106 S255
G4 P100
G0 X20.3 Y14.1 F1200
M106 S0
G4 P20
G1 X20.95 Y14.1 F120
M106 S255
G4 P100
G0 X20.95 Y14.15 F1200
M106 S0
G4 P20
G1 X20.3 Y14.15 F120
M106 S255
G4 P100
G0 X19.95 Y14.15 F1200
M106 S0
G4 P20
G1 X19.25 Y14.15 F120
M106 S255
G4 P100
G0 X18.8 Y14.15 F1200
M106 S0
G4 P20
G1 X18.15 Y14.15 F120
M106 S255
G4 P100
G0 X17.85 Y14.15 F1200
M106 S0
G4 P20
G1 X17.2 Y14.15 F120
M106 S255
G4 P100
G0 X16.45 Y14.15 F1200
M106 S0
G4 P20
G1 X15.7 Y14.15 F120
M106 S255
G4 P100
G0 X14.9 Y14.15 F1200
M106 S0
G4 P20
G1 X13.9 Y14.15 F120
M106 S255
G4 P100
G0 X12.85 Y14.15 F1200
M106 S0
G4 P20
G1 X11.6 Y14.15 F120
M106 S255
G4 P100
G0 X11.2 Y14.15 F1200
M106 S0
G4 P20
G1 X10.15 Y14.15 F120
M106 S255
G4 P100
G0 X10.05 Y14.15 F1200
M106 S0
G4 P20
G1 X9.45 Y14.15 F120
M106 S255
G4 P100
G0 X9.05 Y14.15 F1200
M106 S0
G4 P20
G1 X8.3 Y14.15 F120
M106 S255
G4 P100
G0 X7.95 Y14.15 F1200
M106 S0
G4 P20
G1 X7.25 Y14.15 F120
M106 S255
G4 P100
G0 X6.55 Y14.15 F1200
M106 S0
G4 P20
G1 X5.8 Y14.15 F120
M106 S255
G4 P100
G0 X5.8 Y14.2 F1200
M106 S0
G4 P20
G1 X6.6 Y14.2 F120
M106 S255
G4 P100
G0 X7.25 Y14.2 F1200
M106 S0
G4 P20
G1 X7.95 Y14.2 F120
M106 S255
G4 P100
G0 X8.3 Y14.2 F1200
M106 S0
G4 P20
G1 X9.05 Y14.2 F120
M106 S255
G4 P100
G0 X9.45 Y14.2 F1200
M106 S0
G4 P20
G1 X10.05 Y14.2 F120
M106 S255
G4 P100
G0 X10.15 Y14.2 F1200
M106 S0
G4 P20
G1 X11.2 Y14.2 F120
M106 S255
G4 P100
G0 X11.6 Y14.2 F1200
M106 S0
G4 P20
G1 X12.85 Y14.2 F120
M106 S255
G4 P100
G0 X13.8 Y14.2 F1200
M106 S0
G4 P20
G1 X14.9 Y14.2 F120
M106 S255
G4 P100
G0 X15.7 Y14.2 F1200
M106 S0
G4 P20
G1 X16.45 Y14.2 F120
M106 S255
G4 P100
G0 X17.2 Y14.2 F1200
M106 S0
G4 P20
G1 X17.85 Y14.2 F120
M106 S255
G4 P100
G0 X18.15 Y14.2 F1200
M106 S0
G4 P20
G1 X18.8 Y14.2 F120
M106 S255
G4 P100
G0 X19.25 Y14.2 F1200
M106 S0
G4 P20
G1 X20.0 Y14.2 F120
M106 S255
G4 P100
G0 X20.2 Y14.2 F1200
M106 S0
G4 P20
G1 X20.9 Y14.2 F120
M106 S255
G4 P100
G0 X20.85 Y14.25 F1200
M106 S0
G4 P20
G1 X19.25 Y14.25 F120
M106 S255
G4 P100
G0 X18.8 Y14.25 F1200
M106 S0
G4 P20
G1 X18.15 Y14.25 F120
M106 S255
G4 P100
G0 X17.85 Y14.25 F1200
M106 S0
G4 P20
G1 X17.2 Y14.25 F120
M106 S255
G4 P100
G0 X16.45 Y14.25 F1200
M106 S0
G4 P20
G1 X15.7 Y14.25 F120
M106 S255
G4 P100
G0 X14.85 Y14.25 F1200
M106 S0
G4 P20
G1 X13.7 Y14.25 F120
M106 S255
G4 P100
G0 X12.85 Y14.25 F1200
M106 S0
G4 P20
G1 X11.6 Y14.25 F120
M106 S255
G4 P100
G0 X11.2 Y14.25 F1200
M106 S0
G4 P20
G1 X9.45 Y14.25 F120
M106 S255
G4 P100
G0 X9.05 Y14.25 F1200
M106 S0
G4 P20
G1 X8.3 Y14.25 F120
M106 S255
G4 P100
G0 X7.95 Y14.25 F1200
M106 S0
G4 P20
G1 X7.25 Y14.25 F120
M106 S255
G4 P100
G0 X6.6 Y14.25 F1200
M106 S0
G4 P20
G1 X5.85 Y14.25 F120
M106 S255
G4 P100
G0 X5.85 Y14.3 F1200
M106 S0
G4 P20
G1 X6.6 Y14.3 F120
M106 S255
G4 P100
G0 X7.25 Y14.3 F1200
M106 S0
G4 P20
G1 X7.95 Y14.3 F120
M106 S255
G4 P100
G0 X8.3 Y14.3 F1200
M106 S0
G4 P20
G1 X9.05 Y14.3 F120
M106 S255
G4 P100
G0 X9.45 Y14.3 F1200
M106 S0
G4 P20
G1 X11.2 Y14.3 F120
M106 S255
G4 P100
G0 X11.6 Y14.3 F1200
M106 S0
G4 P20
G1 X12.85 Y14.3 F120
M106 S255
G4 P100
G0 X13.65 Y14.3 F1200
M106 S0
G4 P20
G1 X14.8 Y14.3 F120
M106 S255
G4 P100
G0 X15.7 Y14.3 F1200
M106 S0
G4 P20
G1 X16.45 Y14.3 F120
M106 S255
G4 P100
G0 X17.2 Y14.3 F1200
M106 S0
G4 P20
G1 X17.85 Y14.3 F120
M106 S255
G4 P100
G0 X18.15 Y14.3 F1200
M106 S0
G4 P20
G1 X18.8 Y14.3 F120
M106 S255
G4 P100
G0 X19.25 Y14.3 F1200
M106 S0
G4 P20
G1 X20.8 Y14.3 F120
M106 S255
G4 P100
G0 X20.65 Y14.35 F1200
M106 S0
G4 P20
G1 X19.25 Y14.35 F120
M106 S255
G4 P100
G0 X18.75 Y14.35 F1200
M106 S0
G4 P20
G1 X18.15 Y14.35 F120
M106 S255
G4 P100
G0 X17.85 Y14.35 F1200
M106 S0
G4 P20
G1 X17.25 Y14.35 F120
M106 S255
G4 P100
G0 X16.45 Y14.35 F1200
M106 S0
G4 P20
G1 X15.7 Y14.35 F120
M106 S255
G4 P100
G0 X14.75 Y14.35 F1200
M106 S0
G4 P20
G1 X13.55 Y14.35 F120
M106 S255
G4 P100
G0 X12.85 Y14.35 F1200
M106 S0
G4 P20
G1 X11.6 Y14.35 F120
M106 S255
G4 P100
G0 X11.2 Y14.35 F1200
M106 S0
G4 P20
G1 X9.45 Y14.35 F120
M106 S255
G4 P100
G0 X9.05 Y14.35 F1200
M106 S0
G4 P20
G1 X8.3 Y14.35 F120
M106 S255
G4 P100
G0 X7.95 Y14.35 F1200
M106 S0
G4 P20
G1 X7.25 Y14.35 F120
M106 S255
G4 P100
G0 X6.65 Y14.35 F1200
M106 S0
G4 P20
G1 X5.85 Y14.35 F120
M106 S255
G4 P100
G0 X5.9 Y14.4 F1200
M106 S0
G4 P20
G1 X6.65 Y14.4 F120
M106 S255
G4 P100
G0 X7.25 Y14.4 F1200
M106 S0
G4 P20
G1 X7.95 Y14.4 F120
M106 S255
G4 P100
G0 X8.3 Y14.4 F1200
M106 S0
G4 P20
G1 X9.05 Y14.4 F120
M106 S255
G4 P100
G0 X9.45 Y14.4 F1200
M106 S0
G4 P20
G1 X11.2 Y14.4 F120
M106 S255
G4 P100
G0 X11.6 Y14.4 F1200
M106 S0
G4 P20
G1 X12.85 Y14.4 F120
M106 S255
G4 P100
G0 X13.5 Y14.4 F1200
M106 S0
G4 P20
G1 X14.7 Y14.4 F120
M106 S255
G4 P100
G0 X15.7 Y14.4 F1200
M106 S0
G4 P20
G1 X16.45 Y14.4 F120
M106 S255
G4 P100
G0 X17.25 Y14.4 F1200
M106 S0
G4 P20
G1 X17.85 Y14.4 F120
M106 S255
G4 P100
G0 X18.15 Y14.4 F1200
M106 S0
G4 P20
G1 X18.75 Y14.4 F120
M106 S255
G4 P100
G0 X19.25 Y14.4 F1200
M106 S0
G4 P20
G1 X20.55 Y14.4 F120
M106 S255
G4 P100
G0 X20.7 Y14.45 F1200
M106 S0
G4 P20
G1 X19.25 Y14.45 F120
M106 S255
G4 P100
G0 X18.75 Y14.45 F1200
M106 S0
G4 P20
G1 X18.15 Y14.45 F120
M106 S255
G4 P100
G0 X17.9 Y14.45 F1200
M106 S0
G4 P20
G1 X17.25 Y14.45 F120
M106 S255
G4 P100
G0 X16.45 Y14.45 F1200
M106 S0
G4 P20
G1 X15.7 Y14.45 F120
M106 S255
G4 P100
G0 X14.6 Y14.45 F1200
M106 S0
G4 P20
G1 X13.45 Y14.45 F120
M106 S255
G4 P100
G0 X12.85 Y14.45 F1200
M106 S0
G4 P20
G1 X11.6 Y14.45 F120
M106 S255
G4 P100
G0 X11.2 Y14.45 F1200
M106 S0
G4 P20
G1 X9.45 Y14.45 F120
M106 S255
G4 P100
G0 X9.05 Y14.45 F1200
M106 S0
G4 P20
G1 X8.3 Y14.45 F120
M106 S255
G4 P100
G0 X7.95 Y14.45 F1200
M106 S0
G4 P20
G1 X7.25 Y14.45 F120
M106 S255
G4 P100
G0 X6.65 Y14.45 F1200
M106 S0
G4 P20
G1 X5.9 Y14.45 F120
M106 S255
G4 P100
G0 X5.9 Y14.5 F1200
M106 S0
G4 P20
G1 X6.7 Y14.5 F120
M106 S255
G4 P100
G0 X7.25 Y14.5 F1200
M106 S0
G4 P20
G1 X7.95 Y14.5 F120
M106 S255
G4 P100
G0 X8.3 Y14.5 F1200
M106 S0
G4 P20
G1 X9.05 Y14.5 F120
M106 S255
G4 P100
G0 X9.45 Y14.5 F1200
M106 S0
G4 P20
G1 X10.5 Y14.5 F120
M106 S255
G4 P100
G0 X10.6 Y14.5 F1200
M106 S0
G4 P20
G1 X11.2 Y14.5 F120
M106 S255
G4 P100
G0 X11.6 Y14.5 F1200
M106 S0
G4 P20
G1 X12.85 Y14.5 F120
M106 S255
G4 P100
G0 X13.4 Y14.5 F1200
M106 S0
G4 P20
G1 X14.55 Y14.5 F120
M106 S255
G4 P100
G0 X15.7 Y14.5 F1200
M106 S0
G4 P20
G1 X16.45 Y14.5 F120
M106 S255
G4 P100
G0 X17.25 Y14.5 F1200
M106 S0
G4 P20
G1 X17.9 Y14.5 F120
M106 S255
G4 P100
G0 X18.15 Y14.5 F1200
M106 S0
G4 P20
G1 X18.75 Y14.5 F120
M106 S255
G4 P100
G0 X19.25 Y14.5 F1200
M106 S0
G4 P20
G1 X20.85 Y14.5 F120
M106 S255
G4 P100
G0 X20.9 Y14.55 F1200
M106 S0
G4 P20
G1 X19.25 Y14.55 F120
M106 S255
G4 P100
G0 X18.75 Y14.55 F1200
M106 S0
G4 P20
G1 X18.1 Y14.55 F120
M106 S255
G4 P100
G0 X17.9 Y14.55 F1200
M106 S0
G4 P20
G1 X17.25 Y14.55 F120
M106 S255
G4 P100
G0 X16.45 Y14.55 F1200
M106 S0
G4 P20
G1 X15.7 Y14.55 F120
M106 S255
G4 P100
G0 X14.45 Y14.55 F1200
M106 S0
G4 P20
G1 X13.35 Y14.55 F120
M106 S255
G4 P100
G0 X12.85 Y14.55 F1200
M106 S0
G4 P20
G1 X11.6 Y14.55 F120
M106 S255
G4 P100
G0 X11.2 Y14.55 F1200
M106 S0
G4 P20
G1 X10.6 Y14.55 F120
M106 S255
G4 P100
G0 X10.45 Y14.55 F1200
M106 S0
G4 P20
G1 X9.45 Y14.55 F120
M106 S255
G4 P100
G0 X9.05 Y14.55 F1200
M106 S0
G4 P20
G1 X8.3 Y14.55 F120
M106 S255
G4 P100
G0 X7.95 Y14.55 F1200
M106 S0
G4 P20
G1 X7.25 Y14.55 F120
M106 S255
G4 P100
G0 X6.7 Y14.55 F1200
M106 S0
G4 P20
G1 X5.95 Y14.55 F120
M106 S255
G4 P100
G0 X5.95 Y14.6 F1200
M106 S0
G4 P20
G1 X6.75 Y14.6 F120
M106 S255
G4 P100
G0 X7.25 Y14.6 F1200
M106 S0
G4 P20
G1 X7.95 Y14.6 F120
M106 S255
G4 P100
G0 X8.3 Y14.6 F1200
M106 S0
G4 P20
G1 X9.05 Y14.6 F120
M106 S255
G4 P100
G0 X9.45 Y14.6 F1200
M106 S0
G4 P20
G1 X10.45 Y14.6 F120
M106 S255
G4 P100
G0 X10.6 Y14.6 F1200
M106 S0
G4 P20
G1 X11.2 Y14.6 F120
M106 S255
G4 P100
G0 X11.6 Y14.6 F1200
M106 S0
G4 P20
G1 X12.85 Y14.6 F120
M106 S255
G4 P100
G0 X13.3 Y14.6 F1200
M106 S0
G4 P20
G1 X14.4 Y14.6 F120
M106 S255
G4 P100
G0 X15.7 Y14.6 F1200
M106 S0
G4 P20
G1 X16.45 Y14.6 F120
M106 S255
G4 P100
G0 X17.25 Y14.6 F1200
M106 S0
G4 P20
G1 X17.9 Y14.6 F120
M106 S255
G4 P100
G0 X18.1 Y14.6 F1200
M106 S0
G4 P20
G1 X18.75 Y14.6 F120
M106 S255
G4 P100
G0 X19.25 Y14.6 F1200
M106 S0
G4 P20
G1 X20.9 Y14.6 F120
M106 S255
G4 P100
G0 X20.95 Y14.65 F1200
M106 S0
G4 P20
G1 X20.2 Y14.65 F120
M106 S255
G4 P100
G0 X19.95 Y14.65 F1200
M106 S0
G4 P20
G1 X19.25 Y14.65 F120
M106 S255
G4 P100
G0 X18.7 Y14.65 F1200
M106 S0
G4 P20
G1 X18.1 Y14.65 F120
M106 S255
G4 P100
G0 X17.9 Y14.65 F1200
M106 S0
G4 P20
G1 X17.25 Y14.65 F120
M106 S255
G4 P100
G0 X16.45 Y14.65 F1200
M106 S0
G4 P20
G1 X15.7 Y14.65 F120
M106 S255
G4 P100
G0 X14.3 Y14.65 F1200
M106 S0
G4 P20
G1 X13.3 Y14.65 F120
M106 S255
G4 P100
G0 X12.35 Y14.65 F1200
M106 S0
G4 P20
G1 X11.6 Y14.65 F120
M106 S255
G4 P100
G0 X11.2 Y14.65 F1200
M106 S0
G4 P20
G1 X10.6 Y14.65 F120
M106 S255
G4 P100
G0 X10.45 Y14.65 F1200
M106 S0
G4 P20
G1 X9.45 Y14.65 F120
M106 S255
G4 P100
G0 X9.05 Y14.65 F1200
M106 S0
G4 P20
G1 X8.3 Y14.65 F120
M106 S255
G4 P100
G0 X7.95 Y14.65 F1200
M106 S0
G4 P20
G1 X7.25 Y14.65 F120
M106 S255
G4 P100
G0 X6.75 Y14.65 F1200
M106 S0
G4 P20
G1 X5.95 Y14.65 F120
M106 S255
G4 P100
G0 X6.0 Y14.7 F1200
M106 S0
G4 P20
G1 X6.75 Y14.7 F120
M106 S255
G4 P100
G0 X7.25 Y14.7 F1200
M106 S0
G4 P20
G1 X7.95 Y14.7 F120
M106 S255
G4 P100
G0 X8.3 Y14.7 F1200
M106 S0
G4 P20
G1 X9.05 Y14.7 F120
M106 S255
G4 P100
G0 X9.45 Y14.7 F1200
M106 S0
G4 P20
G1 X10.4 Y14.7 F120
M106 S255
G4 P100
G0 X10.6 Y14.7 F1200
M106 S0
G4 P20
G1 X11.2 Y14.7 F120
M106 S255
G4 P100
G0 X11.6 Y14.7 F1200
M106 S0
G4 P20
G1 X12.35 Y14.7 F120
M106 S255
G4 P100
G0 X13.25 Y14.7 F1200
M106 S0
G4 P20
G1 X14.2 Y14.7 F120
M106 S255
G4 P100
G0 X15.7 Y14.7 F1200
M106 S0
G4 P20
G1 X16.45 Y14.7 F120
M106 S255
G4 P100
G0 X17.3 Y14.7 F1200
M106 S0
G4 P20
G1 X17.9 Y14.7 F120
M106 S255
G4 P100
G0 X18.1 Y14.7 F1200
M106 S0
G4 P20
G1 X18.7 Y14.7 F120
M106 S255
G4 P100
G0 X19.25 Y14.7 F1200
M106 S0
G4 P20
G1 X19.95 Y14.7 F120
M106 S255
G4 P100
G0 X20.3 Y14.7 F1200
M106 S0
G4 P20
G1 X20.95 Y14.7 F120
M106 S255
G4 P100
G0 X20.95 Y14.75 F1200
M106 S0
G4 P20
G1 X20.3 Y14.75 F120
M106 S255
G4 P100
G0 X19.95 Y14.75 F1200
M106 S0
G4 P20
G1 X19.25 Y14.75 F120
M106 S255
G4 P100
G0 X18.7 Y14.75 F1200
M106 S0
G4 P20
G1 X18.1 Y14.75 F120
M106 S255
G4 P100
G0 X17.9 Y14.75 F1200
M106 S0
G4 P20
G1 X17.3 Y14.75 F120
M106 S255
G4 P100
G0 X16.45 Y14.75 F1200
M106 S0
G4 P20
G1 X15.7 Y14.75 F120
M106 S255
G4 P100
G0 X14.1 Y14.75 F1200
M106 S0
G4 P20
G1 X13.25 Y14.75 F120
M106 S255
G4 P100
G0 X12.35 Y14.75 F1200
M106 S0
G4 P20
G1 X11.6 Y14.75 F120
M106 S255
G4 P100
G0 X11.2 Y14.75 F1200
M106 S0
G4 P20
G1 X10.6 Y14.75 F120
M106 S255
G4 P100
G0 X10.4 Y14.75 F1200
M106 S0
G4 P20
G1 X9.45 Y14.75 F120
M106 S255
G4 P100
G0 X9.05 Y14.75 F1200
M106 S0
G4 P20
G1 X8.3 Y14.75 F120
M106 S255
G4 P100
G0 X7.95 Y14.75 F1200
M106 S0
G4 P20
G1 X7.25 Y14.75 F120
M106 S255
G4 P100
G0 X6.8 Y14.75 F1200
M106 S0
G4 P20
G1 X6.0 Y14.75 F120
M106 S255
G4 P100
G0 X6.0 Y14.8 F1200
M106 S0
G4 P20
G1 X6.8 Y14.8 F120
M106 S255
G4 P100
G0 X7.25 Y14.8 F1200
M106 S0
G4 P20
G1 X7.95 Y14.8 F120
M106 S255
G4 P100
G0 X8.3 Y14.8 F1200
M106 S0
G4 P20
G1 X9.05 Y14.8 F120
M106 S255
G4 P100
G0 X9.45 Y14.8 F1200
M106 S0
G4 P20
G1 X10.4 Y14.8 F120
M106 S255
G4 P100
G0 X10.6 Y14.8 F1200
M106 S0
G4 P20
G1 X11.2 Y14.8 F120
M106 S255
G4 P100
G0 X11.6 Y14.8 F1200
M106 S0
G4 P20
G1 X12.35 Y14.8 F120
M106 S255
G4 P100
G0 X13.25 Y14.8 F1200
M106 S0
G4 P20
G1 X14.05 Y14.8 F120
M106 S255
G4 P100
G0 X15.7 Y14.8 F1200
M106 S0
G4 P20
G1 X16.45 Y14.8 F120
M106 S255
G4 P100
G0 X17.3 Y14.8 F1200
M106 S0
G4 P20
G1 X17.95 Y14.8 F120
M106 S255
G4 P100
G0 X18.1 Y14.8 F1200
M106 S0
G4 P20
G1 X18.7 Y14.8 F120
M106 S255
G4 P100
G0 X19.25 Y14.8 F1200
M106 S0
G4 P20
G1 X19.95 Y14.8 F120
M106 S255
G4 P100
G0 X20.3 Y14.8 F1200
M106 S0
G4 P20
G1 X21.0 Y14.8 F120
M106 S255
G4 P100
G0 X21.0 Y14.85 F1200
M106 S0
G4 P20
G1 X20.3 Y14.85 F120
M106 S255
G4 P100
G0 X19.95 Y14.85 F1200
M106 S0
G4 P20
G1 X19.25 Y14.85 F120
M106 S255
G4 P100
G0 X18.7 Y14.85 F1200
M106 S0
G4 P20
G1 X18.1 Y14.85 F120
M106 S255
G4 P100
G0 X17.95 Y14.85 F1200
M106 S0
G4 P20
G1 X17.3 Y14.85 F120
M106 S255
G4 P100
G0 X16.45 Y14.85 F1200
M106 S0
G4 P20
G1 X15.7 Y14.85 F120
M106 S255
G4 P100
G0 X14.0 Y14.85 F1200
M106 S0
G4 P20
G1 X13.25 Y14.85 F120
M106 S255
G4 P100
G0 X12.35 Y14.85 F1200
M106 S0
G4 P20
G1 X11.6 Y14.85 F120
M106 S255
G4 P100
G0 X11.2 Y14.85 F1200
M106 S0
G4 P20
G1 X10.6 Y14.85 F120
M106 S255
G4 P100
G0 X10.35 Y14.85 F1200
M106 S0
G4 P20
G1 X9.45 Y14.85 F120
M106 S255
G4 P100
G0 X9.05 Y14.85 F1200
M106 S0
G4 P20
G1 X8.3 Y14.85 F120
M106 S255
G4 P100
G0 X7.95 Y14.85 F1200
M106 S0
G4 P20
G1 X7.25 Y14.85 F120
M106 S255
G4 P100
G0 X6.8 Y14.85 F1200
M106 S0
G4 P20
G1 X6.05 Y14.85 F120
M106 S255
G4 P100
G0 X6.05 Y14.9 F1200
M106 S0
G4 P20
G1 X6.85 Y14.9 F120
M106 S255
G4 P100
G0 X7.25 Y14.9 F1200
M106 S0
G4 P20
G1 X7.95 Y14.9 F120
M106 S255
G4 P100
G0 X8.3 Y14.9 F1200
M106 S0
G4 P20
G1 X9.05 Y14.9 F120
M106 S255
G4 P100
G0 X9.45 Y14.9 F1200
M106 S0
G4 P20
G1 X10.35 Y14.9 F120
M106 S255
G4 P100
G0 X10.6 Y14.9 F1200
M106 S0
G4 P20
G1 X11.2 Y14.9 F120
M106 S255
G4 P100
G0 X11.6 Y14.9 F1200
M106 S0
G4 P20
G1 X12.35 Y14.9 F120
M106 S255
G4 P100
G0 X13.2 Y14.9 F1200
M106 S0
G4 P20
G1 X13.95 Y14.9 F120
M106 S255
G4 P100
G0 X15.7 Y14.9 F1200
M106 S0
G4 P20
G1 X16.45 Y14.9 F120
M106 S255
G4 P100
G0 X17.3 Y14.9 F1200
M106 S0
G4 P20
G1 X17.95 Y14.9 F120
M106 S255
G4 P100
G0 X18.1 Y14.9 F1200
M106 S0
G4 P20
G1 X18.7 Y14.9 F120
M106 S255
G4 P100
G0 X19.25 Y14.9 F1200
M106 S0
G4 P20
G1 X19.95 Y14.9 F120
M106 S255
G4 P100
G0 X20.3 Y14.9 F1200
M106 S0
G4 P20
G1 X21.0 Y14.9 F120
M106 S255
G4 P100
G0 X21.0 Y14.95 F1200
M106 S0
G4 P20
G1 X20.3 Y14.95 F120
M106 S255
G4 P100
G0 X19.95 Y14.95 F1200
M106 S0
G4 P20
G1 X19.25 Y14.95 F120
M106 S255
G4 P100
G0 X18.65 Y14.95 F1200
M106 S0
G4 P20
G1 X18.1 Y14.95 F120
M106 S255
G4 P100
G0 X17.95 Y14.95 F1200
M106 S0
G4 P20
G1 X17.3 Y14.95 F120
M106 S255
G4 P100
G0 X16.45 Y14.95 F1200
M106 S0
G4 P20
G1 X15.7 Y14.95 F120
M106 S255
G4 P100
G0 X14.95 Y14.95 F1200
M106 S0
G4 P20
G1 X14.25 Y14.95 F120
M106 S255
G4 P100
G0 X13.9 Y14.95 F1200
M106 S0
G4 P20
G1 X13.2 Y14.95 F120
M106 S255
G4 P100
G0 X12.35 Y14.95 F1200
M106 S0
G4 P20
G1 X11.6 Y14.95 F120
M106 S255
G4 P100
G0 X11.2 Y14.95 F1200
M106 S0
G4 P20
G1 X10.6 Y14.95 F120
M106 S255
G4 P100
G0 X10.35 Y14.95 F1200
M106 S0
G4 P20
G1 X9.45 Y14.95 F120
M106 S255
G4 P100
G0 X9.05 Y14.95 F1200
M106 S0
G4 P20
G1 X8.3 Y14.95 F120
M106 S255
G4 P100
G0 X7.95 Y14.95 F1200
M106 S0
G4 P20
G1 X7.25 Y14.95 F120
M106 S255
G4 P100
G0 X6.85 Y14.95 F1200
M106 S0
G4 P20
G1 X6.05 Y14.95 F120
M106 S255
G4 P100
G0 X6.1 Y15.0 F1200
M106 S0
G4 P20
G1 X6.85 Y15.0 F120
M106 S255
G4 P100
G0 X7.25 Y15.0 F1200
M106 S0
G4 P20
G1 X7.95 Y15.0 F120
M106 S255
G4 P100
G0 X8.3 Y15.0 F1200
M106 S0
G4 P20
G1 X9.05 Y15.0 F120
M106 S255
G4 P100
G0 X9.45 Y15.0 F1200
M106 S0
G4 P20
G1 X10.3 Y15.0 F120
M106 S255
G4 P100
G0 X10.6 Y15.0 F1200
M106 S0
G4 P20
G1 X11.2 Y15.0 F120
M106 S255
G4 P100
G0 X11.6 Y15.0 F1200
M106 S0
G4 P20
G1 X12.35 Y15.0 F120
M106 S255
G4 P100
G0 X13.2 Y15.0 F1200
M106 S0
G4 P20
G1 X13.9 Y15.0 F120
M106 S255
G4 P100
G0 X14.25 Y15.0 F1200
M106 S0
G4 P20
G1 X14.95 Y15.0 F120
M106 S255
G4 P100
G0 X15.7 Y15.0 F1200
M106 S0
G4 P20
G1 X16.45 Y15.0 F120
M106 S255
G4 P100
G0 X17.35 Y15.0 F1200
M106 S0
G4 P20
G1 X17.95 Y15.0 F120
M106 S255
G4 P100
G0 X18.1 Y15.0 F1200
M106 S0
G4 P20
G1 X18.65 Y15.0 F120
M106 S255
G4 P100
G0 X19.25 Y15.0 F1200
M106 S0
G4 P20
G1 X19.95 Y15.0 F120
M106 S255
G4 P100
G0 X20.3 Y15.0 F1200
M106 S0
G4 P20
G1 X21.0 Y15.0 F120
M106 S255
G4 P100
G0 X21.0 Y15.05 F1200
M106 S0
G4 P20
G1 X20.3 Y15.05 F120
M106 S255
G4 P100
G0 X19.95 Y15.05 F1200
M106 S0
G4 P20
G1 X19.25 Y15.05 F120
M106 S255
G4 P100
G0 X18.65 Y15.05 F1200
M106 S0
G4 P20
G1 X18.1 Y15.05 F120
M106 S255
G4 P100
G0 X17.95 Y15.05 F1200
M106 S0
G4 P20
G1 X17.35 Y15.05 F120
M106 S255
G4 P100
G0 X16.45 Y15.05 F1200
M106 S0
G4 P20
G1 X15.7 Y15.05 F120
M106 S255
G4 P100
G0 X14.95 Y15.05 F1200
M106 S0
G4 P20
G1 X14.25 Y15.05 F120
M106 S255
G4 P100
G0 X13.9 Y15.05 F1200
M106 S0
G4 P20
G1 X13.2 Y15.05 F120
M106 S255
G4 P100
G0 X12.35 Y15.05 F1200
M106 S0
G4 P20
G1 X11.6 Y15.05 F120
M106 S255
G4 P100
G0 X11.2 Y15.05 F1200
M106 S0
G4 P20
G1 X10.6 Y15.05 F120
M106 S255
G4 P100
G0 X10.3 Y15.05 F1200
M106 S0
G4 P20
G1 X9.45 Y15.05 F120
M106 S255
G4 P100
G0 X9.05 Y15.05 F1200
M106 S0
G4 P20
G1 X8.3 Y15.05 F120
M106 S255
G4 P100
G0 X7.95 Y15.05 F1200
M106 S0
G4 P20
G1 X7.25 Y15.05 F120
M106 S255
G4 P100
G0 X6.9 Y15.05 F1200
M106 S0
G4 P20
G1 X6.1 Y15.05 F120
M106 S255
G4 P100
G0 X6.1 Y15.1 F1200
M106 S0
G4 P20
G1 X6.9 Y15.1 F120
M106 S255
G4 P100
G0 X7.25 Y15.1 F1200
M106 S0
G4 P20
G1 X7.95 Y15.1 F120
M106 S255
G4 P100
G0 X8.3 Y15.1 F1200
M106 S0
G4 P20
G1 X9.0 Y15.1 F120
M106 S255
G4 P100
G0 X9.45 Y15.1 F1200
M106 S0
G4 P20
G1 X10.3 Y15.1 F120
M106 S255
G4 P100
G0 X10.6 Y15.1 F1200
M106 S0
G4 P20
G1 X11.2 Y15.1 F120
M106 S255
G4 P100
G0 X11.6 Y15.1 F1200
M106 S0
G4 P20
G1 X12.35 Y15.1 F120
M106 S255
G4 P100
G0 X13.2 Y15.1 F1200
M106 S0
G4 P20
G1 X13.9 Y15.1 F120
M106 S255
G4 P100
G0 X14.25 Y15.1 F1200
M106 S0
G4 P20
G1 X14.95 Y15.1 F120
M106 S255
G4 P100
G0 X15.7 Y15.1 F1200
M106 S0
G4 P20
G1 X16.45 Y15.1 F120
M106 S255
G4 P100
G0 X17.35 Y15.1 F1200
M106 S0
G4 P20
G1 X17.95 Y15.1 F120
M106 S255
G4 P100
G0 X18.05 Y15.1 F1200
M106 S0
G4 P20
G1 X18.65 Y15.1 F120
M106 S255
G4 P100
G0 X19.25 Y15.1 F1200
M106 S0
G4 P20
G1 X19.95 Y15.1 F120
M106 S255
G4 P100
G0 X20.3 Y15.1 F1200
M106 S0
G4 P20
G1 X21.0 Y15.1 F120
M106 S255
G4 P100
G0 X21.0 Y15.15 F1200
M106 S0
G4 P20
G1 X20.3 Y15.15 F120
M106 S255
G4 P100
G0 X19.95 Y15.15 F1200
M106 S0
G4 P20
G1 X19.25 Y15.15 F120
M106 S255
G4 P100
G0 X18.65 Y15.15 F1200
M106 S0
G4 P20
G1 X17.35 Y15.15 F120
M106 S255
G4 P100
G0 X16.45 Y15.15 F1200
M106 S0
G4 P20
G1 X15.7 Y15.15 F120
M106 S255
G4 P100
G0 X14.95 Y15.15 F1200
M106 S0
G4 P20
G1 X14.25 Y15.15 F120
M106 S255
G4 P100
G0 X13.9 Y15.15 F1200
M106 S0
G4 P20
G1 X13.2 Y15.15 F120
M106 S255
G4 P100
G0 X12.35 Y15.15 F1200
M106 S0
G4 P20
G1 X11.6 Y15.15 F120
M106 S255
G4 P100
G0 X11.2 Y15.15 F1200
M106 S0
G4 P20
G1 X10.6 Y15.15 F120
M106 S255
G4 P100
G0 X10.25 Y15.15 F1200
M106 S0
G4 P20
G1 X9.45 Y15.15 F120
M106 S255
G4 P100
G0 X9.0 Y15.15 F1200
M106 S0
G4 P20
G1 X8.3 Y15.15 F120
M106 S255
G4 P100
G0 X7.95 Y15.15 F1200
M106 S0
G4 P20
G1 X7.25 Y15.15 F120
M106 S255
G4 P100
G0 X6.9 Y15.15 F1200
M106 S0
G4 P20
G1 X6.15 Y15.15 F120
M106 S255
G4 P100
G0 X6.15 Y15.2 F1200
M106 S0
G4 P20
G1 X6.95 Y15.2 F120
M106 S255
G4 P100
G0 X7.25 Y15.2 F1200
M106 S0
G4 P20
G1 X7.95 Y15.2 F120
M106 S255
G4 P100
G0 X8.3 Y15.2 F1200
M106 S0
G4 P20
G1 X9.0 Y15.2 F120
M106 S255
G4 P100
G0 X9.45 Y15.2 F1200
M106 S0
G4 P20
G1 X10.25 Y15.2 F120
M106 S255
G4 P100
G0 X10.6 Y15.2 F1200
M106 S0
G4 P20
G1 X11.2 Y15.2 F120
M106 S255
G4 P100
G0 X11.6 Y15.2 F1200
M106 S0
G4 P20
G1 X12.35 Y15.2 F120
M106 S255
G4 P100
G0 X13.2 Y15.2 F1200
M106 S0
G4 P20
G1 X13.9 Y15.2 F120
M106 S255
G4 P100
G0 X14.25 Y15.2 F1200
M106 S0
G4 P20
G1 X14.95 Y15.2 F120
M106 S255
G4 P100
G0 X15.7 Y15.2 F1200
M106 S0
G4 P20
G1 X16.45 Y15.2 F120
M106 S255
G4 P100
G0 X17.35 Y15.2 F1200
M106 S0
G4 P20
G1 X18.65 Y15.2 F120
M106 S255
G4 P100
G0 X19.25 Y15.2 F1200
M106 S0
G4 P20
G1 X19.95 Y15.2 F120
M106 S255
G4 P100
G0 X20.3 Y15.2 F1200
M106 S0
G4 P20
G1 X20.95 Y15.2 F120
M106 S255
G4 P100
G0 X20.95 Y15.25 F1200
M106 S0
G4 P20
G1 X20.25 Y15.25 F120
M106 S255
G4 P100
G0 X19.95 Y15.25 F1200
M106 S0
G4 P20
G1 X19.25 Y15.25 F120
M106 S255
G4 P100
G0 X18.6 Y15.25 F1200
M106 S0
G4 P20
G1 X17.35 Y15.25 F120
M106 S255
G4 P100
G0 X16.9 Y15.25 F1200
M106 S0
G4 P20
G1 X15.2 Y15.25 F120
M106 S255
G4 P100
G0 X14.9 Y15.25 F1200
M106 S0
G4 P20
G1 X14.25 Y15.25 F120
M106 S255
G4 P100
G0 X13.9 Y15.25 F1200
M106 S0
G4 P20
G1 X13.25 Y15.25 F120
M106 S255
G4 P100
G0 X12.9 Y15.25 F1200
M106 S0
G4 P20
G1 X11.6 Y15.25 F120
M106 S255
G4 P100
G0 X11.2 Y15.25 F1200
M106 S0
G4 P20
G1 X10.6 Y15.25 F120
M106 S255
G4 P100
G0 X10.2 Y15.25 F1200
M106 S0
G4 P20
G1 X9.45 Y15.25 F120
M106 S255
G4 P100
G0 X9.0 Y15.25 F1200
M106 S0
G4 P20
G1 X8.3 Y15.25 F120
M106 S255
G4 P100
G0 X7.95 Y15.25 F1200
M106 S0
G4 P20
G1 X7.25 Y15.25 F120
M106 S255
G4 P100
G0 X6.95 Y15.25 F1200
M106 S0
G4 P20
G1 X5.6 Y15.25 F120
M106 S255
G4 P100
G0 X5.6 Y15.3 F1200
M106 S0
G4 P20
G1 X6.95 Y15.3 F120
M106 S255
G4 P100
G0 X7.25 Y15.3 F1200
M106 S0
G4 P20
G1 X8.0 Y15.3 F120
M106 S255
G4 P100
G0 X8.3 Y15.3 F1200
M106 S0
G4 P20
G1 X9.0 Y15.3 F120
M106 S255
G4 P100
G0 X9.45 Y15.3 F1200
M106 S0
G4 P20
G1 X10.2 Y15.3 F120
M106 S255
G4 P100
G0 X10.6 Y15.3 F1200
M106 S0
G4 P20
G1 X11.2 Y15.3 F120
M106 S255
G4 P100
G0 X11.6 Y15.3 F1200
M106 S0
G4 P20
G1 X12.9 Y15.3 F120
M106 S255
G4 P100
G0 X13.25 Y15.3 F1200
M106 S0
G4 P20
G1 X13.9 Y15.3 F120
M106 S255
G4 P100
G0 X14.25 Y15.3 F1200
M106 S0
G4 P20
G1 X14.9 Y15.3 F120
M106 S255
G4 P100
G0 X15.2 Y15.3 F1200
M106 S0
G4 P20
G1 X16.9 Y15.3 F120
M106 S255
G4 P100
G0 X17.35 Y15.3 F1200
M106 S0
G4 P20
G1 X18.6 Y15.3 F120
M106 S255
G4 P100
G0 X19.25 Y15.3 F1200
M106 S0
G4 P20
G1 X20.0 Y15.3 F120
M106 S255
G4 P100
G0 X20.15 Y15.3 F1200
M106 S0
G4 P20
G1 X20.95 Y15.3 F120
M106 S255
G4 P100
G0 X20.95 Y15.35 F1200
M106 S0
G4 P20
G1 X19.25 Y15.35 F120
M106 S255
G4 P100
G0 X18.6 Y15.35 F1200
M106 S0
G4 P20
G1 X17.4 Y15.35 F120
M106 S255
G4 P100
G0 X16.9 Y15.35 F1200
M106 S0
G4 P20
G1 X15.2 Y15.35 F120
M106 S255
G4 P100
G0 X14.9 Y15.35 F1200
M106 S0
G4 P20
G1 X14.2 Y15.35 F120
M106 S255
G4 P100
G0 X13.95 Y15.35 F1200
M106 S0
G4 P20
G1 X13.25 Y15.35 F120
M106 S255
G4 P100
G0 X12.9 Y15.35 F1200
M106 S0
G4 P20
G1 X11.6 Y15.35 F120
M106 S255
G4 P100
G0 X11.2 Y15.35 F1200
M106 S0
G4 P20
G1 X10.6 Y15.35 F120
M106 S255
G4 P100
G0 X10.2 Y15.35 F1200
M106 S0
G4 P20
G1 X9.45 Y15.35 F120
M106 S255
G4 P100
G0 X8.95 Y15.35 F1200
M106 S0
G4 P20
G1 X8.25 Y15.35 F120
M106 S255
G4 P100
G0 X8.05 Y15.35 F1200
M106 S0
G4 P20
G1 X7.3 Y15.35 F120
M106 S255
G4 P100
G0 X6.95 Y15.35 F1200
M106 S0
G4 P20
G1 X5.6 Y15.35 F120
M106 S255
G4 P100
G0 X5.6 Y15.4 F1200
M106 S0
G4 P20
G1 X6.95 Y15.4 F120
M106 S255
G4 P100
G0 X7.3 Y15.4 F1200
M106 S0
G4 P20
G1 X8.95 Y15.4 F120
M106 S255
G4 P100
G0 X9.45 Y15.4 F1200
M106 S0
G4 P20
G1 X10.15 Y15.4 F120
M106 S255
G4 P100
G0 X10.6 Y15.4 F1200
M106 S0
G4 P20
G1 X11.2 Y15.4 F120
M106 S255
G4 P100
G0 X11.6 Y15.4 F1200
M106 S0
G4 P20
G1 X12.9 Y15.4 F120
M106 S255
G4 P100
G0 X13.25 Y15.4 F1200
M106 S0
G4 P20
G1 X14.9 Y15.4 F120
M106 S255
G4 P100
G0 X15.2 Y15.4 F1200
M106 S0
G4 P20
G1 X16.9 Y15.4 F120
M106 S255
G4 P100
G0 X17.4 Y15.4 F1200
M106 S0
G4 P20
G1 X18.6 Y15.4 F120
M106 S255
G4 P100
G0 X19.25 Y15.4 F1200
M106 S0
G4 P20
G1 X20.9 Y15.4 F120
M106 S255
G4 P100
G0 X20.9 Y15.45 F1200
M106 S0
G4 P20
G1 X19.25 Y15.45 F120
M106 S255
G4 P100
G0 X18.6 Y15.45 F1200
M106 S0
G4 P20
G1 X17.4 Y15.45 F120
M106 S255
G4 P100
G0 X16.9 Y15.45 F1200
M106 S0
G4 P20
G1 X15.2 Y15.45 F120
M106 S255
G4 P100
G0 X14.9 Y15.45 F1200
M106 S0
G4 P20
G1 X13.3 Y15.45 F120
M106 S255
G4 P100
G0 X12.9 Y15.45 F1200
M106 S0
G4 P20
G1 X11.6 Y15.45 F120
M106 S255
G4 P100
G0 X11.2 Y15.45 F1200
M106 S0
G4 P20
G1 X10.6 Y15.45 F120
M106 S255
G4 P100
G0 X10.15 Y15.45 F1200
M106 S0
G4 P20
G1 X9.45 Y15.45 F120
M106 S255
G4 P100
G0 X8.9 Y15.45 F1200
M106 S0
G4 P20
G1 X7.35 Y15.45 F120
M106 S255
G4 P100
G0 X6.95 Y15.45 F1200
M106 S0
G4 P20
G1 X5.6 Y15.45 F120
M106 S255
G4 P100
G0 X5.6 Y15.5 F1200
M106 S0
G4 P20
G1 X6.95 Y15.5 F120
M106 S255
G4 P100
G0 X7.4 Y15.5 F1200
M106 S0
G4 P20
G1 X8.9 Y15.5 F120
M106 S255
G4 P100
G0 X9.45 Y15.5 F1200
M106 S0
G4 P20
G1 X10.15 Y15.5 F120
M106 S255
G4 P100
G0 X10.6 Y15.5 F1200
M106 S0
G4 P20
G1 X11.2 Y15.5 F120
M106 S255
G4 P100
G0 X11.6 Y15.5 F1200
M106 S0
G4 P20
G1 X12.9 Y15.5 F120
M106 S255
G4 P100
G0 X13.3 Y15.5 F1200
M106 S0
G4 P20
G1 X14.85 Y15.5 F120
M106 S255
G4 P100
G0 X15.2 Y15.5 F1200
M106 S0
G4 P20
G1 X16.9 Y15.5 F120
M106 S255
G4 P100
G0 X17.4 Y15.5 F1200
M106 S0
G4 P20
G1 X18.6 Y15.5 F120
M106 S255
G4 P100
G0 X19.25 Y15.5 F1200
M106 S0
G4 P20
G1 X20.85 Y15.5 F120
M106 S255
G4 P100
G0 X20.85 Y15.55 F1200
M106 S0
G4 P20
G1 X19.25 Y15.55 F120
M106 S255
G4 P100
G0 X18.55 Y15.55 F1200
M106 S0
G4 P20
G1 X17.4 Y15.55 F120
M106 S255
G4 P100
G0 X16.9 Y15.55 F1200
M106 S0
G4 P20
G1 X15.2 Y15.55 F120
M106 S255
G4 P100
G0 X14.8 Y15.55 F1200
M106 S0
G4 P20
G1 X13.35 Y15.55 F120
M106 S255
G4 P100
G0 X12.9 Y15.55 F1200
M106 S0
G4 P20
G1 X11.6 Y15.55 F120
M106 S255
G4 P100
G0 X11.2 Y15.55 F1200
M106 S0
G4 P20
G1 X10.6 Y15.55 F120
M106 S255
G4 P100
G0 X10.1 Y15.55 F1200
M106 S0
G4 P20
G1 X9.45 Y15.55 F120
M106 S255
G4 P100
G0 X8.85 Y15.55 F1200
M106 S0
G4 P20
G1 X7.4 Y15.55 F120
M106 S255
G4 P100
G0 X6.95 Y15.55 F1200
M106 S0
G4 P20
G1 X5.6 Y15.55 F120
M106 S255
G4 P100
G0 X5.6 Y15.6 F1200
M106 S0
G4 P20
G1 X6.95 Y15.6 F120
M106 S255
G4 P100
G0 X7.45 Y15.6 F1200
M106 S0
G4 P20
G1 X8.8 Y15.6 F120
M106 S255
G4 P100
G0 X9.45 Y15.6 F1200
M106 S0
G4 P20
G1 X10.1 Y15.6 F120
M106 S255
G4 P100
G0 X10.6 Y15.6 F1200
M106 S0
G4 P20
G1 X11.2 Y15.6 F120
M106 S255
G4 P100
G0 X11.6 Y15.6 F1200
M106 S0
G4 P20
G1 X12.9 Y15.6 F120
M106 S255
G4 P100
G0 X13.4 Y15.6 F1200
M106 S0
G4 P20
G1 X14.75 Y15.6 F120
M106 S255
G4 P100
G0 X15.2 Y15.6 F1200
M106 S0
G4 P20
G1 X16.9 Y15.6 F120
M106 S255
G4 P100
G0 X17.4 Y15.6 F1200
M106 S0
G4 P20
G1 X18.55 Y15.6 F120
M106 S255
G4 P100
G0 X19.25 Y15.6 F1200
M106 S0
G4 P20
G1 X20.8 Y15.6 F120
M106 S255
G4 P100
G0 X20.7 Y15.65 F1200
M106 S0
G4 P20
G1 X19.25 Y15.65 F120
M106 S255
G4 P100
G0 X18.55 Y15.65 F1200
M106 S0
G4 P20
G1 X17.4 Y15.65 F120
M106 S255
G4 P100
G0 X16.9 Y15.65 F1200
M106 S0
G4 P20
G1 X15.2 Y15.65 F120
M106 S255
G4 P100
G0 X14.7 Y15.65 F1200
M106 S0
G4 P20
G1 X13.45 Y15.65 F120
M106 S255
G4 P100
G0 X12.9 Y15.65 F1200
M106 S0
G4 P20
G1 X11.6 Y15.65 F120
M106 S255
G4 P100
G0 X11.2 Y15.65 F1200
M106 S0
G4 P20
G1 X10.6 Y15.65 F120
M106 S255
G4 P100
G0 X10.1 Y15.65 F1200
M106 S0
G4 P20
G1 X9.45 Y15.65 F120
M106 S255
G4 P100
G0 X8.75 Y15.65 F1200
M106 S0
G4 P20
G1 X7.55 Y15.65 F120
M106 S255
G4 P100
G0 X6.95 Y15.65 F1200
M106 S0
G4 P20
G1 X5.6 Y15.65 F120
M106 S255
G4 P100
G0 X5.6 Y15.7 F1200
M106 S0
G4 P20
G1 X6.95 Y15.7 F120
M106 S255
G4 P100
G0 X7.6 Y15.7 F1200
M106 S0
G4 P20
G1 X8.65 Y15.7 F120
M106 S255
G4 P100
G0 X9.45 Y15.7 F1200
M106 S0
G4 P20
G1 X10.05 Y15.7 F120
M106 S255
G4 P100
G0 X10.6 Y15.7 F1200
M106 S0
G4 P20
G1 X11.2 Y15.7 F120
M106 S255
G4 P100
G0 X11.6 Y15.7 F1200
M106 S0
G4 P20
G1 X12.9 Y15.7 F120
M106 S255
G4 P100
G0 X13.55 Y15.7 F1200
M106 S0
G4 P20
G1 X14.6 Y15.7 F120
M106 S255
G4 P100
G0 X15.2 Y15.7 F1200
M106 S0
G4 P20
G1 X16.9 Y15.7 F120
M106 S255
G4 P100
G0 X17.45 Y15.7 F1200
M106 S0
G4 P20
G1 X18.55 Y15.7 F120
M106 S255
G4 P100
G0 X19.25 Y15.7 F1200
M106 S0
G4 P20
G1 X20.6 Y15.7 F120
M106 S255
G4 P100
G0 X20.05 Y15.75 F1200
M106 S0
G4 P20
G1 X19.25 Y15.75 F120
M106 S255
G4 P100
G0 X18.55 Y15.75 F1200
M106 S0
G4 P20
G1 X17.45 Y15.75 F120
M106 S255
G4 P100
G0 X16.9 Y15.75 F1200
M106 S0
G4 P20
G1 X15.2 Y15.75 F120
M106 S255
G4 P100
G0 X14.5 Y15.75 F1200
M106 S0
G4 P20
G1 X13.65 Y15.75 F120
M106 S255
G4 P100
G0 X12.9 Y15.75 F1200
M106 S0
G4 P20
G1 X11.6 Y15.75 F120
M106 S255
G4 P100
G0 X11.2 Y15.75 F1200
M106 S0
G4 P20
G1 X10.6 Y15.75 F120
M106 S255
G4 P100
G0 X10.05 Y15.75 F1200
M106 S0
G4 P20
G1 X9.45 Y15.75 F120
M106 S255
G4 P100
G0 X8.55 Y15.75 F1200
M106 S0
G4 P20
G1 X7.75 Y15.75 F120
M106 S255
G4 P100
G0 X6.95 Y15.75 F1200
M106 S0
G4 P20
G1 X5.6 Y15.75 F120
M106 S255
G4 P100
G0 X7.95 Y15.8 F1200
M106 S0
G4 P20
G1 X8.35 Y15.8 F120
M106 S255
G4 P100
G0 X13.85 Y15.8 F1200
M106 S0
G4 P20
G1 X14.3 Y15.8 F120
M106 S255
G4 P100
G0 X20.9 Y16.05 F1200
M106 S0
G4 P20
G1 X20.4 Y16.05 F120
M106 S255
G4 P100
G0 X19.0 Y16.05 F1200
M106 S0
G4 P20
G1 X18.55 Y16.05 F120
M106 S255
G4 P100
G0 X16.55 Y16.05 F1200
M106 S0
G4 P20
G1 X13.6 Y16.05 F120
M106 S255
G4 P100
G0 X12.15 Y16.05 F1200
M106 S0
G4 P20
G1 X11.7 Y16.05 F120
M106 S255
G4 P100
G0 X10.95 Y16.05 F1200
M106 S0
G4 P20
G1 X10.4 Y16.05 F120
M106 S255
G4 P100
G0 X9.65 Y16.05 F1200
M106 S0
G4 P20
G1 X5.5 Y16.05 F120
M106 S255
G4 P100
G0 X5.5 Y16.1 F1200
M106 S0
G4 P20
G1 X9.65 Y16.1 F120
M106 S255
G4 P100
G0 X10.4 Y16.1 F1200
M106 S0
G4 P20
G1 X10.95 Y16.1 F120
M106 S255
G4 P100
G0 X11.7 Y16.1 F1200
M106 S0
G4 P20
G1 X12.15 Y16.1 F120
M106 S255
G4 P100
G0 X13.6 Y16.1 F1200
M106 S0
G4 P20
G1 X16.55 Y16.1 F120
M106 S255
G4 P100
G0 X18.55 Y16.1 F1200
M106 S0
G4 P20
G1 X19.0 Y16.1 F120
M106 S255
G4 P100
G0 X20.4 Y16.1 F1200
M106 S0
G4 P20
G1 X20.9 Y16.1 F120
M106 S255
G4 P100
G0 X20.9 Y16.15 F1200
M106 S0
G4 P20
G1 X20.4 Y16.15 F120
M106 S255
G4 P100
G0 X19.0 Y16.15 F1200
M106 S0
G4 P20
G1 X18.55 Y16.15 F120
M106 S255
G4 P100
G0 X16.55 Y16.15 F1200
M106 S0
G4 P20
G1 X13.6 Y16.15 F120
M106 S255
G4 P100
G0 X12.15 Y16.15 F1200
M106 S0
G4 P20
G1 X11.7 Y16.15 F120
M106 S255
G4 P100
G0 X10.95 Y16.15 F1200
M106 S0
G4 P20
G1 X10.4 Y16.15 F120
M106 S255
G4 P100
G0 X9.65 Y16.15 F1200
M106 S0
G4 P20
G1 X5.5 Y16.15 F120
M106 S255
G4 P100
G0 X5.5 Y16.2 F1200
M106 S0
G4 P20
G1 X9.65 Y16.2 F120
M106 S255
G4 P100
G0 X10.4 Y16.2 F1200
M106 S0
G4 P20
G1 X10.95 Y16.2 F120
M106 S255
G4 P100
G0 X11.7 Y16.2 F1200
M106 S0
G4 P20
G1 X12.15 Y16.2 F120
M106 S255
G4 P100
G0 X13.6 Y16.2 F1200
M106 S0
G4 P20
G1 X16.55 Y16.2 F120
M106 S255
G4 P100
G0 X18.55 Y16.2 F1200
M106 S0
G4 P20
G1 X19.0 Y16.2 F120
M106 S255
G4 P100
G0 X20.4 Y16.2 F1200
M106 S0
G4 P20
G1 X20.9 Y16.2 F120
M106 S255
G4 P100
G0 X20.9 Y16.25 F1200
M106 S0
G4 P20
G1 X20.4 Y16.25 F120
M106 S255
G4 P100
G0 X19.0 Y16.25 F1200
M106 S0
G4 P20
G1 X18.55 Y16.25 F120
M106 S255
G4 P100
G0 X16.55 Y16.25 F1200
M106 S0
G4 P20
G1 X13.6 Y16.25 F120
M106 S255
G4 P100
G0 X12.15 Y16.25 F1200
M106 S0
G4 P20
G1 X11.7 Y16.25 F120
M106 S255
G4 P100
G0 X10.95 Y16.25 F1200
M106 S0
G4 P20
G1 X10.4 Y16.25 F120
M106 S255
G4 P100
G0 X9.65 Y16.25 F1200
M106 S0
G4 P20
G1 X5.5 Y16.25 F120
M106 S255
G4 P100
G0 X5.5 Y16.3 F1200
M106 S0
G4 P20
G1 X9.65 Y16.3 F120
M106 S255
G4 P100
G0 X10.4 Y16.3 F1200
M106 S0
G4 P20
G1 X10.95 Y16.3 F120
M106 S255
G4 P100
G0 X11.7 Y16.3 F1200
M106 S0
G4 P20
G1 X12.15 Y16.3 F120
M106 S255
G4 P100
G0 X13.6 Y16.3 F1200
M106 S0
G4 P20
G1 X16.55 Y16.3 F120
M106 S255
G4 P100
G0 X18.55 Y16.3 F1200
M106 S0
G4 P20
G1 X19.0 Y16.3 F120
M106 S255
G4 P100
G0 X20.4 Y16.3 F1200
M106 S0
G4 P20
G1 X20.9 Y16.3 F120
M106 S255
G4 P100
G0 X20.9 Y16.35 F1200
M106 S0
G4 P20
G1 X20.4 Y16.35 F120
M106 S255
G4 P100
G0 X19.0 Y16.35 F1200
M106 S0
G4 P20
G1 X18.55 Y16.35 F120
M106 S255
G4 P100
G0 X16.55 Y16.35 F1200
M106 S0
G4 P20
G1 X13.6 Y16.35 F120
M106 S255
G4 P100
G0 X12.15 Y16.35 F1200
M106 S0
G4 P20
G1 X11.7 Y16.35 F120
M106 S255
G4 P100
G0 X10.95 Y16.35 F1200
M106 S0
G4 P20
G1 X10.4 Y16.35 F120
M106 S255
G4 P100
G0 X9.65 Y16.35 F1200
M106 S0
G4 P20
G1 X5.5 Y16.35 F120
M106 S255
G4 P100
G0 X5.5 Y16.4 F1200
M106 S0
G4 P20
G1 X9.65 Y16.4 F120
M106 S255
G4 P100
G0 X10.4 Y16.4 F1200
M106 S0
G4 P20
G1 X10.95 Y16.4 F120
M106 S255
G4 P100
G0 X11.7 Y16.4 F1200
M106 S0
G4 P20
G1 X12.15 Y16.4 F120
M106 S255
G4 P100
G0 X13.6 Y16.4 F1200
M106 S0
G4 P20
G1 X16.55 Y16.4 F120
M106 S255
G4 P100
G0 X18.55 Y16.4 F1200
M106 S0
G4 P20
G1 X19.0 Y16.4 F120
M106 S255
G4 P100
G0 X20.4 Y16.4 F1200
M106 S0
G4 P20
G1 X20.9 Y16.4 F120
M106 S255
G4 P100
G0 X20.9 Y16.45 F1200
M106 S0
G4 P20
G1 X20.4 Y16.45 F120
M106 S255
G4 P100
G0 X19.0 Y16.45 F1200
M106 S0
G4 P20
G1 X18.55 Y16.45 F120
M106 S255
G4 P100
G0 X16.55 Y16.45 F1200
M106 S0
G4 P20
G1 X13.6 Y16.45 F120
M106 S255
G4 P100
G0 X12.15 Y16.45 F1200
M106 S0
G4 P20
G1 X11.7 Y16.45 F120
M106 S255
G4 P100
G0 X10.95 Y16.45 F1200
M106 S0
G4 P20
G1 X10.4 Y16.45 F120
M106 S255
G4 P100
G0 X9.65 Y16.45 F1200
M106 S0
G4 P20
G1 X5.5 Y16.45 F120
M106 S255
G4 P100
G0 X5.5 Y16.5 F1200
M106 S0
G4 P20
G1 X9.65 Y16.5 F120
M106 S255
G4 P100
G0 X10.4 Y16.5 F1200
M106 S0
G4 P20
G1 X10.95 Y16.5 F120
M106 S255
G4 P100
G0 X11.7 Y16.5 F1200
M106 S0
G4 P20
G1 X12.15 Y16.5 F120
M106 S255
G4 P100
G0 X13.6 Y16.5 F1200
M106 S0
G4 P20
G1 X16.55 Y16.5 F120
M106 S255
G4 P100
G0 X18.55 Y16.5 F1200
M106 S0
G4 P20
G1 X19.0 Y16.5 F120
M106 S255
G4 P100
G0 X20.4 Y16.5 F1200
M106 S0
G4 P20
G1 X20.9 Y16.5 F120
M106 S255
G4 P100
G0 X20.9 Y16.55 F1200
M106 S0
G4 P20
G1 X20.4 Y16.55 F120
M106 S255
G4 P100
G0 X19.0 Y16.55 F1200
M106 S0
G4 P20
G1 X18.55 Y16.55 F120
M106 S255
G4 P100
G0 X16.55 Y16.55 F1200
M106 S0
G4 P20
G1 X13.6 Y16.55 F120
M106 S255
G4 P100
G0 X12.15 Y16.55 F1200
M106 S0
G4 P20
G1 X11.7 Y16.55 F120
M106 S255
G4 P100
G0 X10.95 Y16.55 F1200
M106 S0
G4 P20
G1 X10.4 Y16.55 F120
M106 S255
G4 P100
G0 X9.65 Y16.55 F1200
M106 S0
G4 P20
G1 X5.5 Y16.55 F120
M106 S255
G4 P100
G0 X5.5 Y16.6 F1200
M106 S0
G4 P20
G1 X9.65 Y16.6 F120
M106 S255
G4 P100
G0 X10.45 Y16.6 F1200
M106 S0
G4 P20
G1 X10.9 Y16.6 F120
M106 S255
G4 P100
G0 X11.7 Y16.6 F1200
M106 S0
G4 P20
G1 X12.15 Y16.6 F120
M106 S255
G4 P100
G0 X13.6 Y16.6 F1200
M106 S0
G4 P20
G1 X16.5 Y16.6 F120
M106 S255
G4 P100
G0 X18.55 Y16.6 F1200
M106 S0
G4 P20
G1 X19.0 Y16.6 F120
M106 S255
G4 P100
G0 X20.4 Y16.6 F1200
M106 S0
G4 P20
G1 X20.9 Y16.6 F120
M106 S255
G4 P100
G0 X20.9 Y16.65 F1200
M106 S0
G4 P20
G1 X20.4 Y16.65 F120
M106 S255
G4 P100
G0 X19.0 Y16.65 F1200
M106 S0
G4 P20
G1 X18.55 Y16.65 F120
M106 S255
G4 P100
G0 X15.95 Y16.65 F1200
M106 S0
G4 P20
G1 X14.2 Y16.65 F120
M106 S255
G4 P100
G0 X9.65 Y16.65 F1200
M106 S0
G4 P20
G1 X9.2 Y16.65 F120
M106 S255
G4 P100
G0 X6.0 Y16.65 F1200
M106 S0
G4 P20
G1 X5.5 Y16.65 F120
M106 S255
G4 P100
G0 X5.5 Y16.7 F1200
M106 S0
G4 P20
G1 X6.0 Y16.7 F120
M106 S255
G4 P100
G0 X9.2 Y16.7 F1200
M106 S0
G4 P20
G1 X9.65 Y16.7 F120
M106 S255
G4 P100
G0 X12.3 Y16.7 F1200
M106 S0
G4 P20
G1 X12.75 Y16.7 F120
M106 S255
G4 P100
G0 X14.2 Y16.7 F1200
M106 S0
G4 P20
G1 X15.9 Y16.7 F120
M106 S255
G4 P100
G0 X16.7 Y16.7 F1200
M106 S0
G4 P20
G1 X17.15 Y16.7 F120
M106 S255
G4 P100
G0 X17.9 Y16.7 F1200
M106 S0
G4 P20
G1 X19.0 Y16.7 F120
M106 S255
G4 P100
G0 X20.4 Y16.7 F1200
M106 S0
G4 P20
G1 X20.9 Y16.7 F120
M106 S255
G4 P100
G0 X20.9 Y16.75 F1200
M106 S0
G4 P20
G1 X20.4 Y16.75 F120
M106 S255
G4 P100
G0 X19.0 Y16.75 F1200
M106 S0
G4 P20
G1 X17.9 Y16.75 F120
M106 S255
G4 P100
G0 X17.15 Y16.75 F1200
M106 S0
G4 P20
G1 X16.7 Y16.75 F120
M106 S255
G4 P100
G0 X15.9 Y16.75 F1200
M106 S0
G4 P20
G1 X14.2 Y16.75 F120
M106 S255
G4 P100
G0 X12.75 Y16.75 F1200
M106 S0
G4 P20
G1 X12.3 Y16.75 F120
M106 S255
G4 P100
G0 X9.65 Y16.75 F1200
M106 S0
G4 P20
G1 X9.2 Y16.75 F120
M106 S255
G4 P100
G0 X6.0 Y16.75 F1200
M106 S0
G4 P20
G1 X5.5 Y16.75 F120
M106 S255
G4 P100
G0 X5.5 Y16.8 F1200
M106 S0
G4 P20
G1 X6.0 Y16.8 F120
M106 S255
G4 P100
G0 X9.2 Y16.8 F1200
M106 S0
G4 P20
G1 X9.65 Y16.8 F120
M106 S255
G4 P100
G0 X12.3 Y16.8 F1200
M106 S0
G4 P20
G1 X12.75 Y16.8 F120
M106 S255
G4 P100
G0 X14.2 Y16.8 F1200
M106 S0
G4 P20
G1 X15.9 Y16.8 F120
M106 S255
G4 P100
G0 X16.7 Y16.8 F1200
M106 S0
G4 P20
G1 X17.15 Y16.8 F120
M106 S255
G4 P100
G0 X17.9 Y16.8 F1200
M106 S0
G4 P20
G1 X19.0 Y16.8 F120
M106 S255
G4 P100
G0 X20.4 Y16.8 F1200
M106 S0
G4 P20
G1 X20.9 Y16.8 F120
M106 S255
G4 P100
G0 X20.9 Y16.85 F1200
M106 S0
G4 P20
G1 X20.4 Y16.85 F120
M106 S255
G4 P100
G0 X19.0 Y16.85 F1200
M106 S0
G4 P20
G1 X17.9 Y16.85 F120
M106 S255
G4 P100
G0 X17.15 Y16.85 F1200
M106 S0
G4 P20
G1 X16.7 Y16.85 F120
M106 S255
G4 P100
G0 X15.9 Y16.85 F1200
M106 S0
G4 P20
G1 X14.2 Y16.85 F120
M106 S255
G4 P100
G0 X12.75 Y16.85 F1200
M106 S0
G4 P20
G1 X12.3 Y16.85 F120
M106 S255
G4 P100
G0 X9.65 Y16.85 F1200
M106 S0
G4 P20
G1 X9.2 Y16.85 F120
M106 S255
G4 P100
G0 X6.0 Y16.85 F1200
M106 S0
G4 P20
G1 X5.5 Y16.85 F120
M106 S255
G4 P100
G0 X5.5 Y16.9 F1200
M106 S0
G4 P20
G1 X6.0 Y16.9 F120
M106 S255
G4 P100
G0 X9.2 Y16.9 F1200
M106 S0
G4 P20
G1 X9.65 Y16.9 F120
M106 S255
G4 P100
G0 X12.3 Y16.9 F1200
M106 S0
G4 P20
G1 X12.75 Y16.9 F120
M106 S255
G4 P100
G0 X14.2 Y16.9 F1200
M106 S0
G4 P20
G1 X15.9 Y16.9 F120
M106 S255
G4 P100
G0 X16.7 Y16.9 F1200
M106 S0
G4 P20
G1 X17.15 Y16.9 F120
M106 S255
G4 P100
G0 X17.9 Y16.9 F1200
M106 S0
G4 P20
G1 X19.0 Y16.9 F120
M106 S255
G4 P100
G0 X20.4 Y16.9 F1200
M106 S0
G4 P20
G1 X20.9 Y16.9 F120
M106 S255
G4 P100
G0 X20.9 Y16.95 F1200
M106 S0
G4 P20
G1 X20.4 Y16.95 F120
M106 S255
G4 P100
G0 X19.0 Y16.95 F1200
M106 S0
G4 P20
G1 X17.9 Y16.95 F120
M106 S255
G4 P100
G0 X17.15 Y16.95 F1200
M106 S0
G4 P20
G1 X16.7 Y16.95 F120
M106 S255
G4 P100
G0 X15.9 Y16.95 F1200
M106 S0
G4 P20
G1 X14.2 Y16.95 F120
M106 S255
G4 P100
G0 X12.75 Y16.95 F1200
M106 S0
G4 P20
G1 X12.3 Y16.95 F120
M106 S255
G4 P100
G0 X9.65 Y16.95 F1200
M106 S0
G4 P20
G1 X9.2 Y16.95 F120
M106 S255
G4 P100
G0 X6.0 Y16.95 F1200
M106 S0
G4 P20
G1 X5.5 Y16.95 F120
M106 S255
G4 P100
G0 X5.5 Y17.0 F1200
M106 S0
G4 P20
G1 X6.0 Y17.0 F120
M106 S255
G4 P100
G0 X9.2 Y17.0 F1200
M106 S0
G4 P20
G1 X9.65 Y17.0 F120
M106 S255
G4 P100
G0 X12.3 Y17.0 F1200
M106 S0
G4 P20
G1 X12.75 Y17.0 F120
M106 S255
G4 P100
G0 X14.2 Y17.0 F1200
M106 S0
G4 P20
G1 X15.9 Y17.0 F120
M106 S255
G4 P100
G0 X16.7 Y17.0 F1200
M106 S0
G4 P20
G1 X17.15 Y17.0 F120
M106 S255
G4 P100
G0 X17.9 Y17.0 F1200
M106 S0
G4 P20
G1 X19.0 Y17.0 F120
M106 S255
G4 P100
G0 X20.4 Y17.0 F1200
M106 S0
G4 P20
G1 X20.9 Y17.0 F120
M106 S255
G4 P100
G0 X20.9 Y17.05 F1200
M106 S0
G4 P20
G1 X20.4 Y17.05 F120
M106 S255
G4 P100
G0 X19.0 Y17.05 F1200
M106 S0
G4 P20
G1 X17.9 Y17.05 F120
M106 S255
G4 P100
G0 X17.15 Y17.05 F1200
M106 S0
G4 P20
G1 X16.7 Y17.05 F120
M106 S255
G4 P100
G0 X15.9 Y17.05 F1200
M106 S0
G4 P20
G1 X14.2 Y17.05 F120
M106 S255
G4 P100
G0 X12.75 Y17.05 F1200
M106 S0
G4 P20
G1 X12.3 Y17.05 F120
M106 S255
G4 P100
G0 X9.65 Y17.05 F1200
M106 S0
G4 P20
G1 X9.2 Y17.05 F120
M106 S255
G4 P100
G0 X6.0 Y17.05 F1200
M106 S0
G4 P20
G1 X5.5 Y17.05 F120
M106 S255
G4 P100
G0 X5.5 Y17.1 F1200
M106 S0
G4 P20
G1 X6.0 Y17.1 F120
M106 S255
G4 P100
G0 X9.2 Y17.1 F1200
M106 S0
G4 P20
G1 X9.65 Y17.1 F120
M106 S255
G4 P100
G0 X12.3 Y17.1 F1200
M106 S0
G4 P20
G1 X12.75 Y17.1 F120
M106 S255
G4 P100
G0 X14.2 Y17.1 F1200
M106 S0
G4 P20
G1 X15.9 Y17.1 F120
M106 S255
G4 P100
G0 X16.7 Y17.1 F1200
M106 S0
G4 P20
G1 X17.15 Y17.1 F120
M106 S255
G4 P100
G0 X17.9 Y17.1 F1200
M106 S0
G4 P20
G1 X19.0 Y17.1 F120
M106 S255
G4 P100
G0 X20.4 Y17.1 F1200
M106 S0
G4 P20
G1 X20.9 Y17.1 F120
M106 S255
G4 P100
G0 X20.9 Y17.15 F1200
M106 S0
G4 P20
G1 X20.4 Y17.15 F120
M106 S255
G4 P100
G0 X19.0 Y17.15 F1200
M106 S0
G4 P20
G1 X17.9 Y17.15 F120
M106 S255
G4 P100
G0 X17.15 Y17.15 F1200
M106 S0
G4 P20
G1 X16.7 Y17.15 F120
M106 S255
G4 P100
G0 X15.9 Y17.15 F1200
M106 S0
G4 P20
G1 X14.2 Y17.15 F120
M106 S255
G4 P100
G0 X12.75 Y17.15 F1200
M106 S0
G4 P20
G1 X12.3 Y17.15 F120
M106 S255
G4 P100
G0 X9.65 Y17.15 F1200
M106 S0
G4 P20
G1 X9.2 Y17.15 F120
M106 S255
G4 P100
G0 X6.0 Y17.15 F1200
M106 S0
G4 P20
G1 X5.5 Y17.15 F120
M106 S255
G4 P100
G0 X5.5 Y17.2 F1200
M106 S0
G4 P20
G1 X6.0 Y17.2 F120
M106 S255
G4 P100
G0 X9.2 Y17.2 F1200
M106 S0
G4 P20
G1 X9.65 Y17.2 F120
M106 S255
G4 P100
G0 X12.3 Y17.2 F1200
M106 S0
G4 P20
G1 X12.75 Y17.2 F120
M106 S255
G4 P100
G0 X14.2 Y17.2 F1200
M106 S0
G4 P20
G1 X15.9 Y17.2 F120
M106 S255
G4 P100
G0 X16.7 Y17.2 F1200
M106 S0
G4 P20
G1 X17.15 Y17.2 F120
M106 S255
G4 P100
G0 X17.9 Y17.2 F1200
M106 S0
G4 P20
G1 X19.0 Y17.2 F120
M106 S255
G4 P100
G0 X20.4 Y17.2 F1200
M106 S0
G4 P20
G1 X20.9 Y17.2 F120
M106 S255
G4 P100
G0 X20.9 Y17.25 F1200
M106 S0
G4 P20
G1 X20.4 Y17.25 F120
M106 S255
G4 P100
G0 X15.25 Y17.25 F1200
M106 S0
G4 P20
G1 X14.8 Y17.25 F120
M106 S255
G4 P100
G0 X12.75 Y17.25 F1200
M106 S0
G4 P20
G1 X12.3 Y17.25 F120
M106 S255
G4 P100
G0 X9.65 Y17.25 F1200
M106 S0
G4 P20
G1 X9.2 Y17.25 F120
M106 S255
G4 P100
G0 X6.0 Y17.25 F1200
M106 S0
G4 P20
G1 X5.5 Y17.25 F120
M106 S255
G4 P100
G0 X5.5 Y17.3 F1200
M106 S0
G4 P20
G1 X6.0 Y17.3 F120
M106 S255
G4 P100
G0 X9.2 Y17.3 F1200
M106 S0
G4 P20
G1 X9.65 Y17.3 F120
M106 S255
G4 P100
G0 X12.3 Y17.3 F1200
M106 S0
G4 P20
G1 X12.85 Y17.3 F120
M106 S255
G4 P100
G0 X14.8 Y17.3 F1200
M106 S0
G4 P20
G1 X15.25 Y17.3 F120
M106 S255
G4 P100
G0 X20.4 Y17.3 F1200
M106 S0
G4 P20
G1 X20.9 Y17.3 F120
M106 S255
G4 P100
G0 X20.9 Y17.35 F1200
M106 S0
G4 P20
G1 X20.4 Y17.35 F120
M106 S255
G4 P100
G0 X19.65 Y17.35 F1200
M106 S0
G4 P20
G1 X19.2 Y17.35 F120
M106 S255
G4 P100
G0 X17.75 Y17.35 F1200
M106 S0
G4 P20
G1 X17.3 Y17.35 F120
M106 S255
G4 P100
G0 X16.55 Y17.35 F1200
M106 S0
G4 P20
G1 X16.1 Y17.35 F120
M106 S255
G4 P100
G0 X15.25 Y17.35 F1200
M106 S0
G4 P20
G1 X14.8 Y17.35 F120
M106 S255
G4 P100
G0 X13.4 Y17.35 F1200
M106 S0
G4 P20
G1 X12.3 Y17.35 F120
M106 S255
G4 P100
G0 X11.55 Y17.35 F1200
M106 S0
G4 P20
G1 X11.1 Y17.35 F120
M106 S255
G4 P100
G0 X9.65 Y17.35 F1200
M106 S0
G4 P20
G1 X9.2 Y17.35 F120
M106 S255
G4 P100
G0 X8.45 Y17.35 F1200
M106 S0
G4 P20
G1 X6.7 Y17.35 F120
M106 S255
G4 P100
G0 X6.0 Y17.35 F1200
M106 S0
G4 P20
G1 X5.5 Y17.35 F120
M106 S255
G4 P100
G0 X5.5 Y17.4 F1200
M106 S0
G4 P20
G1 X6.0 Y17.4 F120
M106 S255
G4 P100
G0 X6.7 Y17.4 F1200
M106 S0
G4 P20
G1 X8.45 Y17.4 F120
M106 S255
G4 P100
G0 X9.2 Y17.4 F1200
M106 S0
G4 P20
G1 X9.65 Y17.4 F120
M106 S255
G4 P100
G0 X11.1 Y17.4 F1200
M106 S0
G4 P20
G1 X11.55 Y17.4 F120
M106 S255
G4 P100
G0 X12.3 Y17.4 F1200
M106 S0
G4 P20
G1 X13.4 Y17.4 F120
M106 S255
G4 P100
G0 X14.8 Y17.4 F1200
M106 S0
G4 P20
G1 X15.25 Y17.4 F120
M106 S255
G4 P100
G0 X16.1 Y17.4 F1200
M106 S0
G4 P20
G1 X16.55 Y17.4 F120
M106 S255
G4 P100
G0 X17.3 Y17.4 F1200
M106 S0
G4 P20
G1 X17.75 Y17.4 F120
M106 S255
G4 P100
G0 X19.2 Y17.4 F1200
M106 S0
G4 P20
G1 X19.65 Y17.4 F120
M106 S255
G4 P100
G0 X20.4 Y17.4 F1200
M106 S0
G4 P20
G1 X20.9 Y17.4 F120
M106 S255
G4 P100
G0 X20.9 Y17.45 F1200
M106 S0
G4 P20
G1 X20.4 Y17.45 F120
M106 S255
G4 P100
G0 X19.65 Y17.45 F1200
M106 S0
G4 P20
G1 X19.2 Y17.45 F120
M106 S255
G4 P100
G0 X17.75 Y17.45 F1200
M106 S0
G4 P20
G1 X17.3 Y17.45 F120
M106 S255
G4 P100
G0 X16.55 Y17.45 F1200
M106 S0
G4 P20
G1 X16.1 Y17.45 F120
M106 S255
G4 P100
G0 X15.25 Y17.45 F1200
M106 S0
G4 P20
G1 X14.8 Y17.45 F120
M106 S255
G4 P100
G0 X13.4 Y17.45 F1200
M106 S0
G4 P20
G1 X12.3 Y17.45 F120
M106 S255
G4 P100
G0 X11.55 Y17.45 F1200
M106 S0
G4 P20
G1 X11.1 Y17.45 F120
M106 S255
G4 P100
G0 X9.65 Y17.45 F1200
M106 S0
G4 P20
G1 X9.2 Y17.45 F120
M106 S255
G4 P100
G0 X8.45 Y17.45 F1200
M106 S0
G4 P20
G1 X6.7 Y17.45 F120
M106 S255
G4 P100
G0 X6.0 Y17.45 F1200
M106 S0
G4 P20
G1 X5.5 Y17.45 F120
M106 S255
G4 P100
G0 X5.5 Y17.5 F1200
M106 S0
G4 P20
G1 X6.0 Y17.5 F120
M106 S255
G4 P100
G0 X6.7 Y17.5 F1200
M106 S0
G4 P20
G1 X8.45 Y17.5 F120
M106 S255
G4 P100
G0 X9.2 Y17.5 F1200
M106 S0
G4 P20
G1 X9.65 Y17.5 F120
M106 S255
G4 P100
G0 X11.1 Y17.5 F1200
M106 S0
G4 P20
G1 X11.55 Y17.5 F120
M106 S255
G4 P100
G0 X12.3 Y17.5 F1200
M106 S0
G4 P20
G1 X13.4 Y17.5 F120
M106 S255
G4 P100
G0 X14.8 Y17.5 F1200
M106 S0
G4 P20
G1 X15.25 Y17.5 F120
M106 S255
G4 P100
G0 X16.1 Y17.5 F1200
M106 S0
G4 P20
G1 X16.55 Y17.5 F120
M106 S255
G4 P100
G0 X17.3 Y17.5 F1200
M106 S0
G4 P20
G1 X17.75 Y17.5 F120
M106 S255
G4 P100
G0 X19.2 Y17.5 F1200
M106 S0
G4 P20
G1 X19.65 Y17.5 F120
M106 S255
G4 P100
G0 X20.4 Y17.5 F1200
M106 S0
G4 P20
G1 X20.9 Y17.5 F120
M106 S255
G4 P100
G0 X20.9 Y17.55 F1200
M106 S0
G4 P20
G1 X20.4 Y17.55 F120
M106 S255
G4 P100
G0 X19.65 Y17.55 F1200
M106 S0
G4 P20
G1 X19.2 Y17.55 F120
M106 S255
G4 P100
G0 X17.75 Y17.55 F1200
M106 S0
G4 P20
G1 X17.3 Y17.55 F120
M106 S255
G4 P100
G0 X16.55 Y17.55 F1200
M106 S0
G4 P20
G1 X16.1 Y17.55 F120
M106 S255
G4 P100
G0 X15.25 Y17.55 F1200
M106 S0
G4 P20
G1 X14.8 Y17.55 F120
M106 S255
G4 P100
G0 X13.4 Y17.55 F1200
M106 S0
G4 P20
G1 X12.3 Y17.55 F120
M106 S255
G4 P100
G0 X11.55 Y17.55 F1200
M106 S0
G4 P20
G1 X11.1 Y17.55 F120
M106 S255
G4 P100
G0 X9.65 Y17.55 F1200
M106 S0
G4 P20
G1 X9.2 Y17.55 F120
M106 S255
G4 P100
G0 X8.45 Y17.55 F1200
M106 S0
G4 P20
G1 X6.7 Y17.55 F120
M106 S255
G4 P100
G0 X6.0 Y17.55 F1200
M106 S0
G4 P20
G1 X5.5 Y17.55 F120
M106 S255
G4 P100
G0 X5.5 Y17.6 F1200
M106 S0
G4 P20
G1 X6.0 Y17.6 F120
M106 S255
G4 P100
G0 X6.7 Y17.6 F1200
M106 S0
G4 P20
G1 X8.45 Y17.6 F120
M106 S255
G4 P100
G0 X9.2 Y17.6 F1200
M106 S0
G4 P20
G1 X9.65 Y17.6 F120
M106 S255
G4 P100
G0 X11.1 Y17.6 F1200
M106 S0
G4 P20
G1 X11.55 Y17.6 F120
M106 S255
G4 P100
G0 X12.3 Y17.6 F1200
M106 S0
G4 P20
G1 X13.4 Y17.6 F120
M106 S255
G4 P100
G0 X14.8 Y17.6 F1200
M106 S0
G4 P20
G1 X15.25 Y17.6 F120
M106 S255
G4 P100
G0 X16.1 Y17.6 F1200
M106 S0
G4 P20
G1 X16.55 Y17.6 F120
M106 S255
G4 P100
G0 X17.3 Y17.6 F1200
M106 S0
G4 P20
G1 X17.75 Y17.6 F120
M106 S255
G4 P100
G0 X19.2 Y17.6 F1200
M106 S0
G4 P20
G1 X19.65 Y17.6 F120
M106 S255
G4 P100
G0 X20.4 Y17.6 F1200
M106 S0
G4 P20
G1 X20.9 Y17.6 F120
M106 S255
G4 P100
G0 X20.9 Y17.65 F1200
M106 S0
G4 P20
G1 X20.4 Y17.65 F120
M106 S255
G4 P100
G0 X19.65 Y17.65 F1200
M106 S0
G4 P20
G1 X19.2 Y17.65 F120
M106 S255
G4 P100
G0 X17.75 Y17.65 F1200
M106 S0
G4 P20
G1 X17.3 Y17.65 F120
M106 S255
G4 P100
G0 X16.55 Y17.65 F1200
M106 S0
G4 P20
G1 X16.1 Y17.65 F120
M106 S255
G4 P100
G0 X15.25 Y17.65 F1200
M106 S0
G4 P20
G1 X14.8 Y17.65 F120
M106 S255
G4 P100
G0 X13.4 Y17.65 F1200
M106 S0
G4 P20
G1 X12.3 Y17.65 F120
M106 S255
G4 P100
G0 X11.55 Y17.65 F1200
M106 S0
G4 P20
G1 X11.1 Y17.65 F120
M106 S255
G4 P100
G0 X9.65 Y17.65 F1200
M106 S0
G4 P20
G1 X9.2 Y17.65 F120
M106 S255
G4 P100
G0 X8.45 Y17.65 F1200
M106 S0
G4 P20
G1 X6.7 Y17.65 F120
M106 S255
G4 P100
G0 X6.0 Y17.65 F1200
M106 S0
G4 P20
G1 X5.5 Y17.65 F120
M106 S255
G4 P100
G0 X5.5 Y17.7 F1200
M106 S0
G4 P20
G1 X6.0 Y17.7 F120
M106 S255
G4 P100
G0 X6.7 Y17.7 F1200
M106 S0
G4 P20
G1 X8.45 Y17.7 F120
M106 S255
G4 P100
G0 X9.2 Y17.7 F1200
M106 S0
G4 P20
G1 X9.65 Y17.7 F120
M106 S255
G4 P100
G0 X11.1 Y17.7 F1200
M106 S0
G4 P20
G1 X11.55 Y17.7 F120
M106 S255
G4 P100
G0 X12.3 Y17.7 F1200
M106 S0
G4 P20
G1 X13.4 Y17.7 F120
M106 S255
G4 P100
G0 X14.8 Y17.7 F1200
M106 S0
G4 P20
G1 X15.25 Y17.7 F120
M106 S255
G4 P100
G0 X16.1 Y17.7 F1200
M106 S0
G4 P20
G1 X16.55 Y17.7 F120
M106 S255
G4 P100
G0 X17.3 Y17.7 F1200
M106 S0
G4 P20
G1 X17.75 Y17.7 F120
M106 S255
G4 P100
G0 X19.2 Y17.7 F1200
M106 S0
G4 P20
G1 X19.65 Y17.7 F120
M106 S255
G4 P100
G0 X20.4 Y17.7 F1200
M106 S0
G4 P20
G1 X20.9 Y17.7 F120
M106 S255
G4 P100
G0 X20.9 Y17.75 F1200
M106 S0
G4 P20
G1 X20.4 Y17.75 F120
M106 S255
G4 P100
G0 X19.65 Y17.75 F1200
M106 S0
G4 P20
G1 X19.2 Y17.75 F120
M106 S255
G4 P100
G0 X17.75 Y17.75 F1200
M106 S0
G4 P20
G1 X17.3 Y17.75 F120
M106 S255
G4 P100
G0 X16.55 Y17.75 F1200
M106 S0
G4 P20
G1 X16.1 Y17.75 F120
M106 S255
G4 P100
G0 X15.25 Y17.75 F1200
M106 S0
G4 P20
G1 X14.8 Y17.75 F120
M106 S255
G4 P100
G0 X13.4 Y17.75 F1200
M106 S0
G4 P20
G1 X12.3 Y17.75 F120
M106 S255
G4 P100
G0 X11.55 Y17.75 F1200
M106 S0
G4 P20
G1 X11.1 Y17.75 F120
M106 S255
G4 P100
G0 X9.65 Y17.75 F1200
M106 S0
G4 P20
G1 X9.2 Y17.75 F120
M106 S255
G4 P100
G0 X8.45 Y17.75 F1200
M106 S0
G4 P20
G1 X6.7 Y17.75 F120
M106 S255
G4 P100
G0 X6.0 Y17.75 F1200
M106 S0
G4 P20
G1 X5.5 Y17.75 F120
M106 S255
G4 P100
G0 X5.5 Y17.8 F1200
M106 S0
G4 P20
G1 X6.0 Y17.8 F120
M106 S255
G4 P100
G0 X6.7 Y17.8 F1200
M106 S0
G4 P20
G1 X8.45 Y17.8 F120
M106 S255
G4 P100
G0 X9.2 Y17.8 F1200
M106 S0
G4 P20
G1 X9.65 Y17.8 F120
M106 S255
G4 P100
G0 X14.8 Y17.8 F1200
M106 S0
G4 P20
G1 X15.25 Y17.8 F120
M106 S255
G4 P100
G0 X16.1 Y17.8 F1200
M106 S0
G4 P20
G1 X16.55 Y17.8 F120
M106 S255
G4 P100
G0 X20.4 Y17.8 F1200
M106 S0
G4 P20
G1 X20.9 Y17.8 F120
M106 S255
G4 P100
G0 X20.9 Y17.85 F1200
M106 S0
G4 P20
G1 X20.35 Y17.85 F120
M106 S255
G4 P100
G0 X16.55 Y17.85 F1200
M106 S0
G4 P20
G1 X16.1 Y17.85 F120
M106 S255
G4 P100
G0 X15.25 Y17.85 F1200
M106 S0
G4 P20
G1 X14.8 Y17.85 F120
M106 S255
G4 P100
G0 X9.65 Y17.85 F1200
M106 S0
G4 P20
G1 X9.2 Y17.85 F120
M106 S255
G4 P100
G0 X8.45 Y17.85 F1200
M106 S0
G4 P20
G1 X6.7 Y17.85 F120
M106 S255
G4 P100
G0 X6.0 Y17.85 F1200
M106 S0
G4 P20
G1 X5.5 Y17.85 F120
M106 S255
G4 P100
G0 X5.5 Y17.9 F1200
M106 S0
G4 P20
G1 X6.0 Y17.9 F120
M106 S255
G4 P100
G0 X6.7 Y17.9 F1200
M106 S0
G4 P20
G1 X8.45 Y17.9 F120
M106 S255
G4 P100
G0 X9.2 Y17.9 F1200
M106 S0
G4 P20
G1 X9.65 Y17.9 F120
M106 S255
G4 P100
G0 X14.75 Y17.9 F1200
M106 S0
G4 P20
G1 X15.25 Y17.9 F120
M106 S255
G4 P100
G0 X16.1 Y17.9 F1200
M106 S0
G4 P20
G1 X16.55 Y17.9 F120
M106 S255
G4 P100
G0 X20.3 Y17.9 F1200
M106 S0
G4 P20
G1 X20.9 Y17.9 F120
M106 S255
G4 P100
G0 X20.9 Y17.95 F1200
M106 S0
G4 P20
G1 X19.8 Y17.95 F120
M106 S255
G4 P100
G0 X19.0 Y17.95 F1200
M106 S0
G4 P20
G1 X18.55 Y17.95 F120
M106 S255
G4 P100
G0 X17.15 Y17.95 F1200
M106 S0
G4 P20
G1 X16.1 Y17.95 F120
M106 S255
G4 P100
G0 X15.25 Y17.95 F1200
M106 S0
G4 P20
G1 X14.2 Y17.95 F120
M106 S255
G4 P100
G0 X9.65 Y17.95 F1200
M106 S0
G4 P20
G1 X9.2 Y17.95 F120
M106 S255
G4 P100
G0 X8.45 Y17.95 F1200
M106 S0
G4 P20
G1 X6.7 Y17.95 F120
M106 S255
G4 P100
G0 X6.0 Y17.95 F1200
M106 S0
G4 P20
G1 X5.5 Y17.95 F120
M106 S255
G4 P100
G0 X5.5 Y18.0 F1200
M106 S0
G4 P20
G1 X6.0 Y18.0 F120
M106 S255
G4 P100
G0 X6.7 Y18.0 F1200
M106 S0
G4 P20
G1 X8.45 Y18.0 F120
M106 S255
G4 P100
G0 X9.2 Y18.0 F1200
M106 S0
G4 P20
G1 X9.65 Y18.0 F120
M106 S255
G4 P100
G0 X14.2 Y18.0 F1200
M106 S0
G4 P20
G1 X15.25 Y18.0 F120
M106 S255
G4 P100
G0 X16.1 Y18.0 F1200
M106 S0
G4 P20
G1 X17.15 Y18.0 F120
M106 S255
G4 P100
G0 X18.55 Y18.0 F1200
M106 S0
G4 P20
G1 X19.0 Y18.0 F120
M106 S255
G4 P100
G0 X19.8 Y18.0 F1200
M106 S0
G4 P20
G1 X20.9 Y18.0 F120
M106 S255
G4 P100
G0 X20.9 Y18.05 F1200
M106 S0
G4 P20
G1 X19.8 Y18.05 F120
M106 S255
G4 P100
G0 X19.0 Y18.05 F1200
M106 S0
G4 P20
G1 X18.55 Y18.05 F120
M106 S255
G4 P100
G0 X17.15 Y18.05 F1200
M106 S0
G4 P20
G1 X16.1 Y18.05 F120
M106 S255
G4 P100
G0 X15.25 Y18.05 F1200
M106 S0
G4 P20
G1 X14.2 Y18.05 F120
M106 S255
G4 P100
G0 X9.65 Y18.05 F1200
M106 S0
G4 P20
G1 X9.2 Y18.05 F120
M106 S255
G4 P100
G0 X8.45 Y18.05 F1200
M106 S0
G4 P20
G1 X6.7 Y18.05 F120
M106 S255
G4 P100
G0 X6.0 Y18.05 F1200
M106 S0
G4 P20
G1 X5.5 Y18.05 F120
M106 S255
G4 P100
G0 X5.5 Y18.1 F1200
M106 S0
G4 P20
G1 X6.0 Y18.1 F120
M106 S255
G4 P100
G0 X6.7 Y18.1 F1200
M106 S0
G4 P20
G1 X8.45 Y18.1 F120
M106 S255
G4 P100
G0 X9.2 Y18.1 F1200
M106 S0
G4 P20
G1 X9.65 Y18.1 F120
M106 S255
G4 P100
G0 X14.2 Y18.1 F1200
M106 S0
G4 P20
G1 X15.25 Y18.1 F120
M106 S255
G4 P100
G0 X16.1 Y18.1 F1200
M106 S0
G4 P20
G1 X17.15 Y18.1 F120
M106 S255
G4 P100
G0 X18.55 Y18.1 F1200
M106 S0
G4 P20
G1 X19.0 Y18.1 F120
M106 S255
G4 P100
G0 X19.8 Y18.1 F1200
M106 S0
G4 P20
G1 X20.9 Y18.1 F120
M106 S255
G4 P100
G0 X20.9 Y18.15 F1200
M106 S0
G4 P20
G1 X19.8 Y18.15 F120
M106 S255
G4 P100
G0 X19.0 Y18.15 F1200
M106 S0
G4 P20
G1 X18.55 Y18.15 F120
M106 S255
G4 P100
G0 X17.15 Y18.15 F1200
M106 S0
G4 P20
G1 X16.1 Y18.15 F120
M106 S255
G4 P100
G0 X15.25 Y18.15 F1200
M106 S0
G4 P20
G1 X14.2 Y18.15 F120
M106 S255
G4 P100
G0 X9.65 Y18.15 F1200
M106 S0
G4 P20
G1 X9.2 Y18.15 F120
M106 S255
G4 P100
G0 X8.45 Y18.15 F1200
M106 S0
G4 P20
G1 X6.7 Y18.15 F120
M106 S255
G4 P100
G0 X6.0 Y18.15 F1200
M106 S0
G4 P20
G1 X5.5 Y18.15 F120
M106 S255
G4 P100
G0 X5.5 Y18.2 F1200
M106 S0
G4 P20
G1 X6.0 Y18.2 F120
M106 S255
G4 P100
G0 X6.7 Y18.2 F1200
M106 S0
G4 P20
G1 X8.45 Y18.2 F120
M106 S255
G4 P100
G0 X9.2 Y18.2 F1200
M106 S0
G4 P20
G1 X9.65 Y18.2 F120
M106 S255
G4 P100
G0 X14.2 Y18.2 F1200
M106 S0
G4 P20
G1 X15.25 Y18.2 F120
M106 S255
G4 P100
G0 X16.1 Y18.2 F1200
M106 S0
G4 P20
G1 X17.15 Y18.2 F120
M106 S255
G4 P100
G0 X18.55 Y18.2 F1200
M106 S0
G4 P20
G1 X19.0 Y18.2 F120
M106 S255
G4 P100
G0 X19.8 Y18.2 F1200
M106 S0
G4 P20
G1 X20.9 Y18.2 F120
M106 S255
G4 P100
G0 X20.9 Y18.25 F1200
M106 S0
G4 P20
G1 X19.8 Y18.25 F120
M106 S255
G4 P100
G0 X19.0 Y18.25 F1200
M106 S0
G4 P20
G1 X18.55 Y18.25 F120
M106 S255
G4 P100
G0 X17.15 Y18.25 F1200
M106 S0
G4 P20
G1 X16.1 Y18.25 F120
M106 S255
G4 P100
G0 X15.25 Y18.25 F1200
M106 S0
G4 P20
G1 X14.2 Y18.25 F120
M106 S255
G4 P100
G0 X9.65 Y18.25 F1200
M106 S0
G4 P20
G1 X9.2 Y18.25 F120
M106 S255
G4 P100
G0 X8.45 Y18.25 F1200
M106 S0
G4 P20
G1 X6.7 Y18.25 F120
M106 S255
G4 P100
G0 X6.0 Y18.25 F1200
M106 S0
G4 P20
G1 X5.5 Y18.25 F120
M106 S255
G4 P100
G0 X5.5 Y18.3 F1200
M106 S0
G4 P20
G1 X6.0 Y18.3 F120
M106 S255
G4 P100
G0 X6.7 Y18.3 F1200
M106 S0
G4 P20
G1 X8.45 Y18.3 F120
M106 S255
G4 P100
G0 X9.2 Y18.3 F1200
M106 S0
G4 P20
G1 X9.65 Y18.3 F120
M106 S255
G4 P100
G0 X14.2 Y18.3 F1200
M106 S0
G4 P20
G1 X15.25 Y18.3 F120
M106 S255
G4 P100
G0 X16.1 Y18.3 F1200
M106 S0
G4 P20
G1 X17.15 Y18.3 F120
M106 S255
G4 P100
G0 X18.55 Y18.3 F1200
M106 S0
G4 P20
G1 X19.0 Y18.3 F120
M106 S255
G4 P100
G0 X19.8 Y18.3 F1200
M106 S0
G4 P20
G1 X20.9 Y18.3 F120
M106 S255
G4 P100
G0 X20.9 Y18.35 F1200
M106 S0
G4 P20
G1 X19.8 Y18.35 F120
M106 S255
G4 P100
G0 X19.0 Y18.35 F1200
M106 S0
G4 P20
G1 X18.55 Y18.35 F120
M106 S255
G4 P100
G0 X17.15 Y18.35 F1200
M106 S0
G4 P20
G1 X16.1 Y18.35 F120
M106 S255
G4 P100
G0 X15.25 Y18.35 F1200
M106 S0
G4 P20
G1 X14.2 Y18.35 F120
M106 S255
G4 P100
G0 X9.65 Y18.35 F1200
M106 S0
G4 P20
G1 X9.2 Y18.35 F120
M106 S255
G4 P100
G0 X8.45 Y18.35 F1200
M106 S0
G4 P20
G1 X6.7 Y18.35 F120
M106 S255
G4 P100
G0 X6.0 Y18.35 F1200
M106 S0
G4 P20
G1 X5.5 Y18.35 F120
M106 S255
G4 P100
G0 X5.5 Y18.4 F1200
M106 S0
G4 P20
G1 X6.0 Y18.4 F120
M106 S255
G4 P100
G0 X6.7 Y18.4 F1200
M106 S0
G4 P20
G1 X8.45 Y18.4 F120
M106 S255
G4 P100
G0 X9.2 Y18.4 F1200
M106 S0
G4 P20
G1 X9.65 Y18.4 F120
M106 S255
G4 P100
G0 X14.2 Y18.4 F1200
M106 S0
G4 P20
G1 X15.25 Y18.4 F120
M106 S255
G4 P100
G0 X16.1 Y18.4 F1200
M106 S0
G4 P20
G1 X17.15 Y18.4 F120
M106 S255
G4 P100
G0 X18.55 Y18.4 F1200
M106 S0
G4 P20
G1 X19.0 Y18.4 F120
M106 S255
G4 P100
G0 X20.3 Y18.4 F1200
M106 S0
G4 P20
G1 X20.9 Y18.4 F120
M106 S255
G4 P100
G0 X20.9 Y18.45 F1200
M106 S0
G4 P20
G1 X20.35 Y18.45 F120
M106 S255
G4 P100
G0 X19.0 Y18.45 F1200
M106 S0
G4 P20
G1 X18.55 Y18.45 F120
M106 S255
G4 P100
G0 X17.15 Y18.45 F1200
M106 S0
G4 P20
G1 X16.1 Y18.45 F120
M106 S255
G4 P100
G0 X15.25 Y18.45 F1200
M106 S0
G4 P20
G1 X14.2 Y18.45 F120
M106 S255
G4 P100
G0 X9.65 Y18.45 F1200
M106 S0
G4 P20
G1 X9.2 Y18.45 F120
M106 S255
G4 P100
G0 X8.45 Y18.45 F1200
M106 S0
G4 P20
G1 X6.7 Y18.45 F120
M106 S255
G4 P100
G0 X6.0 Y18.45 F1200
M106 S0
G4 P20
G1 X5.5 Y18.45 F120
M106 S255
G4 P100
G0 X5.5 Y18.5 F1200
M106 S0
G4 P20
G1 X6.0 Y18.5 F120
M106 S255
G4 P100
G0 X6.7 Y18.5 F1200
M106 S0
G4 P20
G1 X8.45 Y18.5 F120
M106 S255
G4 P100
G0 X9.2 Y18.5 F1200
M106 S0
G4 P20
G1 X9.65 Y18.5 F120
M106 S255
G4 P100
G0 X14.2 Y18.5 F1200
M106 S0
G4 P20
G1 X15.3 Y18.5 F120
M106 S255
G4 P100
G0 X16.0 Y18.5 F1200
M106 S0
G4 P20
G1 X17.15 Y18.5 F120
M106 S255
G4 P100
G0 X18.5 Y18.5 F1200
M106 S0
G4 P20
G1 X19.05 Y18.5 F120
M106 S255
G4 P100
G0 X20.35 Y18.5 F1200
M106 S0
G4 P20
G1 X20.9 Y18.5 F120
M106 S255
G4 P100
G0 X20.9 Y18.55 F1200
M106 S0
G4 P20
G1 X20.4 Y18.55 F120
M106 S255
G4 P100
G0 X19.65 Y18.55 F1200
M106 S0
G4 P20
G1 X14.2 Y18.55 F120
M106 S255
G4 P100
G0 X13.4 Y18.55 F1200
M106 S0
G4 P20
G1 X12.9 Y18.55 F120
M106 S255
G4 P100
G0 X11.55 Y18.55 F1200
M106 S0
G4 P20
G1 X11.1 Y18.55 F120
M106 S255
G4 P100
G0 X9.65 Y18.55 F1200
M106 S0
G4 P20
G1 X9.2 Y18.55 F120
M106 S255
G4 P100
G0 X8.45 Y18.55 F1200
M106 S0
G4 P20
G1 X6.7 Y18.55 F120
M106 S255
G4 P100
G0 X6.0 Y18.55 F1200
M106 S0
G4 P20
G1 X5.5 Y18.55 F120
M106 S255
G4 P100
G0 X5.5 Y18.6 F1200
M106 S0
G4 P20
G1 X6.0 Y18.6 F120
M106 S255
G4 P100
G0 X6.7 Y18.6 F1200
M106 S0
G4 P20
G1 X8.45 Y18.6 F120
M106 S255
G4 P100
G0 X9.2 Y18.6 F1200
M106 S0
G4 P20
G1 X9.65 Y18.6 F120
M106 S255
G4 P100
G0 X11.1 Y18.6 F1200
M106 S0
G4 P20
G1 X11.55 Y18.6 F120
M106 S255
G4 P100
G0 X12.9 Y18.6 F1200
M106 S0
G4 P20
G1 X13.4 Y18.6 F120
M106 S255
G4 P100
G0 X14.2 Y18.6 F1200
M106 S0
G4 P20
G1 X19.65 Y18.6 F120
M106 S255
G4 P100
G0 X20.4 Y18.6 F1200
M106 S0
G4 P20
G1 X20.9 Y18.6 F120
M106 S255
G4 P100
G0 X20.9 Y18.65 F1200
M106 S0
G4 P20
G1 X20.4 Y18.65 F120
M106 S255
G4 P100
G0 X19.65 Y18.65 F1200
M106 S0
G4 P20
G1 X14.2 Y18.65 F120
M106 S255
G4 P100
G0 X13.4 Y18.65 F1200
M106 S0
G4 P20
G1 X12.9 Y18.65 F120
M106 S255
G4 P100
G0 X11.55 Y18.65 F1200
M106 S0
G4 P20
G1 X11.1 Y18.65 F120
M106 S255
G4 P100
G0 X9.65 Y18.65 F1200
M106 S0
G4 P20
G1 X9.2 Y18.65 F120
M106 S255
G4 P100
G0 X8.45 Y18.65 F1200
M106 S0
G4 P20
G1 X6.7 Y18.65 F120
M106 S255
G4 P100
G0 X6.0 Y18.65 F1200
M106 S0
G4 P20
G1 X5.5 Y18.65 F120
M106 S255
G4 P100
G0 X5.5 Y18.7 F1200
M106 S0
G4 P20
G1 X6.0 Y18.7 F120
M106 S255
G4 P100
G0 X6.7 Y18.7 F1200
M106 S0
G4 P20
G1 X8.45 Y18.7 F120
M106 S255
G4 P100
G0 X9.2 Y18.7 F1200
M106 S0
G4 P20
G1 X9.65 Y18.7 F120
M106 S255
G4 P100
G0 X11.1 Y18.7 F1200
M106 S0
G4 P20
G1 X11.55 Y18.7 F120
M106 S255
G4 P100
G0 X12.9 Y18.7 F1200
M106 S0
G4 P20
G1 X13.4 Y18.7 F120
M106 S255
G4 P100
G0 X14.2 Y18.7 F1200
M106 S0
G4 P20
G1 X19.65 Y18.7 F120
M106 S255
G4 P100
G0 X20.4 Y18.7 F1200
M106 S0
G4 P20
G1 X20.9 Y18.7 F120
M106 S255
G4 P100
G0 X20.9 Y18.75 F1200
M106 S0
G4 P20
G1 X20.4 Y18.75 F120
M106 S255
G4 P100
G0 X19.65 Y18.75 F1200
M106 S0
G4 P20
G1 X14.2 Y18.75 F120
M106 S255
G4 P100
G0 X13.4 Y18.75 F1200
M106 S0
G4 P20
G1 X12.9 Y18.75 F120
M106 S255
G4 P100
G0 X11.55 Y18.75 F1200
M106 S0
G4 P20
G1 X11.1 Y18.75 F120
M106 S255
G4 P100
G0 X9.65 Y18.75 F1200
M106 S0
G4 P20
G1 X9.2 Y18.75 F120
M106 S255
G4 P100
G0 X8.45 Y18.75 F1200
M106 S0
G4 P20
G1 X6.7 Y18.75 F120
M106 S255
G4 P100
G0 X6.0 Y18.75 F1200
M106 S0
G4 P20
G1 X5.5 Y18.75 F120
M106 S255
G4 P100
G0 X5.5 Y18.8 F1200
M106 S0
G4 P20
G1 X6.0 Y18.8 F120
M106 S255
G4 P100
G0 X6.7 Y18.8 F1200
M106 S0
G4 P20
G1 X8.45 Y18.8 F120
M106 S255
G4 P100
G0 X9.2 Y18.8 F1200
M106 S0
G4 P20
G1 X9.65 Y18.8 F120
M106 S255
G4 P100
G0 X11.1 Y18.8 F1200
M106 S0
G4 P20
G1 X11.55 Y18.8 F120
M106 S255
G4 P100
G0 X12.9 Y18.8 F1200
M106 S0
G4 P20
G1 X13.4 Y18.8 F120
M106 S255
G4 P100
G0 X14.2 Y18.8 F1200
M106 S0
G4 P20
G1 X19.65 Y18.8 F120
M106 S255
G4 P100
G0 X20.4 Y18.8 F1200
M106 S0
G4 P20
G1 X20.9 Y18.8 F120
M106 S255
G4 P100
G0 X20.9 Y18.85 F1200
M106 S0
G4 P20
G1 X20.4 Y18.85 F120
M106 S255
G4 P100
G0 X19.65 Y18.85 F1200
M106 S0
G4 P20
G1 X14.2 Y18.85 F120
M106 S255
G4 P100
G0 X13.4 Y18.85 F1200
M106 S0
G4 P20
G1 X12.9 Y18.85 F120
M106 S255
G4 P100
G0 X11.55 Y18.85 F1200
M106 S0
G4 P20
G1 X11.1 Y18.85 F120
M106 S255
G4 P100
G0 X9.65 Y18.85 F1200
M106 S0
G4 P20
G1 X9.2 Y18.85 F120
M106 S255
G4 P100
G0 X8.45 Y18.85 F1200
M106 S0
G4 P20
G1 X6.7 Y18.85 F120
M106 S255
G4 P100
G0 X6.0 Y18.85 F1200
M106 S0
G4 P20
G1 X5.5 Y18.85 F120
M106 S255
G4 P100
G0 X5.5 Y18.9 F1200
M106 S0
G4 P20
G1 X6.0 Y18.9 F120
M106 S255
G4 P100
G0 X6.7 Y18.9 F1200
M106 S0
G4 P20
G1 X8.45 Y18.9 F120
M106 S255
G4 P100
G0 X9.2 Y18.9 F1200
M106 S0
G4 P20
G1 X9.65 Y18.9 F120
M106 S255
G4 P100
G0 X11.1 Y18.9 F1200
M106 S0
G4 P20
G1 X11.55 Y18.9 F120
M106 S255
G4 P100
G0 X12.9 Y18.9 F1200
M106 S0
G4 P20
G1 X13.4 Y18.9 F120
M106 S255
G4 P100
G0 X14.2 Y18.9 F1200
M106 S0
G4 P20
G1 X19.65 Y18.9 F120
M106 S255
G4 P100
G0 X20.4 Y18.9 F1200
M106 S0
G4 P20
G1 X20.9 Y18.9 F120
M106 S255
G4 P100
G0 X20.9 Y18.95 F1200
M106 S0
G4 P20
G1 X20.4 Y18.95 F120
M106 S255
G4 P100
G0 X19.65 Y18.95 F1200
M106 S0
G4 P20
G1 X14.2 Y18.95 F120
M106 S255
G4 P100
G0 X13.4 Y18.95 F1200
M106 S0
G4 P20
G1 X12.9 Y18.95 F120
M106 S255
G4 P100
G0 X11.55 Y18.95 F1200
M106 S0
G4 P20
G1 X11.1 Y18.95 F120
M106 S255
G4 P100
G0 X9.65 Y18.95 F1200
M106 S0
G4 P20
G1 X9.2 Y18.95 F120
M106 S255
G4 P100
G0 X8.45 Y18.95 F1200
M106 S0
G4 P20
G1 X6.7 Y18.95 F120
M106 S255
G4 P100
G0 X6.0 Y18.95 F1200
M106 S0
G4 P20
G1 X5.5 Y18.95 F120
M106 S255
G4 P100
G0 X5.5 Y19.0 F1200
M106 S0
G4 P20
G1 X6.0 Y19.0 F120
M106 S255
G4 P100
G0 X6.7 Y19.0 F1200
M106 S0
G4 P20
G1 X8.45 Y19.0 F120
M106 S255
G4 P100
G0 X9.2 Y19.0 F1200
M106 S0
G4 P20
G1 X9.65 Y19.0 F120
M106 S255
G4 P100
G0 X11.1 Y19.0 F1200
M106 S0
G4 P20
G1 X11.55 Y19.0 F120
M106 S255
G4 P100
G0 X12.9 Y19.0 F1200
M106 S0
G4 P20
G1 X13.4 Y19.0 F120
M106 S255
G4 P100
G0 X14.2 Y19.0 F1200
M106 S0
G4 P20
G1 X19.65 Y19.0 F120
M106 S255
G4 P100
G0 X20.4 Y19.0 F1200
M106 S0
G4 P20
G1 X20.9 Y19.0 F120
M106 S255
G4 P100
G0 X20.9 Y19.05 F1200
M106 S0
G4 P20
G1 X20.4 Y19.05 F120
M106 S255
G4 P100
G0 X19.65 Y19.05 F1200
M106 S0
G4 P20
G1 X14.2 Y19.05 F120
M106 S255
G4 P100
G0 X13.4 Y19.05 F1200
M106 S0
G4 P20
G1 X12.9 Y19.05 F120
M106 S255
G4 P100
G0 X11.55 Y19.05 F1200
M106 S0
G4 P20
G1 X11.1 Y19.05 F120
M106 S255
G4 P100
G0 X9.65 Y19.05 F1200
M106 S0
G4 P20
G1 X9.2 Y19.05 F120
M106 S255
G4 P100
G0 X8.45 Y19.05 F1200
M106 S0
G4 P20
G1 X6.7 Y19.05 F120
M106 S255
G4 P100
G0 X6.0 Y19.05 F1200
M106 S0
G4 P20
G1 X5.5 Y19.05 F120
M106 S255
G4 P100
G0 X5.5 Y19.1 F1200
M106 S0
G4 P20
G1 X6.0 Y19.1 F120
M106 S255
G4 P100
G0 X9.2 Y19.1 F1200
M106 S0
G4 P20
G1 X9.65 Y19.1 F120
M106 S255
G4 P100
G0 X11.1 Y19.1 F1200
M106 S0
G4 P20
G1 X11.55 Y19.1 F120
M106 S255
G4 P100
G0 X12.9 Y19.1 F1200
M106 S0
G4 P20
G1 X13.4 Y19.1 F120
M106 S255
G4 P100
G0 X14.8 Y19.1 F1200
M106 S0
G4 P20
G1 X15.95 Y19.1 F120
M106 S255
G4 P100
G0 X17.85 Y19.1 F1200
M106 S0
G4 P20
G1 X19.05 Y19.1 F120
M106 S255
G4 P100
G0 X19.0 Y19.15 F1200
M106 S0
G4 P20
G1 X17.9 Y19.15 F120
M106 S255
G4 P100
G0 X15.9 Y19.15 F1200
M106 S0
G4 P20
G1 X14.8 Y19.15 F120
M106 S255
G4 P100
G0 X13.45 Y19.15 F1200
M106 S0
G4 P20
G1 X12.9 Y19.15 F120
M106 S255
G4 P100
G0 X11.55 Y19.15 F1200
M106 S0
G4 P20
G1 X11.1 Y19.15 F120
M106 S255
G4 P100
G0 X9.65 Y19.15 F1200
M106 S0
G4 P20
G1 X9.2 Y19.15 F120
M106 S255
G4 P100
G0 X6.0 Y19.15 F1200
M106 S0
G4 P20
G1 X5.5 Y19.15 F120
M106 S255
G4 P100
G0 X5.5 Y19.2 F1200
M106 S0
G4 P20
G1 X6.0 Y19.2 F120
M106 S255
G4 P100
G0 X9.2 Y19.2 F1200
M106 S0
G4 P20
G1 X9.65 Y19.2 F120
M106 S255
G4 P100
G0 X11.1 Y19.2 F1200
M106 S0
G4 P20
G1 X12.15 Y19.2 F120
M106 S255
G4 P100
G0 X12.9 Y19.2 F1200
M106 S0
G4 P20
G1 X14.05 Y19.2 F120
M106 S255
G4 P100
G0 X14.8 Y19.2 F1200
M106 S0
G4 P20
G1 X15.9 Y19.2 F120
M106 S255
G4 P100
G0 X17.9 Y19.2 F1200
M106 S0
G4 P20
G1 X19.0 Y19.2 F120
M106 S255
G4 P100
G0 X19.8 Y19.2 F1200
M106 S0
G4 P20
G1 X20.25 Y19.2 F120
M106 S255
G4 P100
G0 X20.25 Y19.25 F1200
M106 S0
G4 P20
G1 X19.8 Y19.25 F120
M106 S255
G4 P100
G0 X19.0 Y19.25 F1200
M106 S0
G4 P20
G1 X17.9 Y19.25 F120
M106 S255
G4 P100
G0 X15.9 Y19.25 F1200
M106 S0
G4 P20
G1 X14.8 Y19.25 F120
M106 S255
G4 P100
G0 X14.05 Y19.25 F1200
M106 S0
G4 P20
G1 X12.9 Y19.25 F120
M106 S255
G4 P100
G0 X12.15 Y19.25 F1200
M106 S0
G4 P20
G1 X11.1 Y19.25 F120
M106 S255
G4 P100
G0 X9.65 Y19.25 F1200
M106 S0
G4 P20
G1 X9.2 Y19.25 F120
M106 S255
G4 P100
G0 X6.0 Y19.25 F1200
M106 S0
G4 P20
G1 X5.5 Y19.25 F120
M106 S255
G4 P100
G0 X5.5 Y19.3 F1200
M106 S0
G4 P20
G1 X6.0 Y19.3 F120
M106 S255
G4 P100
G0 X9.2 Y19.3 F1200
M106 S0
G4 P20
G1 X9.65 Y19.3 F120
M106 S255
G4 P100
G0 X11.1 Y19.3 F1200
M106 S0
G4 P20
G1 X12.15 Y19.3 F120
M106 S255
G4 P100
G0 X12.9 Y19.3 F1200
M106 S0
G4 P20
G1 X14.05 Y19.3 F120
M106 S255
G4 P100
G0 X14.8 Y19.3 F1200
M106 S0
G4 P20
G1 X15.9 Y19.3 F120
M106 S255
G4 P100
G0 X17.9 Y19.3 F1200
M106 S0
G4 P20
G1 X19.0 Y19.3 F120
M106 S255
G4 P100
G0 X19.8 Y19.3 F1200
M106 S0
G4 P20
G1 X20.25 Y19.3 F120
M106 S255
G4 P100
G0 X20.25 Y19.35 F1200
M106 S0
G4 P20
G1 X19.8 Y19.35 F120
M106 S255
G4 P100
G0 X19.0 Y19.35 F1200
M106 S0
G4 P20
G1 X17.9 Y19.35 F120
M106 S255
G4 P100
G0 X15.9 Y19.35 F1200
M106 S0
G4 P20
G1 X14.8 Y19.35 F120
M106 S255
G4 P100
G0 X14.05 Y19.35 F1200
M106 S0
G4 P20
G1 X12.9 Y19.35 F120
M106 S255
G4 P100
G0 X12.15 Y19.35 F1200
M106 S0
G4 P20
G1 X11.1 Y19.35 F120
M106 S255
G4 P100
G0 X9.65 Y19.35 F1200
M106 S0
G4 P20
G1 X9.2 Y19.35 F120
M106 S255
G4 P100
G0 X6.0 Y19.35 F1200
M106 S0
G4 P20
G1 X5.5 Y19.35 F120
M106 S255
G4 P100
G0 X5.5 Y19.4 F1200
M106 S0
G4 P20
G1 X6.0 Y19.4 F120
M106 S255
G4 P100
G0 X9.2 Y19.4 F1200
M106 S0
G4 P20
G1 X9.65 Y19.4 F120
M106 S255
G4 P100
G0 X11.1 Y19.4 F1200
M106 S0
G4 P20
G1 X12.15 Y19.4 F120
M106 S255
G4 P100
G0 X12.9 Y19.4 F1200
M106 S0
G4 P20
G1 X14.05 Y19.4 F120
M106 S255
G4 P100
G0 X14.8 Y19.4 F1200
M106 S0
G4 P20
G1 X15.9 Y19.4 F120
M106 S255
G4 P100
G0 X17.9 Y19.4 F1200
M106 S0
G4 P20
G1 X19.0 Y19.4 F120
M106 S255
G4 P100
G0 X19.8 Y19.4 F1200
M106 S0
G4 P20
G1 X20.25 Y19.4 F120
M106 S255
G4 P100
G0 X20.25 Y19.45 F1200
M106 S0
G4 P20
G1 X19.8 Y19.45 F120
M106 S255
G4 P100
G0 X19.0 Y19.45 F1200
M106 S0
G4 P20
G1 X17.9 Y19.45 F120
M106 S255
G4 P100
G0 X15.9 Y19.45 F1200
M106 S0
G4 P20
G1 X14.8 Y19.45 F120
M106 S255
G4 P100
G0 X14.05 Y19.45 F1200
M106 S0
G4 P20
G1 X12.9 Y19.45 F120
M106 S255
G4 P100
G0 X12.15 Y19.45 F1200
M106 S0
G4 P20
G1 X11.1 Y19.45 F120
M106 S255
G4 P100
G0 X9.65 Y19.45 F1200
M106 S0
G4 P20
G1 X9.2 Y19.45 F120
M106 S255
G4 P100
G0 X6.0 Y19.45 F1200
M106 S0
G4 P20
G1 X5.5 Y19.45 F120
M106 S255
G4 P100
G0 X5.5 Y19.5 F1200
M106 S0
G4 P20
G1 X6.0 Y19.5 F120
M106 S255
G4 P100
G0 X9.2 Y19.5 F1200
M106 S0
G4 P20
G1 X9.65 Y19.5 F120
M106 S255
G4 P100
G0 X11.1 Y19.5 F1200
M106 S0
G4 P20
G1 X12.15 Y19.5 F120
M106 S255
G4 P100
G0 X12.9 Y19.5 F1200
M106 S0
G4 P20
G1 X14.05 Y19.5 F120
M106 S255
G4 P100
G0 X14.8 Y19.5 F1200
M106 S0
G4 P20
G1 X15.9 Y19.5 F120
M106 S255
G4 P100
G0 X17.9 Y19.5 F1200
M106 S0
G4 P20
G1 X19.0 Y19.5 F120
M106 S255
G4 P100
G0 X19.8 Y19.5 F1200
M106 S0
G4 P20
G1 X20.25 Y19.5 F120
M106 S255
G4 P100
G0 X20.25 Y19.55 F1200
M106 S0
G4 P20
G1 X19.8 Y19.55 F120
M106 S255
G4 P100
G0 X19.0 Y19.55 F1200
M106 S0
G4 P20
G1 X17.9 Y19.55 F120
M106 S255
G4 P100
G0 X15.9 Y19.55 F1200
M106 S0
G4 P20
G1 X14.8 Y19.55 F120
M106 S255
G4 P100
G0 X14.05 Y19.55 F1200
M106 S0
G4 P20
G1 X12.9 Y19.55 F120
M106 S255
G4 P100
G0 X12.15 Y19.55 F1200
M106 S0
G4 P20
G1 X11.1 Y19.55 F120
M106 S255
G4 P100
G0 X9.65 Y19.55 F1200
M106 S0
G4 P20
G1 X9.2 Y19.55 F120
M106 S255
G4 P100
G0 X6.0 Y19.55 F1200
M106 S0
G4 P20
G1 X5.5 Y19.55 F120
M106 S255
G4 P100
G0 X5.5 Y19.6 F1200
M106 S0
G4 P20
G1 X6.0 Y19.6 F120
M106 S255
G4 P100
G0 X9.2 Y19.6 F1200
M106 S0
G4 P20
G1 X9.65 Y19.6 F120
M106 S255
G4 P100
G0 X11.1 Y19.6 F1200
M106 S0
G4 P20
G1 X12.15 Y19.6 F120
M106 S255
G4 P100
G0 X12.9 Y19.6 F1200
M106 S0
G4 P20
G1 X14.05 Y19.6 F120
M106 S255
G4 P100
G0 X14.8 Y19.6 F1200
M106 S0
G4 P20
G1 X15.9 Y19.6 F120
M106 S255
G4 P100
G0 X17.9 Y19.6 F1200
M106 S0
G4 P20
G1 X19.0 Y19.6 F120
M106 S255
G4 P100
G0 X19.8 Y19.6 F1200
M106 S0
G4 P20
G1 X20.25 Y19.6 F120
M106 S255
G4 P100
G0 X20.25 Y19.65 F1200
M106 S0
G4 P20
G1 X19.8 Y19.65 F120
M106 S255
G4 P100
G0 X19.0 Y19.65 F1200
M106 S0
G4 P20
G1 X17.9 Y19.65 F120
M106 S255
G4 P100
G0 X15.9 Y19.65 F1200
M106 S0
G4 P20
G1 X14.8 Y19.65 F120
M106 S255
G4 P100
G0 X14.05 Y19.65 F1200
M106 S0
G4 P20
G1 X12.9 Y19.65 F120
M106 S255
G4 P100
G0 X12.15 Y19.65 F1200
M106 S0
G4 P20
G1 X11.1 Y19.65 F120
M106 S255
G4 P100
G0 X9.65 Y19.65 F1200
M106 S0
G4 P20
G1 X9.2 Y19.65 F120
M106 S255
G4 P100
G0 X6.0 Y19.65 F1200
M106 S0
G4 P20
G1 X5.5 Y19.65 F120
M106 S255
G4 P100
G0 X5.5 Y19.7 F1200
M106 S0
G4 P20
G1 X6.0 Y19.7 F120
M106 S255
G4 P100
G0 X9.2 Y19.7 F1200
M106 S0
G4 P20
G1 X9.65 Y19.7 F120
M106 S255
G4 P100
G0 X15.4 Y19.7 F1200
M106 S0
G4 P20
G1 X15.9 Y19.7 F120
M106 S255
G4 P100
G0 X17.9 Y19.7 F1200
M106 S0
G4 P20
G1 X19.0 Y19.7 F120
M106 S255
G4 P100
G0 X19.0 Y19.75 F1200
M106 S0
G4 P20
G1 X17.9 Y19.75 F120
M106 S255
G4 P100
G0 X15.9 Y19.75 F1200
M106 S0
G4 P20
G1 X15.4 Y19.75 F120
M106 S255
G4 P100
G0 X9.65 Y19.75 F1200
M106 S0
G4 P20
G1 X9.2 Y19.75 F120
M106 S255
G4 P100
G0 X6.0 Y19.75 F1200
M106 S0
G4 P20
G1 X5.5 Y19.75 F120
M106 S255
G4 P100
G0 X5.5 Y19.8 F1200
M106 S0
G4 P20
G1 X9.65 Y19.8 F120
M106 S255
G4 P100
G0 X12.3 Y19.8 F1200
M106 S0
G4 P20
G1 X12.75 Y19.8 F120
M106 S255
G4 P100
G0 X15.4 Y19.8 F1200
M106 S0
G4 P20
G1 X15.9 Y19.8 F120
M106 S255
G4 P100
G0 X16.7 Y19.8 F1200
M106 S0
G4 P20
G1 X17.15 Y19.8 F120
M106 S255
G4 P100
G0 X17.9 Y19.8 F1200
M106 S0
G4 P20
G1 X19.0 Y19.8 F120
M106 S255
G4 P100
G0 X20.4 Y19.8 F1200
M106 S0
G4 P20
G1 X20.9 Y19.8 F120
M106 S255
G4 P100
G0 X20.9 Y19.85 F1200
M106 S0
G4 P20
G1 X20.4 Y19.85 F120
M106 S255
G4 P100
G0 X19.0 Y19.85 F1200
M106 S0
G4 P20
G1 X17.9 Y19.85 F120
M106 S255
G4 P100
G0 X17.15 Y19.85 F1200
M106 S0
G4 P20
G1 X16.7 Y19.85 F120
M106 S255
G4 P100
G0 X15.9 Y19.85 F1200
M106 S0
G4 P20
G1 X15.4 Y19.85 F120
M106 S255
G4 P100
G0 X12.75 Y19.85 F1200
M106 S0
G4 P20
G1 X12.3 Y19.85 F120
M106 S255
G4 P100
G0 X9.65 Y19.85 F1200
M106 S0
G4 P20
G1 X5.5 Y19.85 F120
M106 S255
G4 P100
G0 X5.5 Y19.9 F1200
M106 S0
G4 P20
G1 X9.65 Y19.9 F120
M106 S255
G4 P100
G0 X12.3 Y19.9 F1200
M106 S0
G4 P20
G1 X12.75 Y19.9 F120
M106 S255
G4 P100
G0 X15.4 Y19.9 F1200
M106 S0
G4 P20
G1 X15.9 Y19.9 F120
M106 S255
G4 P100
G0 X16.7 Y19.9 F1200
M106 S0
G4 P20
G1 X17.15 Y19.9 F120
M106 S255
G4 P100
G0 X17.9 Y19.9 F1200
M106 S0
G4 P20
G1 X19.0 Y19.9 F120
M106 S255
G4 P100
G0 X20.4 Y19.9 F1200
M106 S0
G4 P20
G1 X20.9 Y19.9 F120
M106 S255
G4 P100
G0 X20.9 Y19.95 F1200
M106 S0
G4 P20
G1 X20.4 Y19.95 F120
M106 S255
G4 P100
G0 X19.0 Y19.95 F1200
M106 S0
G4 P20
G1 X17.9 Y19.95 F120
M106 S255
G4 P100
G0 X17.15 Y19.95 F1200
M106 S0
G4 P20
G1 X16.7 Y19.95 F120
M106 S255
G4 P100
G0 X15.9 Y19.95 F1200
M106 S0
G4 P20
G1 X15.4 Y19.95 F120
M106 S255
G4 P100
G0 X12.75 Y19.95 F1200
M106 S0
G4 P20
G1 X12.3 Y19.95 F120
M106 S255
G4 P100
G0 X9.65 Y19.95 F1200
M106 S0
G4 P20
G1 X5.5 Y19.95 F120
M106 S255
G4 P100
G0 X5.5 Y20.0 F1200
M106 S0
G4 P20
G1 X9.65 Y20.0 F120
M106 S255
G4 P100
G0 X12.3 Y20.0 F1200
M106 S0
G4 P20
G1 X12.75 Y20.0 F120
M106 S255
G4 P100
G0 X15.4 Y20.0 F1200
M106 S0
G4 P20
G1 X15.9 Y20.0 F120
M106 S255
G4 P100
G0 X16.7 Y20.0 F1200
M106 S0
G4 P20
G1 X17.15 Y20.0 F120
M106 S255
G4 P100
G0 X17.9 Y20.0 F1200
M106 S0
G4 P20
G1 X19.0 Y20.0 F120
M106 S255
G4 P100
G0 X20.4 Y20.0 F1200
M106 S0
G4 P20
G1 X20.9 Y20.0 F120
M106 S255
G4 P100
G0 X20.9 Y20.05 F1200
M106 S0
G4 P20
G1 X20.4 Y20.05 F120
M106 S255
G4 P100
G0 X19.0 Y20.05 F1200
M106 S0
G4 P20
G1 X17.9 Y20.05 F120
M106 S255
G4 P100
G0 X17.15 Y20.05 F1200
M106 S0
G4 P20
G1 X16.7 Y20.05 F120
M106 S255
G4 P100
G0 X15.9 Y20.05 F1200
M106 S0
G4 P20
G1 X15.4 Y20.05 F120
M106 S255
G4 P100
G0 X12.75 Y20.05 F1200
M106 S0
G4 P20
G1 X12.3 Y20.05 F120
M106 S255
G4 P100
G0 X9.65 Y20.05 F1200
M106 S0
G4 P20
G1 X5.5 Y20.05 F120
M106 S255
G4 P100
G0 X5.5 Y20.1 F1200
M106 S0
G4 P20
G1 X9.65 Y20.1 F120
M106 S255
G4 P100
G0 X12.3 Y20.1 F1200
M106 S0
G4 P20
G1 X12.75 Y20.1 F120
M106 S255
G4 P100
G0 X15.4 Y20.1 F1200
M106 S0
G4 P20
G1 X15.9 Y20.1 F120
M106 S255
G4 P100
G0 X16.7 Y20.1 F1200
M106 S0
G4 P20
G1 X17.15 Y20.1 F120
M106 S255
G4 P100
G0 X17.9 Y20.1 F1200
M106 S0
G4 P20
G1 X19.0 Y20.1 F120
M106 S255
G4 P100
G0 X20.4 Y20.1 F1200
M106 S0
G4 P20
G1 X20.9 Y20.1 F120
M106 S255
G4 P100
G0 X20.9 Y20.15 F1200
M106 S0
G4 P20
G1 X20.4 Y20.15 F120
M106 S255
G4 P100
G0 X19.0 Y20.15 F1200
M106 S0
G4 P20
G1 X17.9 Y20.15 F120
M106 S255
G4 P100
G0 X17.15 Y20.15 F1200
M106 S0
G4 P20
G1 X16.7 Y20.15 F120
M106 S255
G4 P100
G0 X15.9 Y20.15 F1200
M106 S0
G4 P20
G1 X15.4 Y20.15 F120
M106 S255
G4 P100
G0 X12.75 Y20.15 F1200
M106 S0
G4 P20
G1 X12.3 Y20.15 F120
M106 S255
G4 P100
G0 X9.65 Y20.15 F1200
M106 S0
G4 P20
G1 X5.5 Y20.15 F120
M106 S255
G4 P100
G0 X5.5 Y20.2 F1200
M106 S0
G4 P20
G1 X9.65 Y20.2 F120
M106 S255
G4 P100
G0 X12.3 Y20.2 F1200
M106 S0
G4 P20
G1 X12.75 Y20.2 F120
M106 S255
G4 P100
G0 X15.4 Y20.2 F1200
M106 S0
G4 P20
G1 X15.9 Y20.2 F120
M106 S255
G4 P100
G0 X16.7 Y20.2 F1200
M106 S0
G4 P20
G1 X17.15 Y20.2 F120
M106 S255
G4 P100
G0 X17.9 Y20.2 F1200
M106 S0
G4 P20
G1 X19.0 Y20.2 F120
M106 S255
G4 P100
G0 X20.4 Y20.2 F1200
M106 S0
G4 P20
G1 X20.9 Y20.2 F120
M106 S255
G4 P100
G0 X20.9 Y20.25 F1200
M106 S0
G4 P20
G1 X20.4 Y20.25 F120
M106 S255
G4 P100
G0 X19.0 Y20.25 F1200
M106 S0
G4 P20
G1 X17.9 Y20.25 F120
M106 S255
G4 P100
G0 X17.15 Y20.25 F1200
M106 S0
G4 P20
G1 X16.7 Y20.25 F120
M106 S255
G4 P100
G0 X15.9 Y20.25 F1200
M106 S0
G4 P20
G1 X15.4 Y20.25 F120
M106 S255
G4 P100
G0 X12.75 Y20.25 F1200
M106 S0
G4 P20
G1 X12.3 Y20.25 F120
M106 S255
G4 P100
G0 X9.65 Y20.25 F1200
M106 S0
G4 P20
G1 X5.5 Y20.25 F120
M106 S255
G4 P100
G0 X15.4 Y20.3 F1200
M106 S0
G4 P20
G1 X15.9 Y20.3 F120
M106 S255
G4 P100
G0 X17.9 Y20.3 F1200
M106 S0
G4 P20
G1 X18.45 Y20.3 F120
M106 S255
G4 P100
G0 X18.4 Y20.35 F1200
M106 S0
G4 P20
G1 X17.9 Y20.35 F120
M106 S255
G4 P100
G0 X15.9 Y20.35 F1200
M106 S0
G4 P20
G1 X15.4 Y20.35 F120
M106 S255
G4 P100
G0 X10.4 Y20.4 F1200
M106 S0
G4 P20
G1 X10.95 Y20.4 F120
M106 S255
G4 P100
G0 X12.9 Y20.4 F1200
M106 S0
G4 P20
G1 X14.65 Y20.4 F120
M106 S255
G4 P100
G0 X15.4 Y20.4 F1200
M106 S0
G4 P20
G1 X15.9 Y20.4 F120
M106 S255
G4 P100
G0 X17.9 Y20.4 F1200
M106 S0
G4 P20
G1 X18.4 Y20.4 F120
M106 S255
G4 P100
G0 X19.2 Y20.4 F1200
M106 S0
G4 P20
G1 X20.25 Y20.4 F120
M106 S255
G4 P100
G0 X20.25 Y20.45 F1200
M106 S0
G4 P20
G1 X19.2 Y20.45 F120
M106 S255
G4 P100
G0 X18.4 Y20.45 F1200
M106 S0
G4 P20
G1 X17.9 Y20.45 F120
M106 S255
G4 P100
G0 X15.9 Y20.45 F1200
M106 S0
G4 P20
G1 X15.4 Y20.45 F120
M106 S255
G4 P100
G0 X14.65 Y20.45 F1200
M106 S0
G4 P20
G1 X12.9 Y20.45 F120
M106 S255
G4 P100
G0 X10.95 Y20.45 F1200
M106 S0
G4 P20
G1 X10.4 Y20.45 F120
M106 S255
G4 P100
G0 X10.4 Y20.5 F1200
M106 S0
G4 P20
G1 X10.95 Y20.5 F120
M106 S255
G4 P100
G0 X12.9 Y20.5 F1200
M106 S0
G4 P20
G1 X14.65 Y20.5 F120
M106 S255
G4 P100
G0 X15.4 Y20.5 F1200
M106 S0
G4 P20
G1 X15.9 Y20.5 F120
M106 S255
G4 P100
G0 X17.9 Y20.5 F1200
M106 S0
G4 P20
G1 X18.4 Y20.5 F120
M106 S255
G4 P100
G0 X19.2 Y20.5 F1200
M106 S0
G4 P20
G1 X20.25 Y20.5 F120
M106 S255
G4 P100
G0 X20.25 Y20.55 F1200
M106 S0
G4 P20
G1 X19.2 Y20.55 F120
M106 S255
G4 P100
G0 X18.4 Y20.55 F1200
M106 S0
G4 P20
G1 X17.9 Y20.55 F120
M106 S255
G4 P100
G0 X15.9 Y20.55 F1200
M106 S0
G4 P20
G1 X15.4 Y20.55 F120
M106 S255
G4 P100
G0 X14.65 Y20.55 F1200
M106 S0
G4 P20
G1 X12.9 Y20.55 F120
M106 S255
G4 P100
G0 X10.95 Y20.55 F1200
M106 S0
G4 P20
G1 X10.4 Y20.55 F120
M106 S255
G4 P100
G0 X10.4 Y20.6 F1200
M106 S0
G4 P20
G1 X10.95 Y20.6 F120
M106 S255
G4 P100
G0 X12.9 Y20.6 F1200
M106 S0
G4 P20
G1 X14.65 Y20.6 F120
M106 S255
G4 P100
G0 X15.4 Y20.6 F1200
M106 S0
G4 P20
G1 X15.9 Y20.6 F120
M106 S255
G4 P100
G0 X17.9 Y20.6 F1200
M106 S0
G4 P20
G1 X18.4 Y20.6 F120
M106 S255
G4 P100
G0 X19.2 Y20.6 F1200
M106 S0
G4 P20
G1 X20.25 Y20.6 F120
M106 S255
G4 P100
G0 X20.25 Y20.65 F1200
M106 S0
G4 P20
G1 X19.2 Y20.65 F120
M106 S255
G4 P100
G0 X18.4 Y20.65 F1200
M106 S0
G4 P20
G1 X17.9 Y20.65 F120
M106 S255
G4 P100
G0 X15.9 Y20.65 F1200
M106 S0
G4 P20
G1 X15.4 Y20.65 F120
M106 S255
G4 P100
G0 X14.65 Y20.65 F1200
M106 S0
G4 P20
G1 X12.9 Y20.65 F120
M106 S255
G4 P100
G0 X10.95 Y20.65 F1200
M106 S0
G4 P20
G1 X10.4 Y20.65 F120
M106 S255
G4 P100
G0 X10.4 Y20.7 F1200
M106 S0
G4 P20
G1 X10.95 Y20.7 F120
M106 S255
G4 P100
G0 X12.9 Y20.7 F1200
M106 S0
G4 P20
G1 X14.65 Y20.7 F120
M106 S255
G4 P100
G0 X15.4 Y20.7 F1200
M106 S0
G4 P20
G1 X15.9 Y20.7 F120
M106 S255
G4 P100
G0 X17.9 Y20.7 F1200
M106 S0
G4 P20
G1 X18.4 Y20.7 F120
M106 S255
G4 P100
G0 X19.2 Y20.7 F1200
M106 S0
G4 P20
G1 X20.25 Y20.7 F120
M106 S255
G4 P100
G0 X20.25 Y20.75 F1200
M106 S0
G4 P20
G1 X19.2 Y20.75 F120
M106 S255
G4 P100
G0 X18.4 Y20.75 F1200
M106 S0
G4 P20
G1 X17.9 Y20.75 F120
M106 S255
G4 P100
G0 X15.9 Y20.75 F1200
M106 S0
G4 P20
G1 X15.4 Y20.75 F120
M106 S255
G4 P100
G0 X14.65 Y20.75 F1200
M106 S0
G4 P20
G1 X12.9 Y20.75 F120
M106 S255
G4 P100
G0 X10.95 Y20.75 F1200
M106 S0
G4 P20
G1 X10.4 Y20.75 F120
M106 S255
G4 P100
G0 X10.4 Y20.8 F1200
M106 S0
G4 P20
G1 X10.95 Y20.8 F120
M106 S255
G4 P100
G0 X12.9 Y20.8 F1200
M106 S0
G4 P20
G1 X14.65 Y20.8 F120
M106 S255
G4 P100
G0 X15.4 Y20.8 F1200
M106 S0
G4 P20
G1 X15.9 Y20.8 F120
M106 S255
G4 P100
G0 X17.9 Y20.8 F1200
M106 S0
G4 P20
G1 X18.4 Y20.8 F120
M106 S255
G4 P100
G0 X19.2 Y20.8 F1200
M106 S0
G4 P20
G1 X20.25 Y20.8 F120
M106 S255
G4 P100
G0 X20.25 Y20.85 F1200
M106 S0
G4 P20
G1 X19.2 Y20.85 F120
M106 S255
G4 P100
G0 X18.4 Y20.85 F1200
M106 S0
G4 P20
G1 X17.9 Y20.85 F120
M106 S255
G4 P100
G0 X15.9 Y20.85 F1200
M106 S0
G4 P20
G1 X15.4 Y20.85 F120
M106 S255
G4 P100
G0 X14.65 Y20.85 F1200
M106 S0
G4 P20
G1 X12.9 Y20.85 F120
M106 S255
G4 P100
G0 X10.95 Y20.85 F1200
M106 S0
G4 P20
G1 X10.4 Y20.85 F120
M106 S255
G4 P100
G0 X10.4 Y20.9 F1200
M106 S0
G4 P20
G1 X10.95 Y20.9 F120
M106 S255
G4 P100
G0 X15.4 Y20.9 F1200
M106 S0
G4 P20
G1 X15.9 Y20.9 F120
M106 S255
G4 P100
G0 X17.9 Y20.9 F1200
M106 S0
G4 P20
G1 X18.4 Y20.9 F120
M106 S255
G4 P100
G0 X19.2 Y20.9 F1200
M106 S0
G4 P20
G1 X20.25 Y20.9 F120
M106 S255
G4 P100
G0 X20.25 Y20.95 F1200
M106 S0
G4 P20
G1 X19.2 Y20.95 F120
M106 S255
G4 P100
G0 X18.4 Y20.95 F1200
M106 S0
G4 P20
G1 X17.9 Y20.95 F120
M106 S255
G4 P100
G0 X15.9 Y20.95 F1200
M106 S0
G4 P20
G1 X15.4 Y20.95 F120
M106 S255
G4 P100
G0 X10.95 Y20.95 F1200
M106 S0
G4 P20
G1 X10.4 Y20.95 F120
M106 S255
G4 P100
G0 X5.5 Y21.0 F1200
M106 S0
G4 P20
G1 X6.0 Y21.0 F120
M106 S255
G4 P100
G0 X6.7 Y21.0 F1200
M106 S0
G4 P20
G1 X7.8 Y21.0 F120
M106 S255
G4 P100
G0 X8.6 Y21.0 F1200
M106 S0
G4 P20
G1 X9.65 Y21.0 F120
M106 S255
G4 P100
G0 X10.4 Y21.0 F1200
M106 S0
G4 P20
G1 X12.75 Y21.0 F120
M106 S255
G4 P100
G0 X14.8 Y21.0 F1200
M106 S0
G4 P20
G1 X18.4 Y21.0 F120
M106 S255
G4 P100
G0 X19.2 Y21.0 F1200
M106 S0
G4 P20
G1 X20.9 Y21.0 F120
M106 S255
G4 P100
G0 X20.9 Y21.05 F1200
M106 S0
G4 P20
G1 X19.2 Y21.05 F120
M106 S255
G4 P100
G0 X18.4 Y21.05 F1200
M106 S0
G4 P20
G1 X14.8 Y21.05 F120
M106 S255
G4 P100
G0 X12.75 Y21.05 F1200
M106 S0
G4 P20
G1 X10.4 Y21.05 F120
M106 S255
G4 P100
G0 X9.65 Y21.05 F1200
M106 S0
G4 P20
G1 X8.6 Y21.05 F120
M106 S255
G4 P100
G0 X7.8 Y21.05 F1200
M106 S0
G4 P20
G1 X6.7 Y21.05 F120
M106 S255
G4 P100
G0 X6.0 Y21.05 F1200
M106 S0
G4 P20
G1 X5.5 Y21.05 F120
M106 S255
G4 P100
G0 X5.5 Y21.1 F1200
M106 S0
G4 P20
G1 X6.0 Y21.1 F120
M106 S255
G4 P100
G0 X6.7 Y21.1 F1200
M106 S0
G4 P20
G1 X7.8 Y21.1 F120
M106 S255
G4 P100
G0 X8.6 Y21.1 F1200
M106 S0
G4 P20
G1 X9.65 Y21.1 F120
M106 S255
G4 P100
G0 X10.4 Y21.1 F1200
M106 S0
G4 P20
G1 X12.75 Y21.1 F120
M106 S255
G4 P100
G0 X14.8 Y21.1 F1200
M106 S0
G4 P20
G1 X18.4 Y21.1 F120
M106 S255
G4 P100
G0 X19.2 Y21.1 F1200
M106 S0
G4 P20
G1 X20.9 Y21.1 F120
M106 S255
G4 P100
G0 X20.9 Y21.15 F1200
M106 S0
G4 P20
G1 X19.2 Y21.15 F120
M106 S255
G4 P100
G0 X18.4 Y21.15 F1200
M106 S0
G4 P20
G1 X14.8 Y21.15 F120
M106 S255
G4 P100
G0 X12.75 Y21.15 F1200
M106 S0
G4 P20
G1 X10.4 Y21.15 F120
M106 S255
G4 P100
G0 X9.65 Y21.15 F1200
M106 S0
G4 P20
G1 X8.6 Y21.15 F120
M106 S255
G4 P100
G0 X7.8 Y21.15 F1200
M106 S0
G4 P20
G1 X6.7 Y21.15 F120
M106 S255
G4 P100
G0 X6.0 Y21.15 F1200
M106 S0
G4 P20
G1 X5.5 Y21.15 F120
M106 S255
G4 P100
G0 X5.5 Y21.2 F1200
M106 S0
G4 P20
G1 X6.0 Y21.2 F120
M106 S255
G4 P100
G0 X6.7 Y21.2 F1200
M106 S0
G4 P20
G1 X7.8 Y21.2 F120
M106 S255
G4 P100
G0 X8.6 Y21.2 F1200
M106 S0
G4 P20
G1 X9.65 Y21.2 F120
M106 S255
G4 P100
G0 X10.4 Y21.2 F1200
M106 S0
G4 P20
G1 X12.75 Y21.2 F120
M106 S255
G4 P100
G0 X14.8 Y21.2 F1200
M106 S0
G4 P20
G1 X18.4 Y21.2 F120
M106 S255
G4 P100
G0 X19.2 Y21.2 F1200
M106 S0
G4 P20
G1 X20.9 Y21.2 F120
M106 S255
G4 P100
G0 X20.9 Y21.25 F1200
M106 S0
G4 P20
G1 X19.2 Y21.25 F120
M106 S255
G4 P100
G0 X18.4 Y21.25 F1200
M106 S0
G4 P20
G1 X14.8 Y21.25 F120
