; G-Code generated by Simplify3D(R) Version 4.1.2
; Jul 13, 2021 at 3:13:41 PM
; Settings Summary
;   processName,Process1
;   applyToModels,BLtouch_Bracket
;   profileName,ZONESTAR Single Extruder 3D Printer(300x300x400) (modified)
;   profileVersion,2021-06-19 11:03:37
;   baseProfile,Default (modified)
;   printMaterial,PLA
;   printQuality,Medium
;   printExtruders,
;   extruderName,Primary Extruder
;   extruderToolheadNumber,0
;   extruderDiameter,0.4
;   extruderAutoWidth,0
;   extruderWidth,0.4
;   extrusionMultiplier,1
;   extruderUseRetract,1
;   extruderRetractionDistance,8
;   extruderExtraRestartDistance,0.02
;   extruderRetractionZLift,0
;   extruderRetractionSpeed,1800
;   extruderUseCoasting,0
;   extruderCoastingDistance,0.2
;   extruderUseWipe,1
;   extruderWipeDistance,1.5
;   primaryExtruder,0
;   layerHeight,0.2
;   topSolidLayers,2
;   bottomSolidLayers,2
;   perimeterOutlines,2
;   printPerimetersInsideOut,0
;   startPointOption,3
;   startPointOriginX,0
;   startPointOriginY,150
;   sequentialIslands,0
;   spiralVaseMode,0
;   firstLayerHeightPercentage,150
;   firstLayerWidthPercentage,100
;   firstLayerUnderspeed,0.5
;   useRaft,1
;   raftExtruder,0
;   raftTopLayers,3
;   raftBaseLayers,2
;   raftOffset,3
;   raftSeparationDistance,0
;   raftTopInfill,100
;   aboveRaftSpeedMultiplier,0.3
;   useSkirt,0
;   skirtExtruder,0
;   skirtLayers,1
;   skirtOutlines,10
;   skirtOffset,0
;   usePrimePillar,0
;   primePillarExtruder,999
;   primePillarWidth,12
;   primePillarLocation,7
;   primePillarSpeedMultiplier,1
;   useOozeShield,0
;   oozeShieldExtruder,999
;   oozeShieldOffset,2
;   oozeShieldOutlines,1
;   oozeShieldSidewallShape,1
;   oozeShieldSidewallAngle,30
;   oozeShieldSpeedMultiplier,1
;   infillExtruder,0
;   internalInfillPattern,Rectilinear
;   externalInfillPattern,Concentric
;   infillPercentage,50
;   outlineOverlapPercentage,15
;   infillExtrusionWidthPercentage,90
;   minInfillLength,5
;   infillLayerInterval,1
;   internalInfillAngles,45,-45
;   overlapInternalInfillAngles,0
;   externalInfillAngles,45,-45
;   generateSupport,0
;   supportExtruder,0
;   supportInfillPercentage,20
;   supportExtraInflation,0
;   supportBaseLayers,0
;   denseSupportExtruder,0
;   denseSupportLayers,0
;   denseSupportInfillPercentage,70
;   supportLayerInterval,1
;   supportHorizontalPartOffset,0.3
;   supportUpperSeparationLayers,1
;   supportLowerSeparationLayers,1
;   supportType,1
;   supportGridSpacing,4
;   maxOverhangAngle,60
;   supportAngles,0
;   temperatureName,Primary Extruder,bed
;   temperatureNumber,0,0
;   temperatureSetpointCount,1,1
;   temperatureSetpointLayers,1,1
;   temperatureSetpointTemperatures,195,60
;   temperatureStabilizeAtStartup,1,1
;   temperatureHeatedBed,0,1
;   fanLayers,1,3
;   fanSpeeds,0,100
;   blipFanToFullPower,0
;   adjustSpeedForCooling,1
;   minSpeedLayerTime,30
;   minCoolingSpeedSlowdown,50
;   increaseFanForCooling,0
;   minFanLayerTime,45
;   maxCoolingFanSpeed,100
;   increaseFanForBridging,0
;   bridgingFanSpeed,100
;   use5D,1
;   relativeEdistances,0
;   allowEaxisZeroing,1
;   independentExtruderAxes,0
;   includeM10123,0
;   stickySupport,1
;   applyToolheadOffsets,0
;   gcodeXoffset,0
;   gcodeYoffset,0
;   gcodeZoffset,0
;   overrideMachineDefinition,1
;   machineTypeOverride,0
;   strokeXoverride,310
;   strokeYoverride,310
;   strokeZoverride,400
;   originOffsetXoverride,0
;   originOffsetYoverride,0
;   originOffsetZoverride,0
;   homeXdirOverride,-1
;   homeYdirOverride,-1
;   homeZdirOverride,-1
;   flipXoverride,1
;   flipYoverride,-1
;   flipZoverride,1
;   toolheadOffsets,0,0|0,0|0,0|0,0|0,0|0,0
;   overrideFirmwareConfiguration,0
;   firmwareTypeOverride,RepRap (Marlin/Repetier/Sprinter)
;   GPXconfigOverride,r2
;   baudRateOverride,115200
;   overridePrinterModels,0
;   printerModelsOverride
;   startingGcode,G28 ; home all axes,G1 Z5 F3000 ; lift,G1 X5 Y10 F1500 ; move to prime,G1 Z0.2 F3000 ; get ready to prime,G92 E0 ; reset extrusion distance,G1 Y80 E10 F600 ; prime nozzle,G1 Y100 F5000 ; quick wipe,,
;   layerChangeGcode,
;   retractionGcode,
;   toolChangeGcode,
;   endingGcode,G28 YX,M106 S0 ; turn off FAN,M104 S0 ; turn off extruder,M140 S0 ; turn off bed,M84 ; disable motors
;   exportFileFormat,gcode
;   celebration,0
;   celebrationSong,Random Song
;   postProcessing,
;   defaultSpeed,2400
;   outlineUnderspeed,0.6
;   solidInfillUnderspeed,0.6
;   supportUnderspeed,0.8
;   rapidXYspeed,4200
;   rapidZspeed,480
;   minBridgingArea,50
;   bridgingExtraInflation,0
;   bridgingExtrusionMultiplier,1
;   bridgingSpeedMultiplier,1
;   useFixedBridgingAngle,0
;   fixedBridgingAngle,0
;   applyBridgingToPerimeters,0
;   filamentDiameters,1.75|1.75|1.75|1.75|1.75|1.75
;   filamentPricesPerKg,46|46|46|46|46|46
;   filamentDensities,1.25|1.25|1.25|1.25|1.25|1.25
;   useMinPrintHeight,0
;   minPrintHeight,0
;   useMaxPrintHeight,0
;   maxPrintHeight,129.81
;   useDiaphragm,0
;   diaphragmLayerInterval,20
;   robustSlicing,1
;   mergeAllIntoSolid,0
;   onlyRetractWhenCrossingOutline,0
;   retractBetweenLayers,0
;   useRetractionMinTravel,0
;   retractionMinTravel,3
;   retractWhileWiping,0
;   onlyWipeOutlines,0
;   avoidCrossingOutline,0
;   maxMovementDetourFactor,3
;   toolChangeRetractionDistance,8
;   toolChangeExtraRestartDistance,-0.2
;   toolChangeRetractionSpeed,1800
;   externalThinWallType,0
;   internalThinWallType,2
;   thinWallAllowedOverlapPercentage,10
;   singleExtrusionMinLength,1
;   singleExtrusionMinPrintingWidthPercentage,50
;   singleExtrusionMaxPrintingWidthPercentage,200
;   singleExtrusionEndpointExtension,0.2
;   horizontalSizeCompensation,0
G90
M82
M106 S0
M140 S60
M190 S60
M104 S195 T0
M109 S195 T0
G28 ; home all axes
G1 Z5 F3000 ; lift
G1 X5 Y10 F1500 ; move to prime
G1 Z0.2 F3000 ; get ready to prime
G92 E0 ; reset extrusion distance
G1 Y80 E10 F600 ; prime nozzle
G1 Y100 F5000 ; quick wipe
; process Process1
; layer 1, Z = 0.750
T0
G92 E0.0000
G1 E-8.0000 F1800
; feature raft
; tool H0.750 W0.800
G1 Z0.750 F480
G1 X139.400 Y148.800 F4200
G1 E0.0200 F1800
G92 E0.0000
G1 X140.923 Y147.277 E0.5373 F300
G1 X169.077 Y147.277 E7.5603
G1 X170.600 Y148.800 E8.0976
G1 X170.600 Y159.568 E10.7838
G1 X170.593 Y159.704 E10.8178
G1 X170.531 Y160.289 E10.9646
G1 X170.494 Y160.490 E11.0156
G1 X170.396 Y160.857 E11.1103
G1 X170.354 Y160.986 E11.1441
G1 X170.218 Y161.340 E11.2386
G1 X170.130 Y161.524 E11.2897
G1 X169.819 Y162.064 E11.4450
G1 X169.703 Y162.232 E11.4960
G1 X169.442 Y162.554 E11.5994
G1 X169.302 Y162.702 E11.6503
G1 X168.814 Y163.142 E11.8141
G1 X168.593 Y163.302 E11.8820
G1 X168.024 Y163.630 E12.0459
G1 X167.840 Y163.718 E12.0969
G1 X167.486 Y163.854 E12.1914
G1 X167.357 Y163.896 E12.2252
G1 X166.991 Y163.994 E12.3199
G1 X166.789 Y164.031 E12.3709
G1 X166.204 Y164.093 E12.5177
G1 X166.068 Y164.100 E12.5517
G1 X162.932 Y164.100 E13.3340
G1 X162.796 Y164.093 E13.3680
G1 X162.177 Y164.028 E13.5232
G1 X161.911 Y163.971 E13.5912
G1 X161.254 Y163.758 E13.7634
G1 X161.005 Y163.647 E13.8314
G1 X160.407 Y163.302 E14.0036
G1 X160.186 Y163.142 E14.0716
G1 X159.698 Y162.702 E14.2354
G1 X159.558 Y162.554 E14.2864
G1 X159.297 Y162.232 E14.3897
G1 X159.181 Y162.064 E14.4407
G1 X158.853 Y161.495 E14.6045
G1 X158.742 Y161.246 E14.6725
G1 X158.529 Y160.589 E14.8448
G1 X158.472 Y160.323 E14.9127
G1 X158.407 Y159.705 E15.0677
G1 X158.400 Y159.572 E15.1010
G1 X158.390 Y154.110 E16.4634
G1 X151.599 Y154.101 E18.1575
G1 X151.589 Y159.816 E19.5831
G1 X151.573 Y160.017 E19.6335
G1 X151.508 Y160.423 E19.7361
G1 X151.461 Y160.622 E19.7870
G1 X151.258 Y161.246 E19.9508
G1 X151.147 Y161.495 E20.0188
G1 X150.802 Y162.093 E20.1911
G1 X150.642 Y162.314 E20.2590
G1 X150.202 Y162.802 E20.4228
G1 X150.054 Y162.942 E20.4737
G1 X149.732 Y163.203 E20.5771
G1 X149.564 Y163.319 E20.6281
G1 X148.995 Y163.647 E20.7919
G1 X148.746 Y163.758 E20.8599
G1 X148.122 Y163.961 E21.0236
G1 X147.923 Y164.008 E21.0745
G1 X147.518 Y164.072 E21.1769
G1 X147.319 Y164.089 E21.2267
G1 X143.939 Y164.100 E22.0699
G1 X143.798 Y164.093 E22.1050
G1 X143.177 Y164.028 E22.2608
G1 X142.911 Y163.971 E22.3288
G1 X142.254 Y163.758 E22.5010
G1 X142.005 Y163.647 E22.5690
G1 X141.407 Y163.302 E22.7412
G1 X141.186 Y163.142 E22.8092
G1 X140.698 Y162.702 E22.9730
G1 X140.558 Y162.554 E23.0240
G1 X140.297 Y162.232 E23.1273
G1 X140.181 Y162.064 E23.1783
G1 X139.870 Y161.525 E23.3336
G1 X139.782 Y161.340 E23.3847
G1 X139.646 Y160.986 E23.4792
G1 X139.604 Y160.857 E23.5130
G1 X139.506 Y160.490 E23.6077
G1 X139.469 Y160.289 E23.6588
G1 X139.407 Y159.704 E23.8056
G1 X139.400 Y159.568 E23.8395
G1 X139.400 Y148.800 E26.5257
G92 E0.0000
G1 E-8.0000 F1800
G1 X140.461 Y147.739 F300
G1 X141.018 Y148.143 F4200
G1 E0.0200 F1800
G92 E0.0000
G1 X168.982 Y148.143 E6.9754 F300
G1 X169.920 Y149.081 E7.3065
G1 X169.920 Y150.429 E7.6426
G1 X140.080 Y150.429 E15.0862
G1 X140.080 Y152.714 E15.6564
G1 X169.920 Y152.714 E23.1000
G1 X169.920 Y155.000 E23.6701
G1 X159.072 Y155.000 E26.3762
G1 X159.069 Y153.431 E26.7676
G1 X150.920 Y153.420 E28.8004
G1 X150.917 Y155.000 E29.1946
G1 X140.080 Y155.000 E31.8979
G1 X140.080 Y157.286 E32.4681
G1 X150.913 Y157.286 E35.1705
G1 X150.909 Y159.571 E35.7406
G1 X140.081 Y159.571 E38.4417
G1 X140.085 Y159.651 E38.4615
G1 X140.142 Y160.192 E38.5972
G1 X140.170 Y160.340 E38.6349
G1 X140.256 Y160.664 E38.7184
G1 X140.287 Y160.759 E38.7434
G1 X140.407 Y161.071 E38.8269
G1 X140.472 Y161.208 E38.8646
G1 X140.757 Y161.701 E39.0066
G1 X140.842 Y161.825 E39.0442
G1 X140.868 Y161.857 E39.0545
G1 X150.133 Y161.857 E41.3655
G92 E0.0000
G1 E-8.0000 F1800
G1 X148.633 Y161.857 F300
G1 X159.076 Y157.286 F4200
G1 E0.0200 F1800
G92 E0.0000
G1 X169.920 Y157.286 E2.7050 F300
G1 X169.920 Y159.550 E3.2699
G1 X169.919 Y159.571 E3.2752
G1 X159.081 Y159.571 E5.9787
G1 X159.085 Y159.651 E5.9987
G1 X159.145 Y160.216 E6.1404
G1 X159.187 Y160.413 E6.1906
G1 X159.378 Y161.002 E6.3451
G1 X159.460 Y161.186 E6.3953
G1 X159.757 Y161.701 E6.5435
G1 X159.842 Y161.825 E6.5812
G1 X159.868 Y161.857 E6.5915
G1 X169.132 Y161.857 E8.9022
G92 E0.0000
G1 E-8.0000 F1800
G1 X167.632 Y161.857 F300
; layer 2, Z = 1.250
; tool H0.500 W0.800
G1 Z1.250 F480
G1 X139.400 Y148.800 F4200
G1 E0.0200 F1800
G92 E0.0000
G1 X140.923 Y147.277 E0.3582 F600
G1 X169.077 Y147.277 E5.0402
G1 X170.600 Y148.800 E5.3984
G1 X170.600 Y159.568 E7.1892
G1 X170.593 Y159.704 E7.2118
G1 X170.531 Y160.289 E7.3097
G1 X170.494 Y160.490 E7.3437
G1 X170.396 Y160.857 E7.4069
G1 X170.354 Y160.986 E7.4294
G1 X170.218 Y161.340 E7.4924
G1 X170.130 Y161.524 E7.5264
G1 X169.819 Y162.064 E7.6300
G1 X169.703 Y162.232 E7.6640
G1 X169.442 Y162.554 E7.7329
G1 X169.302 Y162.702 E7.7669
G1 X168.814 Y163.142 E7.8760
G1 X168.593 Y163.302 E7.9214
G1 X168.024 Y163.630 E8.0306
G1 X167.840 Y163.718 E8.0646
G1 X167.486 Y163.854 E8.1276
G1 X167.357 Y163.896 E8.1501
G1 X166.991 Y163.994 E8.2133
G1 X166.789 Y164.031 E8.2473
G1 X166.204 Y164.093 E8.3452
G1 X166.068 Y164.100 E8.3678
G1 X162.932 Y164.100 E8.8894
G1 X162.796 Y164.093 E8.9120
G1 X162.177 Y164.028 E9.0155
G1 X161.911 Y163.971 E9.0608
G1 X161.254 Y163.758 E9.1756
G1 X161.005 Y163.647 E9.2209
G1 X160.407 Y163.302 E9.3358
G1 X160.186 Y163.142 E9.3811
G1 X159.698 Y162.702 E9.4903
G1 X159.558 Y162.554 E9.5243
G1 X159.297 Y162.232 E9.5931
G1 X159.181 Y162.064 E9.6271
G1 X158.853 Y161.495 E9.7363
G1 X158.742 Y161.246 E9.7817
G1 X158.529 Y160.589 E9.8965
G1 X158.472 Y160.323 E9.9418
G1 X158.407 Y159.705 E10.0451
G1 X158.400 Y159.572 E10.0673
G1 X158.390 Y154.110 E10.9756
G1 X151.599 Y154.101 E12.1050
G1 X151.589 Y159.816 E13.0554
G1 X151.573 Y160.017 E13.0890
G1 X151.508 Y160.423 E13.1574
G1 X151.461 Y160.622 E13.1914
G1 X151.258 Y161.246 E13.3005
G1 X151.147 Y161.495 E13.3458
G1 X150.802 Y162.093 E13.4607
G1 X150.642 Y162.314 E13.5060
G1 X150.202 Y162.802 E13.6152
G1 X150.054 Y162.942 E13.6491
G1 X149.732 Y163.203 E13.7180
G1 X149.564 Y163.319 E13.7521
G1 X148.995 Y163.647 E13.8613
G1 X148.746 Y163.758 E13.9066
G1 X148.122 Y163.961 E14.0157
G1 X147.923 Y164.008 E14.0497
G1 X147.518 Y164.072 E14.1179
G1 X147.319 Y164.089 E14.1511
G1 X143.939 Y164.100 E14.7133
G1 X143.798 Y164.093 E14.7367
G1 X143.177 Y164.028 E14.8406
G1 X142.911 Y163.971 E14.8859
G1 X142.254 Y163.758 E15.0007
G1 X142.005 Y163.647 E15.0460
G1 X141.407 Y163.302 E15.1608
G1 X141.186 Y163.142 E15.2062
G1 X140.698 Y162.702 E15.3154
G1 X140.558 Y162.554 E15.3493
G1 X140.297 Y162.232 E15.4182
G1 X140.181 Y162.064 E15.4522
G1 X139.870 Y161.525 E15.5557
G1 X139.782 Y161.340 E15.5898
G1 X139.646 Y160.986 E15.6528
G1 X139.604 Y160.857 E15.6753
G1 X139.506 Y160.490 E15.7385
G1 X139.469 Y160.289 E15.7725
G1 X139.407 Y159.704 E15.8704
G1 X139.400 Y159.568 E15.8930
G1 X139.400 Y148.800 E17.6838
G92 E0.0000
G1 E-8.0000 F1800
G1 X140.461 Y147.739 F600
G1 X141.018 Y148.143 F4200
G1 E0.0200 F1800
G92 E0.0000
G1 X168.982 Y148.143 E4.6503 F600
G1 X169.920 Y149.081 E4.8710
G1 X169.920 Y150.429 E5.0950
G1 X140.080 Y150.429 E10.0575
G1 X140.080 Y152.714 E10.4376
G1 X169.920 Y152.714 E15.4000
G1 X169.920 Y155.000 E15.7801
G1 X159.072 Y155.000 E17.5841
G1 X159.069 Y153.431 E17.8451
G1 X150.920 Y153.420 E19.2003
G1 X150.917 Y155.000 E19.4630
G1 X140.080 Y155.000 E21.2653
G1 X140.080 Y157.286 E21.6454
G1 X150.913 Y157.286 E23.4470
G1 X150.909 Y159.571 E23.8271
G1 X140.081 Y159.571 E25.6278
G1 X140.085 Y159.651 E25.6410
G1 X140.142 Y160.192 E25.7315
G1 X140.170 Y160.340 E25.7566
G1 X140.256 Y160.664 E25.8123
G1 X140.287 Y160.759 E25.8290
G1 X140.407 Y161.071 E25.8846
G1 X140.472 Y161.208 E25.9097
G1 X140.757 Y161.701 E26.0044
G1 X140.842 Y161.825 E26.0295
G1 X140.868 Y161.857 E26.0363
G1 X150.133 Y161.857 E27.5770
G92 E0.0000
G1 E-8.0000 F1800
G1 X148.633 Y161.857 F600
G1 X159.076 Y157.286 F4200
G1 E0.0200 F1800
G92 E0.0000
G1 X169.920 Y157.286 E1.8034 F600
G1 X169.920 Y159.550 E2.1800
G1 X169.919 Y159.571 E2.1835
G1 X159.081 Y159.571 E3.9858
G1 X159.085 Y159.651 E3.9991
G1 X159.145 Y160.216 E4.0936
G1 X159.187 Y160.413 E4.1271
G1 X159.378 Y161.002 E4.2300
G1 X159.460 Y161.186 E4.2635
G1 X159.757 Y161.701 E4.3624
G1 X159.842 Y161.825 E4.3874
G1 X159.868 Y161.857 E4.3943
G1 X169.132 Y161.857 E5.9348
G92 E0.0000
G1 E-8.0000 F1800
G1 X167.632 Y161.857 F600
; layer 3, Z = 1.472
M106 S255
; tool H0.222 W0.400
G1 Z1.472 F480
G1 X152.869 Y154.303 F4200
G1 E0.0200 F1800
G92 E0.0000
G1 X160.095 Y147.077 E0.3776 F1800
G1 X160.661 Y147.077 E0.3986
G1 X153.434 Y154.303 E0.7762
G1 X153.999 Y154.304 E0.7971
G1 X161.226 Y147.077 E1.1749
G1 X161.792 Y147.077 E1.1958
G1 X154.564 Y154.305 E1.5735
G1 X155.129 Y154.306 E1.5944
G1 X162.358 Y147.077 E1.9722
G1 X162.923 Y147.077 E1.9931
G1 X155.694 Y154.306 E2.3710
G1 X156.259 Y154.307 E2.3918
G1 X163.489 Y147.077 E2.7697
G1 X164.055 Y147.077 E2.7906
G1 X156.824 Y154.308 E3.1686
G1 X157.388 Y154.309 E3.1894
G1 X164.620 Y147.077 E3.5674
G1 X165.186 Y147.077 E3.5883
G1 X157.953 Y154.309 E3.9663
G1 X158.191 Y154.310 E3.9751
G1 X158.191 Y154.637 E3.9872
G1 X165.752 Y147.077 E4.3823
G1 X166.318 Y147.077 E4.4032
G1 X158.192 Y155.202 E4.8279
G1 X158.193 Y155.767 E4.8488
G1 X166.883 Y147.077 E5.3029
G1 X167.449 Y147.077 E5.3238
G1 X158.194 Y156.331 E5.8075
G1 X158.195 Y156.896 E5.8284
G1 X168.015 Y147.077 E6.3416
G1 X168.580 Y147.077 E6.3625
G1 X158.196 Y157.461 E6.9052
G1 X158.197 Y158.025 E6.9260
G1 X169.146 Y147.077 E7.4982
G1 X169.160 Y147.077 E7.4987
G1 X169.436 Y147.353 E7.5132
G1 X158.198 Y158.590 E8.1005
G1 X158.199 Y159.155 E8.1213
G1 X169.719 Y147.635 E8.7234
G1 X170.001 Y147.918 E8.7381
G1 X158.207 Y159.712 E9.3545
G1 X158.208 Y159.721 E9.3549
G1 X158.261 Y160.225 E9.3736
G1 X170.284 Y148.201 E10.0020
G1 X170.567 Y148.484 E10.0167
G1 X158.354 Y160.697 E10.6551
G1 X158.492 Y161.124 E10.6717
G1 X170.800 Y148.817 E11.3149
G1 X170.800 Y149.382 E11.3358
G1 X158.650 Y161.532 E11.9708
G1 X158.674 Y161.586 E11.9730
G1 X158.853 Y161.895 E11.9862
G1 X170.800 Y149.948 E12.6106
G1 X170.800 Y150.514 E12.6315
G1 X159.065 Y162.248 E13.2447
G1 X159.137 Y162.352 E13.2494
G1 X159.312 Y162.568 E13.2597
G1 X170.800 Y151.079 E13.8601
