;FLAVOR:Marlin
;TIME:1520
;Filament used: 0.479387m, 0m, 0m, 0m
;Layer height: 0.2
;MINX:100
;MINY:141.216
;MINZ:0.3
;MAXX:172.423
;MAXY:158.784
;MAXZ:42.1
;Generated with Cura_SteamEngine 4.12.1
T0
M140 S70
M105
M190 S70
M104 S195
M105
M109 S195
M82 ;absolute extrusion mode
G28
G1 Z15 F300
M107
;Prime the extruder
;T4
G92 E0
G1 F200 E3
G92 E0
G1 X5 Y10 F1500 ; move to prime
G1 Z0.2 F3000 ; get ready to prime
G92 E0 ; reset extrusion distance
G1 Y250 E15 F600 ; prime nozzle
G1 Y100 F5000 ; quick wipe
;Start auto retraction
M207 S10 F2400 
M208 S0 F2400 
M209 S1
G92 E0
;start gcode of Extruder 1 
M163 S0 P100
M163 S1 P0
M163 S2 P0
M163 S3 P0
G92 E0
G1 F1800 E-8
;LAYER_COUNT:210
;LAYER:0
M107
G0 F3000 X129.413 Y142.345 Z0.3
;TYPE:SKIRT
G1 F1800 E0.02079
G1 F1200 X129.927 Y141.976 E0.05235
G1 X130.483 Y141.676 E0.08387
G1 X131.072 Y141.448 E0.11538
G1 X131.686 Y141.296 E0.14694
G1 X132.577 Y141.216 E0.19157
G1 X167.423 Y141.216 E1.93005
G1 X168.054 Y141.256 E1.96159
G1 X168.675 Y141.375 E1.99314
G1 X169.275 Y141.572 E2.02464
G1 X169.847 Y141.843 E2.05622
G1 X170.379 Y142.183 E2.08772
G1 X170.864 Y142.589 E2.11928
G1 X171.294 Y143.052 E2.1508
G1 X171.663 Y143.566 E2.18237
G1 X171.963 Y144.122 E2.21389
G1 X172.191 Y144.711 E2.2454
G1 X172.343 Y145.325 E2.27695
G1 X172.423 Y146.216 E2.32158
G1 X172.423 Y153.784 E2.69915
G1 X172.383 Y154.415 E2.7307
G1 X172.264 Y155.036 E2.76224
G1 X172.067 Y155.636 E2.79375
G1 X171.796 Y156.208 E2.82533
G1 X171.456 Y156.74 E2.85683
G1 X171.05 Y157.225 E2.88838
G1 X170.587 Y157.655 E2.91991
G1 X170.073 Y158.024 E2.95147
G1 X169.517 Y158.324 E2.98299
G1 X168.928 Y158.552 E3.0145
G1 X168.314 Y158.704 E3.04606
G1 X167.423 Y158.784 E3.09069
G1 X132.577 Y158.784 E4.82917
G1 X131.946 Y158.744 E4.86071
G1 X131.325 Y158.625 E4.89226
G1 X130.725 Y158.428 E4.92376
G1 X130.153 Y158.157 E4.95534
G1 X129.621 Y157.817 E4.98684
G1 X129.136 Y157.411 E5.01839
G1 X128.706 Y156.948 E5.04992
G1 X128.337 Y156.434 E5.08149
G1 X128.037 Y155.878 E5.11301
G1 X127.809 Y155.289 E5.14452
G1 X127.657 Y154.675 E5.17607
G1 X127.577 Y153.784 E5.2207
G1 X127.577 Y146.216 E5.59827
G1 X127.617 Y145.585 E5.62982
G1 X127.736 Y144.964 E5.66136
G1 X127.933 Y144.364 E5.69287
G1 X128.204 Y143.792 E5.72445
G1 X128.544 Y143.26 E5.75595
G1 X128.95 Y142.775 E5.7875
G1 X129.413 Y142.345 E5.81903
G0 F3000 X129.802 Y142.547
G1 F1200 X130.309 Y142.214 E5.84929
G1 X130.855 Y141.95 E5.87955
G1 X131.431 Y141.761 E5.90979
G1 X132.027 Y141.649 E5.94004
G1 X132.577 Y141.616 E5.96753
G1 X167.423 Y141.616 E7.70601
G1 X168.028 Y141.656 E7.73626
G1 X168.622 Y141.775 E7.76648
G1 X169.196 Y141.971 E7.79674
G1 X169.739 Y142.242 E7.82702
G1 X170.242 Y142.581 E7.85728
G1 X170.695 Y142.983 E7.8875
G1 X171.092 Y143.441 E7.91773
G1 X171.425 Y143.948 E7.948
G1 X171.689 Y144.494 E7.97825
G1 X171.878 Y145.07 E8.0085
G1 X171.99 Y145.666 E8.03875
G1 X172.023 Y146.216 E8.06624
G1 X172.023 Y153.784 E8.44381
G1 X171.983 Y154.389 E8.47406
G1 X171.864 Y154.983 E8.50428
G1 X171.668 Y155.557 E8.53455
G1 X171.397 Y156.1 E8.56482
G1 X171.058 Y156.603 E8.59508
G1 X170.656 Y157.056 E8.6253
G1 X170.198 Y157.453 E8.65554
G1 X169.691 Y157.786 E8.6858
G1 X169.145 Y158.05 E8.71606
G1 X168.569 Y158.239 E8.7463
G1 X167.973 Y158.351 E8.77656
G1 X167.423 Y158.384 E8.80405
G1 X132.577 Y158.384 E10.54252
G1 X131.972 Y158.344 E10.57277
G1 X131.378 Y158.225 E10.60299
G1 X130.804 Y158.029 E10.63325
G1 X130.261 Y157.758 E10.66353
G1 X129.758 Y157.419 E10.69379
G1 X129.305 Y157.017 E10.72401
G1 X128.908 Y156.559 E10.75425
G1 X128.575 Y156.052 E10.78451
G1 X128.311 Y155.506 E10.81477
G1 X128.122 Y154.93 E10.84501
G1 X128.01 Y154.334 E10.87527
G1 X127.977 Y153.784 E10.90276
G1 X127.977 Y146.216 E11.28033
G1 X128.017 Y145.611 E11.31057
G1 X128.136 Y145.017 E11.3408
G1 X128.332 Y144.443 E11.37106
G1 X128.603 Y143.9 E11.40134
G1 X128.942 Y143.397 E11.4316
G1 X129.344 Y142.944 E11.46181
G1 X129.802 Y142.547 E11.49205
G0 F3000 X129.737 Y143.122
G1 F1200 X130.19 Y142.76 E11.52098
G1 X130.688 Y142.465 E11.54986
G1 X131.222 Y142.24 E11.57877
G1 X131.782 Y142.092 E11.60767
G1 X132.577 Y142.016 E11.64751
G1 X167.423 Y142.016 E13.38599
G1 X168.001 Y142.056 E13.41489
G1 X168.568 Y142.175 E13.44379
G1 X169.113 Y142.371 E13.47269
G1 X169.626 Y142.64 E13.50159
G1 X170.097 Y142.977 E13.53048
G1 X170.517 Y143.376 E13.55938
G1 X170.879 Y143.829 E13.58831
G1 X171.174 Y144.327 E13.61719
G1 X171.399 Y144.861 E13.6461
G1 X171.547 Y145.421 E13.675
G1 X171.623 Y146.216 E13.71484
G1 X171.623 Y153.784 E14.09241
G1 X171.583 Y154.362 E14.12132
G1 X171.464 Y154.929 E14.15022
G1 X171.268 Y155.474 E14.17912
G1 X170.999 Y155.987 E14.20801
G1 X170.662 Y156.458 E14.23691
G1 X170.263 Y156.878 E14.26581
G1 X169.81 Y157.24 E14.29474
G1 X169.312 Y157.535 E14.32362
G1 X168.778 Y157.76 E14.35253
G1 X168.218 Y157.908 E14.38143
G1 X167.423 Y157.984 E14.42127
G1 X132.577 Y157.984 E16.15974
G1 X131.999 Y157.944 E16.18865
G1 X131.432 Y157.825 E16.21755
G1 X130.887 Y157.629 E16.24645
G1 X130.374 Y157.36 E16.27535
G1 X129.903 Y157.023 E16.30424
G1 X129.483 Y156.624 E16.33314
G1 X129.121 Y156.171 E16.36207
G1 X128.826 Y155.673 E16.39095
G1 X128.601 Y155.139 E16.41986
G1 X128.453 Y154.579 E16.44876
G1 X128.377 Y153.784 E16.4886
G1 X128.377 Y146.216 E16.86617
G1 X128.417 Y145.638 E16.89507
G1 X128.536 Y145.071 E16.92398
G1 X128.732 Y144.526 E16.95287
G1 X129.001 Y144.013 E16.98177
G1 X129.338 Y143.542 E17.01067
G1 X129.737 Y143.122 E17.03957
G0 F3000 X130.129 Y143.31
G1 F1200 X130.575 Y142.986 E17.06707
G1 X131.063 Y142.731 E17.09454
G1 X131.583 Y142.548 E17.12204
G1 X132.124 Y142.443 E17.14954
G1 X132.577 Y142.416 E17.17218
G1 X167.423 Y142.416 E18.91065
G1 X167.973 Y142.456 E18.93816
G1 X168.511 Y142.575 E18.96565
G1 X169.026 Y142.771 E18.99315
G1 X169.507 Y143.039 E19.02062
G1 X169.945 Y143.373 E19.0481
G1 X170.329 Y143.768 E19.07558
G1 X170.653 Y144.214 E19.10308
G1 X170.908 Y144.702 E19.13055
G1 X171.091 Y145.222 E19.15806
G1 X171.196 Y145.763 E19.18555
G1 X171.223 Y146.216 E19.20819
G1 X171.223 Y153.784 E19.58576
G1 X171.183 Y154.334 E19.61327
G1 X171.064 Y154.872 E19.64076
G1 X170.868 Y155.387 E19.66825
G1 X170.6 Y155.868 E19.69572
G1 X170.266 Y156.306 E19.7232
G1 X169.871 Y156.69 E19.75069
G1 X169.425 Y157.014 E19.77819
G1 X168.937 Y157.269 E19.80566
G1 X168.417 Y157.452 E19.83316
G1 X167.876 Y157.557 E19.86066
G1 X167.423 Y157.584 E19.8833
G1 X132.577 Y157.584 E21.62177
G1 X132.027 Y157.544 E21.64928
G1 X131.489 Y157.425 E21.67677
G1 X130.974 Y157.229 E21.70426
G1 X130.493 Y156.961 E21.73173
G1 X130.055 Y156.627 E21.75922
G1 X129.671 Y156.232 E21.7867
G1 X129.347 Y155.786 E21.8142
G1 X129.092 Y155.298 E21.84167
G1 X128.909 Y154.778 E21.86917
G1 X128.804 Y154.237 E21.89667
G1 X128.777 Y153.784 E21.91931
G1 X128.777 Y146.216 E22.29688
G1 X128.817 Y145.666 E22.32439
G1 X128.936 Y145.128 E22.35188
G1 X129.132 Y144.613 E22.37937
G1 X129.4 Y144.132 E22.40684
G1 X129.734 Y143.694 E22.43432
G1 X130.129 Y143.31 E22.46181
G0 F3000 X130.519 Y143.51
G1 F1200 X130.957 Y143.227 E22.48782
G1 X131.432 Y143.014 E22.51379
G1 X131.935 Y142.877 E22.5398
G1 X132.577 Y142.816 E22.57198
G1 X167.423 Y142.816 E24.31045
G1 X167.943 Y142.856 E24.33647
G1 X168.45 Y142.975 E24.36245
G1 X168.933 Y143.17 E24.38844
G1 X169.381 Y143.436 E24.41443
G1 X169.783 Y143.768 E24.44044
G1 X170.129 Y144.158 E24.46645
G1 X170.412 Y144.596 E24.49247
G1 X170.625 Y145.071 E24.51844
G1 X170.762 Y145.574 E24.54445
G1 X170.823 Y146.216 E24.57662
G1 X170.823 Y153.784 E24.95419
G1 X170.783 Y154.304 E24.98021
G1 X170.664 Y154.811 E25.0062
G1 X170.469 Y155.294 E25.03218
G1 X170.203 Y155.742 E25.05818
G1 X169.871 Y156.144 E25.08419
G1 X169.481 Y156.49 E25.1102
G1 X169.043 Y156.773 E25.13621
G1 X168.568 Y156.986 E25.16219
G1 X168.065 Y157.123 E25.18819
G1 X167.423 Y157.184 E25.22037
G1 X132.577 Y157.184 E26.95884
G1 X132.057 Y157.144 E26.98486
G1 X131.55 Y157.025 E27.01084
G1 X131.067 Y156.83 E27.03683
G1 X130.619 Y156.564 E27.06282
G1 X130.217 Y156.232 E27.08884
G1 X129.871 Y155.842 E27.11485
G1 X129.588 Y155.404 E27.14086
G1 X129.375 Y154.929 E27.16683
G1 X129.238 Y154.426 E27.19284
G1 X129.177 Y153.784 E27.22502
G1 X129.177 Y146.216 E27.60259
G1 X129.217 Y145.696 E27.6286
G1 X129.336 Y145.189 E27.65459
G1 X129.531 Y144.706 E27.68057
G1 X129.797 Y144.258 E27.70657
G1 X130.129 Y143.856 E27.73258
G1 X130.519 Y143.51 E27.75859
G0 F3000 X130.523 Y144.029
G1 F1200 X130.906 Y143.724 E27.78302
G1 X131.334 Y143.486 E27.80745
G1 X131.794 Y143.32 E27.83185
G1 X132.577 Y143.216 E27.87125
G1 X167.423 Y143.216 E29.60973
G1 X167.911 Y143.256 E29.63416
G1 X168.386 Y143.375 E29.65859
G1 X168.835 Y143.569 E29.68299
G1 X169.247 Y143.834 E29.70743
G1 X169.61 Y144.162 E29.73184
G1 X169.915 Y144.545 E29.75626
G1 X170.153 Y144.973 E29.78069
G1 X170.319 Y145.433 E29.80509
G1 X170.423 Y146.216 E29.8445
G1 X170.423 Y153.784 E30.22207
G1 X170.383 Y154.272 E30.2465
G1 X170.264 Y154.747 E30.27093
G1 X170.07 Y155.196 E30.29533
G1 X169.805 Y155.608 E30.31977
G1 X169.477 Y155.971 E30.34418
G1 X169.094 Y156.276 E30.3686
G1 X168.666 Y156.514 E30.39304
G1 X168.206 Y156.68 E30.41743
G1 X167.423 Y156.784 E30.45684
G1 X132.577 Y156.784 E32.19531
G1 X132.089 Y156.744 E32.21974
G1 X131.614 Y156.625 E32.24417
G1 X131.165 Y156.431 E32.26858
G1 X130.753 Y156.166 E32.29301
G1 X130.39 Y155.838 E32.31742
G1 X130.085 Y155.455 E32.34185
G1 X129.847 Y155.027 E32.36628
G1 X129.681 Y154.567 E32.39068
G1 X129.577 Y153.784 E32.43009
G1 X129.577 Y146.216 E32.80766
G1 X129.617 Y145.728 E32.83208
G1 X129.736 Y145.253 E32.85651
G1 X129.93 Y144.804 E32.88092
G1 X130.195 Y144.392 E32.90536
G1 X130.523 Y144.029 E32.92976
G0 F3000 X130.915 Y144.216
G1 F1200 X131.29 Y143.957 E32.9525
G1 X131.704 Y143.767 E32.97523
G1 X132.145 Y143.652 E32.99796
G1 X132.577 Y143.616 E33.01959
G1 X167.423 Y143.616 E34.75807
G1 X167.877 Y143.656 E34.7808
G1 X168.317 Y143.774 E34.80353
G1 X168.729 Y143.968 E34.82625
G1 X169.102 Y144.231 E34.84902
G1 X169.423 Y144.554 E34.87174
G1 X169.682 Y144.929 E34.89448
G1 X169.872 Y145.343 E34.9172
G1 X169.987 Y145.784 E34.93994
G1 X170.023 Y146.216 E34.96157
G1 X170.023 Y153.784 E35.33914
G1 X169.983 Y154.238 E35.36187
G1 X169.865 Y154.678 E35.3846
G1 X169.671 Y155.09 E35.40732
G1 X169.408 Y155.463 E35.43009
G1 X169.085 Y155.784 E35.45281
G1 X168.71 Y156.043 E35.47555
G1 X168.296 Y156.233 E35.49827
G1 X167.855 Y156.348 E35.52101
G1 X167.423 Y156.384 E35.54264
G1 X132.577 Y156.384 E37.28111
G1 X132.123 Y156.344 E37.30385
G1 X131.683 Y156.226 E37.32658
G1 X131.271 Y156.032 E37.3493
G1 X130.898 Y155.769 E37.37207
G1 X130.577 Y155.446 E37.39479
G1 X130.318 Y155.071 E37.41752
G1 X130.128 Y154.657 E37.44025
G1 X130.013 Y154.216 E37.46299
G1 X129.977 Y153.784 E37.48461
G1 X129.977 Y146.216 E37.86218
G1 X130.017 Y145.762 E37.88492
G1 X130.135 Y145.322 E37.90765
G1 X130.329 Y144.91 E37.93037
G1 X130.592 Y144.537 E37.95314
G1 X130.915 Y144.216 E37.97586
G0 F3000 X131.304 Y144.422
G1 F1200 X131.667 Y144.213 E37.99675
G1 X132.064 Y144.077 E38.01769
G1 X132.577 Y144.016 E38.04346
G1 X167.423 Y144.016 E39.78194
G1 X167.84 Y144.056 E39.80284
G1 X168.242 Y144.174 E39.82374
G1 X168.614 Y144.367 E39.84465
G1 X168.943 Y144.626 E39.86554
G1 X169.217 Y144.943 E39.88644
G1 X169.426 Y145.306 E39.90734
G1 X169.562 Y145.703 E39.92827
G1 X169.623 Y146.216 E39.95405
G1 X169.623 Y153.784 E40.33162
G1 X169.583 Y154.201 E40.35252
G1 X169.465 Y154.603 E40.37342
G1 X169.272 Y154.975 E40.39433
G1 X169.013 Y155.304 E40.41522
G1 X168.696 Y155.578 E40.43612
G1 X168.333 Y155.787 E40.45702
G1 X167.936 Y155.923 E40.47796
G1 X167.423 Y155.984 E40.50373
G1 X132.577 Y155.984 E42.2422
G1 X132.16 Y155.944 E42.2631
G1 X131.758 Y155.826 E42.28401
G1 X131.386 Y155.633 E42.30491
G1 X131.057 Y155.374 E42.3258
G1 X130.783 Y155.057 E42.34671
G1 X130.574 Y154.694 E42.36761
G1 X130.438 Y154.297 E42.38854
G1 X130.377 Y153.784 E42.41432
G1 X130.377 Y146.216 E42.79188
G1 X130.417 Y145.799 E42.81278
G1 X130.535 Y145.397 E42.83369
G1 X130.728 Y145.025 E42.85459
G1 X130.987 Y144.696 E42.87548
G1 X131.304 Y144.422 E42.89639
G0 F3000 X131.38 Y144.871
G1 F1200 X131.689 Y144.651 E42.91531
G1 X132.036 Y144.499 E42.93421
G1 X132.577 Y144.416 E42.96152
G1 X167.423 Y144.416 E44.69999
G1 X167.8 Y144.456 E44.71891
G1 X168.16 Y144.574 E44.73781
G1 X168.487 Y144.764 E44.75668
G1 X168.768 Y145.019 E44.77561
G1 X168.988 Y145.328 E44.79453
G1 X169.14 Y145.675 E44.81343
G1 X169.223 Y146.216 E44.84074
G1 X169.223 Y153.784 E45.21831
G1 X169.183 Y154.161 E45.23722
G1 X169.065 Y154.521 E45.25612
G1 X168.875 Y154.848 E45.27499
G1 X168.62 Y155.129 E45.29392
G1 X168.311 Y155.349 E45.31284
G1 X167.964 Y155.501 E45.33174
G1 X167.423 Y155.584 E45.35905
G1 X132.577 Y155.584 E47.09753
G1 X132.2 Y155.544 E47.11644
G1 X131.84 Y155.426 E47.13534
G1 X131.513 Y155.236 E47.15421
G1 X131.232 Y154.981 E47.17314
G1 X131.012 Y154.672 E47.19206
G1 X130.86 Y154.325 E47.21096
G1 X130.777 Y153.784 E47.23827
G1 X130.777 Y146.216 E47.61584
G1 X130.817 Y145.839 E47.63475
G1 X130.935 Y145.479 E47.65365
G1 X131.125 Y145.152 E47.67252
G1 X131.38 Y144.871 E47.69145
G0 F3000 X131.77 Y145.072
G1 F1200 X132.064 Y144.913 E47.70813
G1 X132.577 Y144.816 E47.73418
G1 X167.423 Y144.816 E49.47265
G1 X167.755 Y144.856 E49.48933
G1 X168.067 Y144.973 E49.50596
G1 X168.344 Y145.161 E49.52266
G1 X168.567 Y145.409 E49.5393
G1 X168.726 Y145.703 E49.55597
G1 X168.823 Y146.216 E49.58202
G1 X168.823 Y153.784 E49.95959
G1 X168.783 Y154.116 E49.97627
G1 X168.666 Y154.428 E49.9929
G1 X168.478 Y154.705 E50.0096
G1 X168.23 Y154.928 E50.02624
G1 X167.936 Y155.087 E50.04291
G1 X167.423 Y155.184 E50.06896
G1 X132.577 Y155.184 E51.80743
G1 X132.245 Y155.144 E51.82412
G1 X131.933 Y155.027 E51.84074
G1 X131.656 Y154.839 E51.85744
G1 X131.433 Y154.591 E51.87408
G1 X131.274 Y154.297 E51.89076
G1 X131.177 Y153.784 E51.91681
G1 X131.177 Y146.216 E52.29437
G1 X131.217 Y145.884 E52.31106
G1 X131.334 Y145.572 E52.32768
G1 X131.522 Y145.295 E52.34438
G1 X131.77 Y145.072 E52.36102
G0 F3000 X131.916 Y145.465
G1 F1200 X132.152 Y145.311 E52.37508
G1 X132.577 Y145.216 E52.39681
G1 X167.423 Y145.216 E54.13528
G1 X167.702 Y145.256 E54.14934
G1 X167.959 Y145.372 E54.16341
G1 X168.174 Y145.555 E54.1775
G1 X168.328 Y145.791 E54.19156
G1 X168.423 Y146.216 E54.21328
G1 X168.423 Y153.784 E54.59085
G1 X168.383 Y154.063 E54.60491
G1 X168.267 Y154.32 E54.61898
G1 X168.084 Y154.535 E54.63307
G1 X167.848 Y154.689 E54.64713
G1 X167.423 Y154.784 E54.66885
G1 X132.577 Y154.784 E56.40733
G1 X132.298 Y154.744 E56.42139
G1 X132.041 Y154.628 E56.43546
G1 X131.826 Y154.445 E56.44954
G1 X131.672 Y154.209 E56.4636
G1 X131.577 Y153.784 E56.48533
G1 X131.577 Y146.216 E56.8629
G1 X131.617 Y145.937 E56.87696
G1 X131.733 Y145.68 E56.89103
G1 X131.916 Y145.465 E56.90511
G0 F3000 X132.13 Y145.815
G1 F1200 X132.303 Y145.682 E56.916
G1 X132.577 Y145.616 E56.93006
G1 X167.423 Y145.616 E58.66853
G1 X167.638 Y145.656 E58.67944
G1 X167.824 Y145.769 E58.6903
G1 X167.957 Y145.942 E58.70119
G1 X168.023 Y146.216 E58.71525
G1 X168.023 Y153.784 E59.09282
G1 X167.983 Y153.999 E59.10373
G1 X167.87 Y154.185 E59.11459
G1 X167.697 Y154.318 E59.12547
G1 X167.423 Y154.384 E59.13953
G1 X132.577 Y154.384 E60.87801
G1 X132.362 Y154.344 E60.88892
G1 X132.176 Y154.231 E60.89978
G1 X132.043 Y154.058 E60.91066
G1 X131.977 Y153.784 E60.92472
G1 X131.977 Y146.216 E61.30229
G1 X132.017 Y146.001 E61.3132
G1 X132.13 Y145.815 E61.32406
G0 F3000 X132.416 Y146.097
G1 F1200 X132.577 Y146.016 E61.33305
G1 X167.423 Y146.016 E63.07153
G1 X167.542 Y146.055 E63.07778
G1 X167.623 Y146.216 E63.08677
G1 X167.623 Y153.784 E63.46434
G1 X167.584 Y153.903 E63.47058
G1 X167.423 Y153.984 E63.47958
G1 X132.577 Y153.984 E65.21805
G1 X132.458 Y153.945 E65.2243
G1 X132.377 Y153.784 E65.23329
G1 X132.377 Y146.216 E65.61086
G1 X132.416 Y146.097 E65.61711
G1 F1800 E57.61711
;MESH:M4_Retraction_Test.3mf
G0 F3000 X133.191 Y146.83
G0 X166.753 Y153.114
G1 F1800 E65.63789
G0 F3000 X167.223 Y153.584
;TYPE:WALL-OUTER
G1 F1200 X132.777 Y153.584 E67.35641
G1 X132.777 Y146.416 E67.71402
G1 X167.223 Y146.416 E69.43254
