; G-Code generated by Simplify3D(R) Version 3.0.2
; ¶þÔÂ 5, 2021 at 6:13:25 ÏÂÎç
; Settings Summary
;   processName,Process1
;   applyToModels,LKBR_PHM3V5
;   profileName,ZONESTAR Single Extruder 3D Printer(300x300x400) (modified)
;   profileVersion,2021-02-03 12:23:59
;   baseProfile,Default (modified)
;   printMaterial,PLA
;   printQuality,Medium
;   printExtruders,
;   extruderName,Primary Extruder
;   extruderToolheadNumber,0
;   extruderDiameter,0.4
;   extruderAutoWidth,1
;   extruderWidth,0.48
;   extrusionMultiplier,1.2
;   extruderUseRetract,1
;   extruderRetractionDistance,8
;   extruderExtraRestartDistance,0.05
;   extruderRetractionZLift,0
;   extruderRetractionSpeed,1500
;   extruderUseCoasting,0
;   extruderCoastingDistance,0.2
;   extruderUseWipe,1
;   extruderWipeDistance,1.5
;   primaryExtruder,0
;   layerHeight,0.3
;   topSolidLayers,3
;   bottomSolidLayers,3
;   perimeterOutlines,3
;   printPerimetersInsideOut,1
;   startPointOption,3
;   startPointOriginX,155
;   startPointOriginY,310
;   startPointOriginZ,300
;   sequentialIslands,0
;   spiralVaseMode,0
;   firstLayerHeightPercentage,100
;   firstLayerWidthPercentage,100
;   firstLayerUnderspeed,0.5
;   useRaft,0
;   raftExtruder,0
;   raftLayers,3
;   raftOffset,20
;   raftSeparationDistance,0
;   raftInfill,85
;   disableRaftBaseLayers,0
;   useSkirt,0
;   skirtExtruder,0
;   skirtLayers,1
;   skirtOutlines,10
;   skirtOffset,0
;   usePrimePillar,0
;   primePillarExtruder,999
;   primePillarWidth,12
;   primePillarLocation,7
;   primePillarSpeedMultiplier,1
;   useOozeShield,0
;   oozeShieldExtruder,999
;   oozeShieldOffset,2
;   oozeShieldOutlines,1
;   oozeShieldSidewallShape,1
;   oozeShieldSidewallAngle,30
;   oozeShieldSpeedMultiplier,1
;   infillExtruder,0
;   internalInfillPattern,Fast Honeycomb
;   externalInfillPattern,Concentric
;   infillPercentage,20
;   outlineOverlapPercentage,15
;   infillExtrusionWidthPercentage,90
;   minInfillLength,5
;   infillLayerInterval,1
;   infillAngles,0
;   overlapInfillAngles,0
;   generateSupport,0
;   supportExtruder,0
;   supportInfillPercentage,20
;   supportExtraInflation,0
;   denseSupportLayers,0
;   denseSupportInfillPercentage,70
;   supportLayerInterval,1
;   supportHorizontalPartOffset,0.3
;   supportUpperSeparationLayers,1
;   supportLowerSeparationLayers,1
;   supportType,1
;   supportGridSpacing,4
;   maxOverhangAngle,15
;   supportAngles,0
;   temperatureName,Primary Extruder,bed
;   temperatureNumber,0,0
;   temperatureSetpointCount,1,1
;   temperatureSetpointLayers,1,1
;   temperatureSetpointTemperatures,205,60
;   temperatureStabilizeAtStartup,1,1
;   temperatureHeatedBed,0,1
;   temperatureRelayBetweenLayers,0,0
;   temperatureRelayBetweenLoops,0,0
;   fanLayers,1,3
;   fanSpeeds,0,100
;   blipFanToFullPower,0
;   adjustSpeedForCooling,1
;   minSpeedLayerTime,20
;   minCoolingSpeedSlowdown,20
;   increaseFanForCooling,0
;   minFanLayerTime,45
;   maxCoolingFanSpeed,100
;   increaseFanForBridging,0
;   bridgingFanSpeed,100
;   use5D,1
;   relativeEdistances,0
;   allowEaxisZeroing,1
;   independentExtruderAxes,0
;   includeM10123,0
;   stickySupport,1
;   applyToolheadOffsets,0
;   gcodeXoffset,0
;   gcodeYoffset,0
;   gcodeZoffset,0
;   overrideMachineDefinition,1
;   machineTypeOverride,0
;   strokeXoverride,300
;   strokeYoverride,300
;   strokeZoverride,400
;   originOffsetXoverride,0
;   originOffsetYoverride,0
;   originOffsetZoverride,0
;   homeXdirOverride,-1
;   homeYdirOverride,-1
;   homeZdirOverride,-1
;   flipXoverride,1
;   flipYoverride,-1
;   flipZoverride,1
;   toolheadOffsets,0,0|0,0|0,0|0,0|0,0|0,0
;   overrideFirmwareConfiguration,0
;   firmwareTypeOverride,RepRap (Marlin/Repetier/Sprinter)
;   GPXconfigOverride,r2
;   baudRateOverride,115200
;   overridePrinterModels,0
;   printerModelsOverride
;   startingGcode,G28 ; home all axes,G1 Z5 F3000 ; lift,G1 X5 Y10 F1500 ; move to prime,G1 Z0.2 F3000 ; get ready to prime,G92 E0 ; reset extrusion distance,G1 Y80 E10 F600 ; prime nozzle,G1 Y100 F5000 ; quick wipe,,
;   layerChangeGcode,
;   retractionGcode,
;   toolChangeGcode,
;   endingGcode,G28 X0 Y0,M106 S0 ; turn off FAN,M104 S0 ; turn off extruder,M140 S0 ; turn off bed,M84 ; disable motors
;   createX3G,0
;   celebration,0
;   celebrationSong,Random Song
;   createMB5G,0
;   postProcessing,
;   defaultSpeed,3000
;   outlineUnderspeed,1
;   solidInfillUnderspeed,0.6
;   supportUnderspeed,1
;   rapidXYspeed,3000
;   rapidZspeed,480
;   minBridgingArea,50
;   bridgingExtraInflation,0
;   bridgingExtrusionMultiplier,1
;   bridgingSpeedMultiplier,1
;   filamentDiameter,1.75
;   filamentPricePerKg,46
;   filamentDensity,1.25
;   useMinPrintHeight,0
;   minPrintHeight,0
;   useMaxPrintHeight,0
;   maxPrintHeight,129.81
;   useDiaphragm,0
;   diaphragmLayerInterval,20
;   robustSlicing,1
;   mergeAllIntoSolid,0
;   onlyRetractWhenCrossingOutline,1
;   retractBetweenLayers,0
;   useRetractionMinTravel,1
;   retractionMinTravel,3
;   retractWhileWiping,0
;   onlyWipeOutlines,1
;   avoidCrossingOutline,1
;   maxMovementDetourFactor,3
;   toolChangeRetractionDistance,8
;   toolChangeExtraRestartDistance,-0.5
;   toolChangeRetractionSpeed,600
;   allowThinWallGapFill,1
;   thinWallAllowedOverlapPercentage,10
;   horizontalSizeCompensation,0
G90
M82
M106 S0
M140 S60
M190 S60
M104 S205 T0
M109 S205 T0
G28 ; home all axes
G1 Z5 F3000 ; lift
G1 X5 Y10 F1500 ; move to prime
G1 Z0.2 F3000 ; get ready to prime
G92 E0 ; reset extrusion distance
G1 Y80 E10 F600 ; prime nozzle
G1 Y100 F5000 ; quick wipe
G92 E0
G1 E-8.0000 F1500
G1 Z0.300 F480
; layer 1, Z = 0.3
T0
; tool H0.300 W0.480
; inner perimeter
G1 X163.800 Y162.548 F3000
G1 E0.0500 F450
G92 E0
G1 X136.200 Y162.548 E1.9828 F1500
G1 X136.200 Y137.043 E3.8152
G1 X136.211 Y136.886 E3.8265
G1 X136.235 Y136.776 E3.8346
G1 X136.275 Y136.669 E3.8428
G1 X136.330 Y136.569 E3.8509
G1 X136.398 Y136.478 E3.8591
G1 X136.478 Y136.398 E3.8673
G1 X136.569 Y136.330 E3.8755
G1 X136.669 Y136.275 E3.8836
G1 X136.776 Y136.235 E3.8918
G1 X136.886 Y136.211 E3.8999
G1 X137.043 Y136.200 E3.9112
G1 X149.722 Y136.200 E4.8221
G1 X149.746 Y136.558 E4.8479
G1 X149.297 Y136.619 E4.8805
G1 X148.844 Y136.747 E4.9143
G1 X148.412 Y136.934 E4.9481
G1 X148.008 Y137.180 E4.9820
G1 X147.644 Y137.476 E5.0158
G1 X147.321 Y137.821 E5.0497
G1 X147.050 Y138.206 E5.0836
G1 X146.833 Y138.624 E5.1174
G1 X146.675 Y139.069 E5.1513
G1 X146.580 Y139.528 E5.1850
G1 X146.547 Y140.000 E5.2190
G1 X146.580 Y140.472 E5.2530
G1 X146.675 Y140.931 E5.2867
G1 X146.833 Y141.376 E5.3206
G1 X147.050 Y141.794 E5.3544
G1 X147.321 Y142.179 E5.3882
G1 X147.644 Y142.524 E5.4221
G1 X148.008 Y142.820 E5.4559
G1 X148.412 Y143.066 E5.4899
G1 X148.844 Y143.253 E5.5237
G1 X149.297 Y143.381 E5.5575
G1 X149.765 Y143.445 E5.5914
G1 X150.235 Y143.445 E5.6252
G1 X150.703 Y143.381 E5.6591
G1 X151.156 Y143.253 E5.6930
G1 X151.588 Y143.066 E5.7268
G1 X151.992 Y142.820 E5.7607
G1 X152.356 Y142.524 E5.7945
G1 X152.679 Y142.179 E5.8284
G1 X152.950 Y141.794 E5.8622
G1 X153.167 Y141.376 E5.8960
G1 X153.325 Y140.931 E5.9300
G1 X153.420 Y140.472 E5.9637
G1 X153.453 Y140.000 E5.9976
G1 X153.420 Y139.528 E6.0316
G1 X153.325 Y139.069 E6.0653
G1 X153.167 Y138.624 E6.0993
G1 X152.950 Y138.206 E6.1331
G1 X152.679 Y137.821 E6.1669
G1 X152.356 Y137.476 E6.2008
G1 X151.992 Y137.180 E6.2346
G1 X151.588 Y136.934 E6.2685
G1 X151.156 Y136.747 E6.3023
G1 X150.703 Y136.619 E6.3362
G1 X150.254 Y136.558 E6.3688
G1 X150.278 Y136.200 E6.3945
G1 X162.957 Y136.200 E7.3054
G1 X163.114 Y136.211 E7.3167
G1 X163.224 Y136.235 E7.3248
G1 X163.331 Y136.275 E7.3330
G1 X163.431 Y136.330 E7.3412
G1 X163.522 Y136.398 E7.3493
G1 X163.602 Y136.478 E7.3575
G1 X163.670 Y136.569 E7.3657
G1 X163.725 Y136.669 E7.3738
G1 X163.765 Y136.776 E7.3820
G1 X163.789 Y136.886 E7.3901
G1 X163.800 Y137.043 E7.4015
G1 X163.800 Y162.548 E9.2338
; inner perimeter
G1 X164.280 Y163.028 F3000
G92 E0
G1 X135.720 Y163.028 E2.0518 F1500
G1 X135.720 Y137.026 E3.9199
G1 X135.735 Y136.817 E3.9349
G1 X135.774 Y136.640 E3.9479
G1 X135.837 Y136.469 E3.9610
G1 X135.925 Y136.309 E3.9741
G1 X136.034 Y136.163 E3.9872
G1 X136.163 Y136.034 E4.0003
G1 X136.309 Y135.925 E4.0134
G1 X136.469 Y135.837 E4.0265
G1 X136.640 Y135.774 E4.0397
G1 X136.817 Y135.735 E4.0527
G1 X137.026 Y135.720 E4.0677
G1 X162.974 Y135.720 E5.9319
G1 X163.183 Y135.735 E5.9469
G1 X163.360 Y135.774 E5.9599
G1 X163.531 Y135.837 E5.9731
G1 X163.691 Y135.925 E5.9861
G1 X163.837 Y136.034 E5.9992
G1 X163.966 Y136.163 E6.0124
G1 X164.075 Y136.309 E6.0254
G1 X164.163 Y136.469 E6.0385
G1 X164.226 Y136.640 E6.0517
G1 X164.265 Y136.817 E6.0647
G1 X164.280 Y137.026 E6.0797
G1 X164.280 Y163.028 E7.9478
; outer perimeter
G1 X164.760 Y163.508 F3000
G92 E0
G1 X135.240 Y163.508 E2.1208 F1500
G1 X135.240 Y137.009 E4.0246
G1 X135.259 Y136.749 E4.0433
G1 X135.312 Y136.505 E4.0612
G1 X135.400 Y136.269 E4.0793
G1 X135.520 Y136.049 E4.0973
G1 X135.670 Y135.848 E4.1153
G1 X135.848 Y135.670 E4.1334
G1 X136.049 Y135.520 E4.1514
G1 X136.269 Y135.400 E4.1694
G1 X136.505 Y135.312 E4.1875
G1 X136.749 Y135.259 E4.2054
G1 X137.009 Y135.240 E4.2242
G1 X162.991 Y135.240 E6.0908
G1 X163.251 Y135.259 E6.1096
G1 X163.495 Y135.312 E6.1275
G1 X163.731 Y135.400 E6.1456
G1 X163.951 Y135.520 E6.1636
G1 X164.152 Y135.670 E6.1816
G1 X164.330 Y135.848 E6.1997
G1 X164.480 Y136.049 E6.2177
G1 X164.600 Y136.269 E6.2357
G1 X164.688 Y136.505 E6.2538
G1 X164.741 Y136.749 E6.2717
G1 X164.760 Y137.009 E6.2904
G1 X164.760 Y163.508 E8.1942
G1 X163.260 Y163.508 F3000
; inner perimeter
G1 X150.235 Y153.445 F3000
G92 E0
G1 X150.703 Y153.381 E0.0339 F1500
G1 X151.156 Y153.253 E0.0677
G1 X151.588 Y153.066 E0.1016
G1 X151.992 Y152.820 E0.1355
G1 X152.356 Y152.524 E0.1693
G1 X152.679 Y152.179 E0.2032
G1 X152.950 Y151.794 E0.2370
G1 X153.167 Y151.376 E0.2708
G1 X153.325 Y150.931 E0.3048
G1 X153.420 Y150.472 E0.3385
G1 X153.453 Y150.000 E0.3724
G1 X153.420 Y149.528 E0.4064
G1 X153.325 Y149.069 E0.4401
G1 X153.167 Y148.624 E0.4740
G1 X152.950 Y148.206 E0.5079
G1 X152.679 Y147.821 E0.5417
G1 X152.356 Y147.476 E0.5756
G1 X151.992 Y147.180 E0.6094
G1 X151.588 Y146.934 E0.6433
G1 X151.156 Y146.747 E0.6771
G1 X150.703 Y146.619 E0.7110
G1 X150.235 Y146.555 E0.7449
G1 X149.765 Y146.555 E0.7787
G1 X149.297 Y146.619 E0.8126
G1 X148.844 Y146.747 E0.8464
G1 X148.412 Y146.934 E0.8802
G1 X148.008 Y147.180 E0.9142
G1 X147.644 Y147.476 E0.9480
G1 X147.321 Y147.821 E0.9819
G1 X147.050 Y148.206 E1.0157
G1 X146.833 Y148.624 E1.0495
G1 X146.675 Y149.069 E1.0834
G1 X146.580 Y149.528 E1.1171
G1 X146.547 Y150.000 E1.1511
G1 X146.580 Y150.472 E1.1851
G1 X146.675 Y150.931 E1.2188
G1 X146.833 Y151.376 E1.2527
G1 X147.050 Y151.794 E1.2865
G1 X147.321 Y152.179 E1.3204
G1 X147.644 Y152.524 E1.3543
G1 X148.008 Y152.820 E1.3881
G1 X148.412 Y153.066 E1.4220
G1 X148.844 Y153.253 E1.4558
G1 X149.297 Y153.381 E1.4896
G1 X149.765 Y153.445 E1.5236
G1 X150.235 Y153.445 E1.5573
; inner perimeter
G1 X150.202 Y152.965 F3000
G92 E0
G1 X150.605 Y152.909 E0.0292 F1500
G1 X150.995 Y152.800 E0.0583
G1 X151.367 Y152.639 E0.0874
G1 X151.714 Y152.427 E0.1166
G1 X152.028 Y152.172 E0.1457
G1 X152.305 Y151.875 E0.1749
G1 X152.539 Y151.544 E0.2040
G1 X152.725 Y151.184 E0.2331
G1 X152.862 Y150.801 E0.2623
G1 X152.944 Y150.406 E0.2913
G1 X152.972 Y150.000 E0.3205
G1 X152.944 Y149.594 E0.3498
G1 X152.862 Y149.199 E0.3788
G1 X152.725 Y148.816 E0.4080
G1 X152.539 Y148.456 E0.4371
G1 X152.305 Y148.125 E0.4662
G1 X152.028 Y147.828 E0.4954
G1 X151.714 Y147.573 E0.5245
G1 X151.367 Y147.361 E0.5537
G1 X150.995 Y147.200 E0.5828
G1 X150.605 Y147.091 E0.6119
G1 X150.202 Y147.035 E0.6411
G1 X149.798 Y147.035 E0.6702
G1 X149.395 Y147.091 E0.6994
G1 X149.005 Y147.200 E0.7285
G1 X148.633 Y147.361 E0.7576
G1 X148.286 Y147.573 E0.7868
G1 X147.972 Y147.828 E0.8159
G1 X147.695 Y148.125 E0.8450
G1 X147.461 Y148.456 E0.8742
G1 X147.275 Y148.816 E0.9033
G1 X147.138 Y149.199 E0.9325
G1 X147.056 Y149.594 E0.9615
G1 X147.028 Y150.000 E0.9907
G1 X147.056 Y150.406 E1.0200
G1 X147.138 Y150.801 E1.0490
G1 X147.275 Y151.184 E1.0782
G1 X147.461 Y151.544 E1.1072
G1 X147.695 Y151.875 E1.1364
G1 X147.972 Y152.172 E1.1656
G1 X148.286 Y152.427 E1.1946
G1 X148.633 Y152.639 E1.2238
G1 X149.005 Y152.800 E1.2529
G1 X149.395 Y152.909 E1.2821
G1 X149.798 Y152.965 E1.3113
G1 X150.202 Y152.965 E1.3403
; outer perimeter
G1 X150.170 Y152.485 F3000
G92 E0
G1 X150.507 Y152.438 E0.0245 F1500
G1 X150.834 Y152.347 E0.0489
G1 X151.145 Y152.211 E0.0733
G1 X151.437 Y152.034 E0.0977
G1 X151.700 Y151.820 E0.1221
G1 X151.932 Y151.572 E0.1466
G1 X152.128 Y151.294 E0.1710
G1 X152.284 Y150.993 E0.1954
G1 X152.398 Y150.672 E0.2198
G1 X152.467 Y150.341 E0.2441
G1 X152.491 Y150.000 E0.2686
G1 X152.467 Y149.659 E0.2932
G1 X152.398 Y149.328 E0.3175
G1 X152.284 Y149.007 E0.3419
G1 X152.128 Y148.706 E0.3663
G1 X151.932 Y148.428 E0.3907
G1 X151.700 Y148.180 E0.4152
G1 X151.437 Y147.966 E0.4396
G1 X151.145 Y147.789 E0.4640
G1 X150.834 Y147.653 E0.4884
G1 X150.507 Y147.562 E0.5128
G1 X150.170 Y147.515 E0.5373
G1 X149.830 Y147.515 E0.5617
G1 X149.493 Y147.562 E0.5861
G1 X149.166 Y147.653 E0.6105
G1 X148.855 Y147.789 E0.6349
G1 X148.563 Y147.966 E0.6594
G1 X148.300 Y148.180 E0.6838
G1 X148.068 Y148.428 E0.7082
G1 X147.872 Y148.706 E0.7326
G1 X147.716 Y149.007 E0.7570
G1 X147.602 Y149.328 E0.7815
G1 X147.533 Y149.659 E0.8058
G1 X147.509 Y150.000 E0.8303
G1 X147.533 Y150.341 E0.8548
G1 X147.602 Y150.672 E0.8791
G1 X147.716 Y150.993 E0.9036
G1 X147.872 Y151.294 E0.9280
G1 X148.068 Y151.572 E0.9524
G1 X148.300 Y151.820 E0.9769
G1 X148.563 Y152.034 E1.0012
G1 X148.855 Y152.211 E1.0257
G1 X149.166 Y152.347 E1.0501
G1 X149.493 Y152.438 E1.0745
G1 X149.830 Y152.485 E1.0990
G1 X150.170 Y152.485 E1.1233
G1 X150.507 Y152.438 F3000
G1 X150.834 Y152.347 F3000
G1 X151.145 Y152.211 F3000
G1 X151.437 Y152.034 F3000
G1 X151.545 Y151.946 F3000
; inner perimeter
; inner perimeter
G1 X151.544 Y151.941 F3000
G1 X151.696 Y151.817 F3000
G1 X151.928 Y151.569 F3000
G1 X152.124 Y151.291 F3000
G1 X152.280 Y150.991 F3000
G1 X152.394 Y150.670 F3000
G1 X152.462 Y150.340 F3000
G1 X152.486 Y150.000 F3000
G1 X152.462 Y149.660 F3000
G1 X152.394 Y149.330 F3000
G1 X152.280 Y149.009 F3000
G1 X152.124 Y148.709 F3000
G1 X151.928 Y148.431 F3000
G1 X151.696 Y148.183 F3000
G1 X151.434 Y147.970 F3000
G1 X151.143 Y147.793 F3000
G1 X150.909 Y147.691 F3000
G1 X150.202 Y142.965 F3000
G92 E0
G1 X150.605 Y142.909 E0.0292 F1500
G1 X150.995 Y142.800 E0.0583
G1 X151.367 Y142.639 E0.0874
G1 X151.714 Y142.427 E0.1166
G1 X152.028 Y142.172 E0.1457
G1 X152.305 Y141.875 E0.1749
G1 X152.539 Y141.544 E0.2040
G1 X152.725 Y141.184 E0.2331
G1 X152.862 Y140.801 E0.2623
G1 X152.944 Y140.406 E0.2913
G1 X152.972 Y140.000 E0.3205
G1 X152.944 Y139.594 E0.3498
G1 X152.862 Y139.199 E0.3788
G1 X152.725 Y138.816 E0.4080
G1 X152.539 Y138.456 E0.4371
G1 X152.305 Y138.125 E0.4662
G1 X152.028 Y137.828 E0.4954
G1 X151.714 Y137.573 E0.5245
G1 X151.367 Y137.361 E0.5537
G1 X150.995 Y137.200 E0.5828
G1 X150.605 Y137.091 E0.6119
G1 X150.202 Y137.035 E0.6411
G1 X149.798 Y137.035 E0.6702
G1 X149.395 Y137.091 E0.6994
G1 X149.005 Y137.200 E0.7285
G1 X148.633 Y137.361 E0.7576
G1 X148.286 Y137.573 E0.7868
G1 X147.972 Y137.828 E0.8159
G1 X147.695 Y138.125 E0.8450
G1 X147.461 Y138.456 E0.8742
G1 X147.275 Y138.816 E0.9033
G1 X147.138 Y139.199 E0.9325
G1 X147.056 Y139.594 E0.9615
G1 X147.028 Y140.000 E0.9907
G1 X147.056 Y140.406 E1.0200
G1 X147.138 Y140.801 E1.0490
G1 X147.275 Y141.184 E1.0782
G1 X147.461 Y141.544 E1.1072
G1 X147.695 Y141.875 E1.1364
G1 X147.972 Y142.172 E1.1656
G1 X148.286 Y142.427 E1.1946
G1 X148.633 Y142.639 E1.2238
G1 X149.005 Y142.800 E1.2529
G1 X149.395 Y142.909 E1.2821
G1 X149.798 Y142.965 E1.3113
G1 X150.202 Y142.965 E1.3403
; outer perimeter
G1 X150.170 Y142.485 F3000
G92 E0
G1 X150.507 Y142.438 E0.0245 F1500
G1 X150.834 Y142.347 E0.0489
G1 X151.145 Y142.211 E0.0733
G1 X151.437 Y142.034 E0.0977
G1 X151.700 Y141.820 E0.1221
G1 X151.932 Y141.572 E0.1466
G1 X152.128 Y141.294 E0.1710
G1 X152.284 Y140.993 E0.1954
G1 X152.398 Y140.672 E0.2198
