;FLAVOR:Marlin
;TIME:6412
;Filament used: 3.14856m, 1.54521m, 1.02679m, 0.965586m
;Layer height: 0.2
;MINX:115.205
;MINY:120.366
;MINZ:0.36
;MAXX:174.793
;MAXY:224.794
;MAXZ:7.31
;Generated with Cura_SteamEngine 4.13.1
T0
M140 S70
M105
M190 S70
M104 S200
M105
M109 S200
M82 ;absolute extrusion mode
;Z9E4 start G-code
G28 ;Home
G21 ; set units to millimeters
G90 ; use absolute coordinates
G1 Z5 F3000 ; lift nozzle
G1 X5 Y10 F1500 ; move to prime start point
G1 Z0.3 F3000 ; get ready to prime
;===Pre-load filament start
M117 Preload Extruder #1
T0
G92 E0
G0 X5 Y10 F3000
G1 Y210 E15 F1200
G0 X5.5 F3000
G1 Y10 E30 F1200
G0 X6 F3000
G1 Y210 E45 F1200
G0 X6.5 F3000
G1 Y10 E60 F1200
G0 X7 F3000
G1 Y210 E75 F1200
G0 X7.5 F3000
G1 Y10 E90 F1200
G0 X8 F3000
G92 E0
G1 E-10 F1800
G1 E-60 F2400
M400
M117 Preload Extruder #2
T1
G92 E0
G0 X8 Y10 F3000
G1 Y210 E15 F1200
G0 X8.5 F3000
G1 Y10 E30 F1200
G0 X9 F3000
G1 Y210 E45 F1200
G0 X9.5 F3000
G1 Y10 E60 F1200
G0 X10 F3000
G1 Y210 E75 F1200
G0 X10.5 F3000
G1 Y10 E90 F1200
G0 X11 F3000
G92 E0
G1 E-10 F1800
G1 E-60 F2400
M400
M117 Preload Extruder #3
T2
G92 E0
G0 X11 Y10 F3000
G1 Y210 E15 F1200
G0 X11.5 F3000
G1 Y10 E30 F1200
G0 X12 F3000
G1 Y210 E45 F1200
G0 X12.5 F3000
G1 Y10 E60 F600
G0 X13 F3000
G1 Y210 E75 F1200
G0 X13.5 F3000
G1 Y10 E90 F1200
G0 X14 F3000
G92 E0
G1 E-10 F1800
G1 E-60 F2400
M400
M117 Preload Extruder #3
T3
G92 E0
G0 X14 Y10 F3000
G1 Y210 E15 F1200
G0 X14.5 F3000
G1 Y10 E30 F1200
G0 X15 F3000
G1 Y210 E45 F1200
G0 X15.5 F3000
G1 Y10 E60 F1200
G0 X16 F3000
G1 Y210 E75 F1200
G0 X16.5 F3000
G1 Y10 E90 F1200
G0 X17 F3000
G0 Y155 F4800
G92 E0
;===Pre-load filament end
G92 E0
;start gcode of Extruders     
G92 E0
G1 E25 F1200; push filament-1
G1 E55 F1800; push filament-2
G1 E59 F900; push filament-3
G92 E0
G92 E0
G1 F1500 E-8
;LAYER_COUNT:25
;LAYER:-6
M107
G0 F6000 X121.183 Y121.746 Z0.36
;TYPE:SUPPORT-INTERFACE
G1 F1500 E0
G1 F900 X121.641 Y121.394 E0.06916
G1 X122.139 Y121.104 E0.13817
G1 X122.675 Y120.875 E0.20796
G1 X123.199 Y120.726 E0.27319
G1 X123.555 Y120.666 E0.31641
G1 X124.109 Y120.616 E0.38302
G1 X124.331 Y120.606 E0.40963
G1 X143.501 Y120.606 E2.70497
G1 X144.263 Y120.568 E2.79633
G1 X145.08 Y120.606 E2.89426
G1 X164.126 Y120.606 E5.17476
G1 X164.252 Y120.61 E5.18985
G1 X164.927 Y120.671 E5.271
G1 X165.502 Y120.802 E5.34162
G1 X166.039 Y120.997 E5.41002
G1 X166.555 Y121.262 E5.47948
G1 X167.041 Y121.596 E5.55009
G1 X167.475 Y121.985 E5.61987
G1 X167.85 Y122.417 E5.68837
G1 X168.176 Y122.904 E5.75854
G1 X168.431 Y123.418 E5.82724
G1 X168.628 Y123.982 E5.89877
G1 X168.742 Y124.559 E5.9692
G1 X168.792 Y125.113 E6.0358
G1 X168.802 Y125.335 E6.06241
G1 X168.802 Y144.45 E8.35117
G1 X168.84 Y145.212 E8.44253
G1 X168.802 Y146.029 E8.54046
G1 X168.802 Y165.13 E10.82754
G1 X168.774 Y165.633 E10.88786
G1 X168.682 Y166.215 E10.95842
G1 X168.522 Y166.764 E11.02689
G1 X168.289 Y167.301 E11.09698
G1 X167.994 Y167.798 E11.16618
G1 X167.621 Y168.272 E11.2384
G1 X167.447 Y168.455 E11.26863
G1 X167.018 Y168.969 E11.3488
G1 X166.65 Y169.545 E11.43064
G1 X166.358 Y170.162 E11.51237
G1 X166.146 Y170.811 E11.59412
G1 X166.017 Y171.482 E11.67594
G1 X165.975 Y172.163 E11.75763
G1 X166.018 Y172.845 E11.83946
G1 X166.148 Y173.515 E11.92118
G1 X166.361 Y174.164 E12.00296
G1 X166.657 Y174.786 E12.08544
G1 X167.19 Y175.571 E12.19905
G1 X169.28 Y178.116 E12.59337
G1 X169.611 Y178.568 E12.66045
G1 X169.843 Y178.942 E12.71315
G1 X172.108 Y183.179 E13.28841
G1 X172.347 Y183.691 E13.35607
G1 X172.511 Y184.14 E13.4133
G1 X173.895 Y188.7 E13.98389
G1 X174.028 Y189.239 E14.05037
G1 X174.102 Y189.719 E14.10852
G1 X174.57 Y194.462 E14.67919
G1 X174.594 Y195.043 E14.74882
G1 X174.578 Y195.452 E14.79782
G1 X174.103 Y200.264 E15.3768
G1 X174.017 Y200.817 E15.44381
G1 X173.91 Y201.251 E15.49733
G1 X172.52 Y205.832 E16.07054
G1 X172.323 Y206.369 E16.13902
G1 X172.153 Y206.735 E16.18734
G1 X169.882 Y210.983 E16.76411
G1 X169.599 Y211.45 E16.82949
G1 X169.319 Y211.834 E16.8864
G1 X166.28 Y215.538 E17.46007
G1 X165.911 Y215.939 E17.52532
G1 X165.575 Y216.25 E17.58014
G1 X161.882 Y219.281 E18.15219
G1 X161.431 Y219.611 E18.2191
G1 X161.053 Y219.845 E18.27234
G1 X156.81 Y222.113 E18.8484
G1 X156.308 Y222.347 E18.91472
G1 X155.852 Y222.513 E18.97282
G1 X151.288 Y223.898 E19.54391
G1 X150.75 Y224.03 E19.61024
G1 X150.28 Y224.102 E19.66717
G1 X145.532 Y224.57 E20.23843
G1 X144.962 Y224.594 E20.30675
G1 X144.524 Y224.575 E20.35924
G1 X139.734 Y224.103 E20.93555
G1 X139.182 Y224.017 E21.00245
G1 X138.748 Y223.91 E21.05597
G1 X134.167 Y222.519 E21.62921
G1 X133.63 Y222.323 E21.69766
G1 X133.262 Y222.152 E21.74625
G1 X129.016 Y219.882 E22.32274
G1 X128.549 Y219.599 E22.38812
G1 X128.165 Y219.319 E22.44503
G1 X124.461 Y216.28 E23.0187
G1 X124.055 Y215.907 E23.08472
G1 X123.749 Y215.575 E23.13878
G1 X120.707 Y211.867 E23.71305
G1 X120.388 Y211.431 E23.77774
G1 X120.143 Y211.034 E23.8336
G1 X117.885 Y206.808 E24.40731
G1 X117.652 Y206.308 E24.47336
G1 X117.486 Y205.852 E24.53146
G1 X116.101 Y201.288 E25.10255
G1 X115.97 Y200.751 E25.16873
G1 X115.898 Y200.292 E25.22436
G1 X115.43 Y195.529 E25.79741
G1 X115.406 Y194.953 E25.86644
G1 X115.427 Y194.504 E25.92026
G1 X115.893 Y189.766 E26.49031
G1 X115.982 Y189.188 E26.56033
G1 X116.092 Y188.74 E26.61557
G1 X117.48 Y184.167 E27.18779
G1 X117.678 Y183.626 E27.25677
G1 X117.846 Y183.264 E27.30455
G1 X120.117 Y179.016 E27.88132
G1 X120.4 Y178.549 E27.9467
G1 X120.68 Y178.165 E28.00361
G1 X122.122 Y176.407 E28.27586
G1 X122.513 Y175.863 E28.35607
G1 X122.84 Y175.264 E28.43779
G1 X123.087 Y174.627 E28.51959
G1 X123.252 Y173.964 E28.6014
G1 X123.333 Y173.287 E28.68304
G1 X123.327 Y172.604 E28.76482
G1 X123.235 Y171.927 E28.84663
G1 X123.059 Y171.268 E28.9283
G1 X122.8 Y170.635 E29.01019
G1 X122.464 Y170.041 E29.0919
G1 X122.053 Y169.49 E29.17421
G1 X121.414 Y168.857 E29.28191
G1 X120.94 Y168.438 E29.35766
G1 X120.55 Y167.99 E29.42878
G1 X120.228 Y167.508 E29.49819
G1 X119.973 Y166.994 E29.56689
G1 X119.776 Y166.43 E29.63842
G1 X119.662 Y165.853 E29.70884
G1 X119.612 Y165.299 E29.77545
G1 X119.602 Y165.077 E29.80206
G1 X119.602 Y145.907 E32.0974
G1 X119.564 Y145.146 E32.18864
G1 X119.602 Y144.328 E32.28669
G1 X119.602 Y125.282 E34.56719
G1 X119.63 Y124.779 E34.62751
G1 X119.722 Y124.197 E34.69806
G1 X119.882 Y123.648 E34.76653
G1 X120.115 Y123.111 E34.83662
G1 X120.41 Y122.614 E34.90582
G1 X120.761 Y122.166 E34.97397
G1 X120.938 Y121.99 E35.00386
G0 F810 X121.183 Y121.746
G0 F6000 X121.6 Y121.425
G1 F900 X121.6 Y169.041 E40.70523
G0 F6000 X120 Y167.048
G1 F900 X120 Y123.376 E45.93436
G0 F6000 X123.2 Y120.725
G1 F900 X123.2 Y171.795 E52.0493
G0 F6000 X123.2 Y174.172
G1 F900 X123.2 Y214.905 E56.92653
G0 F6000 X124.8 Y216.558
G1 F900 X124.8 Y120.606 E68.41549
G0 F6000 X126.4 Y120.606
G1 F900 X126.4 Y217.87 E80.06153
G0 F6000 X128 Y219.183
G1 F900 X128 Y120.606 E91.8648
G0 F6000 X129.6 Y120.606
G1 F900 X129.6 Y220.194 E103.78912
G0 F6000 X131.2 Y221.049
G1 F900 X131.2 Y120.606 E115.81581
G0 F6000 X132.8 Y120.606
G1 F900 X132.8 Y221.905 E127.94499
G0 F6000 X134.4 Y222.589
G1 F900 X134.4 Y120.606 E140.15608
G0 F6000 X136 Y120.606
G1 F900 X136 Y223.075 E152.42536
G0 F6000 X137.6 Y223.561
G1 F900 X137.6 Y120.606 E164.75283
G0 F6000 X139.2 Y120.606
G1 F900 X139.2 Y224.019 E177.13514
G0 F6000 X140.8 Y224.208
G1 F900 X140.8 Y120.606 E189.54008
G0 F6000 X142.4 Y120.606
G1 F900 X142.4 Y224.365 E201.96381
G0 F6000 X144 Y224.523
G1 F900 X144 Y120.581 E214.40946
G0 F6000 X145.6 Y120.606
G1 F900 X145.6 Y224.564 E226.85703
G0 F6000 X147.2 Y224.406
G1 F900 X147.2 Y120.606 E239.28568
G0 F6000 X148.8 Y120.606
G1 F900 X148.8 Y224.248 E251.69541
G0 F6000 X150.4 Y224.084
G1 F900 X150.4 Y120.606 E264.0855
G0 F6000 X152 Y120.606
G1 F900 X152 Y223.682 E276.42746
G0 F6000 X153.6 Y223.197
G1 F900 X153.6 Y120.606 E288.71134
G0 F6000 X155.2 Y120.606
G1 F900 X155.2 Y222.711 E300.93704
G0 F6000 X156.8 Y222.118
G1 F900 X156.8 Y120.606 E313.09173
G0 F6000 X158.4 Y120.606
G1 F900 X158.4 Y221.264 E325.14416
G0 F6000 X160 Y220.408
G1 F900 X160 Y120.606 E337.0941
G0 F6000 X161.6 Y120.606
G1 F900 X161.6 Y219.488 E348.93389
G0 F6000 X163.2 Y218.2
G1 F900 X163.2 Y120.606 E360.61945
G0 F6000 X164.8 Y120.66
G1 F900 X164.8 Y216.887 E372.14133
G0 F6000 X166.4 Y215.392
G1 F900 X166.4 Y174.246 E377.06801
G0 F6000 X168 Y176.558
G1 F900 X168 Y213.442 E381.48437
G0 F6000 X169.6 Y211.449
G1 F900 X169.6 Y178.553 E385.42322
G0 F6000 X171.2 Y181.481
G1 F900 X171.2 Y208.518 E388.66054
G0 F6000 X172.8 Y204.91
G1 F900 X172.8 Y185.093 E391.03335
G0 F6000 X174.4 Y192.74
G1 F900 X174.4 Y197.256 E391.57408
G0 F6000 X166.595 Y173.398
G0 X166.4 Y170.074
G1 F900 X166.4 Y121.183 E397.42812
G0 F6000 X168 Y122.642
G1 F900 X168 Y167.788 E402.83374
G0 F6000 X121.6 Y177.043
G1 F900 X121.6 Y212.955 E407.13372
G0 F6000 X120 Y210.766
G1 F900 X120 Y179.234 E410.90925
G0 F6000 X118.4 Y182.227
G1 F900 X118.4 Y207.771 E413.9678
G0 F6000 X116.8 Y203.591
G1 F900 X116.8 Y186.407 E416.02535
G0 F600 X116.8 Y186.407 Z0.66
G0 F6000 X120.143 Y211.033
;TIME_ELAPSED:240.448425
;LAYER:-5
;TYPE:SUPPORT
G1 F900 X120.252 Y211.221 E416.04704
G1 X120.387 Y211.43 E416.07186
G1 X120.619 Y211.754 E416.11162
G1 X120.707 Y211.866 E416.12584
G1 X123.749 Y215.574 E416.6044
G1 X123.894 Y215.74 E416.62639
G1 X124.054 Y215.906 E416.6494
G1 X124.361 Y216.192 E416.69126
G1 X124.461 Y216.279 E416.70449
G1 X128.165 Y219.318 E417.18255
G1 X128.346 Y219.459 E417.20544
G1 X128.548 Y219.598 E417.22991
G1 X128.873 Y219.799 E417.26804
G1 X129.016 Y219.881 E417.28449
G1 X129.778 Y220.288 E417.37069
G1 X119.706 Y210.215 E418.79202
G1 X118.082 Y207.178 E419.13566
G1 X132.817 Y221.913 E421.21493
G1 X133.262 Y222.151 E421.26528
G1 X133.455 Y222.245 E421.2867
G1 X133.629 Y222.322 E421.30569
G1 X134.051 Y222.479 E421.35062
G1 X134.167 Y222.518 E421.36283
G1 X135.129 Y222.81 E421.46314
G1 X117.187 Y204.868 E423.99495
G1 X116.57 Y202.837 E424.20675
G1 X137.159 Y223.426 E427.11208
G1 X138.747 Y223.908 E427.27767
G1 X138.99 Y223.974 E427.3028
G1 X139.157 Y224.01 E427.31984
G1 X115.991 Y200.844 E430.58881
G1 X115.969 Y200.75 E430.59845
G1 X115.928 Y200.517 E430.62205
G1 X115.898 Y200.291 E430.6448
G1 X115.793 Y199.232 E430.75099
G1 X140.764 Y224.203 E434.27466
G1 X142.333 Y224.357 E434.43197
G1 X115.639 Y197.663 E438.19878
G1 X115.485 Y196.095 E438.35599
G1 X143.902 Y224.512 E442.36594
G1 X144.524 Y224.574 E442.42831
G1 X144.756 Y224.59 E442.45151
G1 X144.961 Y224.593 E442.47197
G1 X145.382 Y224.578 E442.514
G1 X115.418 Y194.614 E446.74225
G1 X115.427 Y194.503 E446.75336
G1 X115.542 Y193.324 E446.87156
G1 X146.674 Y224.456 E451.26462
G1 X147.962 Y224.329 E451.39376
G1 X115.669 Y192.036 E455.95065
G1 X115.795 Y190.749 E456.07968
G1 X149.249 Y224.203 E460.80041
G1 X150.279 Y224.101 E460.90368
G1 X150.529 Y224.068 E460.92884
G1 X115.935 Y189.474 E465.81043
G1 X115.981 Y189.187 E465.83943
G1 X116.024 Y188.987 E465.85985
G1 X116.092 Y188.738 E465.8856
G1 X116.212 Y188.337 E465.92737
G1 X151.659 Y223.784 E470.92932
G1 X152.744 Y223.454 E471.04248
G1 X116.542 Y187.253 E476.1509
G1 X116.872 Y186.168 E476.26406
G1 X153.828 Y223.125 E481.47902
G1 X154.914 Y222.796 E481.59225
G1 X117.201 Y185.083 E486.91396
G1 X117.48 Y184.165 E487.00969
G1 X117.519 Y184.05 E487.02181
G1 X117.535 Y184.004 E487.02667
G1 X155.996 Y222.464 E492.45386
G1 X156.081 Y222.435 E492.46282
G1 X156.308 Y222.346 E492.48715
G1 X156.665 Y222.183 E492.52631
G1 X156.81 Y222.112 E492.54242
G1 X156.972 Y222.025 E492.56077
G1 X117.972 Y183.026 E498.06402
G1 X118.464 Y182.104 E498.16829
G1 X157.893 Y221.533 E503.73215
G1 X158.814 Y221.04 E503.83639
G1 X118.957 Y181.182 E509.46071
G1 X119.45 Y180.261 E509.56495
G1 X159.736 Y220.548 E515.24981
G1 X160.658 Y220.055 E515.35413
G1 X119.942 Y179.339 E521.0996
G1 X120.116 Y179.014 E521.13638
G1 X120.192 Y178.882 E521.15158
G1 X120.399 Y178.547 E521.19087
G1 X120.466 Y178.449 E521.20272
G1 X161.544 Y219.527 E526.99927
G1 X161.757 Y219.375 E527.02538
G1 X161.881 Y219.28 E527.04096
G1 X162.336 Y218.905 E527.0998
G1 X121.092 Y177.66 E532.91984
G1 X121.729 Y176.883 E533.02009
G1 X163.113 Y218.268 E538.85989
G1 X163.891 Y217.631 E538.96022
G1 X122.349 Y176.089 E544.82225
G1 X122.512 Y175.862 E544.85013
G1 X122.84 Y175.263 E544.91828
G1 X122.866 Y175.192 E544.92582
G1 X164.667 Y216.993 E550.82439
G1 X165.444 Y216.356 E550.92465
G1 X123.211 Y174.123 E556.88418
G1 X123.252 Y173.963 E556.90066
G1 X123.333 Y173.286 E556.96869
G1 X123.328 Y172.826 E557.0146
G1 X166.166 Y215.664 E563.0595
G1 X166.199 Y215.627 E563.06445
G1 X166.28 Y215.537 E563.07653
G1 X166.81 Y214.893 E563.15975
G1 X122.972 Y171.055 E569.34577
G1 X122.799 Y170.634 E569.39118
G1 X122.463 Y170.04 E569.45928
G1 X122.052 Y169.489 E569.52787
G1 X121.413 Y168.856 E569.61761
G1 X121.143 Y168.63 E569.65275
G1 X120.94 Y168.437 E569.68069
G1 X120.742 Y168.224 E569.70971
G1 X120.549 Y167.989 E569.74005
G1 X120.389 Y167.766 E569.76744
G1 X120.227 Y167.507 E569.79792
G1 X120.099 Y167.268 E569.82497
G1 X119.973 Y166.993 E569.85516
G1 X119.87 Y166.732 E569.88315
G1 X119.783 Y166.452 E569.91241
G1 X167.447 Y214.116 E576.63832
G1 X168.084 Y213.339 E576.73857
G1 X119.602 Y164.856 E583.57997
G1 X119.602 Y163.442 E583.72106
G1 X168.721 Y212.561 E590.65228
G1 X169.318 Y211.832 E590.7463
G1 X169.357 Y211.784 E590.75247
G1 X119.602 Y162.028 E597.77351
G1 X119.602 Y160.614 E597.9146
G1 X169.913 Y210.925 E605.01403
G1 X170.405 Y210.003 E605.1183
G1 X119.602 Y159.2 E612.28716
G1 X119.602 Y157.785 E612.42835
G1 X170.898 Y209.082 E619.66684
G1 X171.391 Y208.16 E619.77116
G1 X119.602 Y156.371 E627.07915
G1 X119.602 Y154.957 E627.22024
G1 X171.883 Y207.238 E634.59765
G1 X172.152 Y206.734 E634.65465
G1 X172.245 Y206.543 E634.67585
G1 X172.322 Y206.368 E634.69493
G1 X172.351 Y206.292 E634.70305
G1 X119.602 Y153.543 E642.1465
G1 X119.602 Y152.129 E642.28759
G1 X172.703 Y205.229 E649.78064
G1 X173.031 Y204.144 E649.89374
G1 X119.602 Y150.714 E657.43322
G1 X119.602 Y149.3 E657.57431
G1 X173.361 Y203.059 E665.16029
G1 X173.69 Y201.974 E665.27342
G1 X119.602 Y147.886 E672.90582
G1 X119.602 Y146.472 E673.04691
G1 X174.004 Y200.874 E680.72362
G1 X174.016 Y200.816 E680.72953
G1 X174.092 Y200.354 E680.77625
G1 X174.103 Y200.263 E680.78539
G1 X174.166 Y199.622 E680.84966
G1 X119.568 Y145.024 E688.55403
G1 X119.592 Y144.656 E688.59082
G1 X119.602 Y144.326 E688.62377
G1 X119.602 Y143.643 E688.69192
G1 X174.293 Y198.334 E696.40941
G1 X174.42 Y197.048 E696.53835
G1 X119.602 Y142.229 E704.27383
G1 X119.602 Y140.815 E704.41492
G1 X174.547 Y195.76 E712.16825
G1 X174.577 Y195.451 E712.19923
G1 X174.591 Y195.242 E712.22013
G1 X174.593 Y195.041 E712.24019
G1 X174.579 Y194.598 E712.28441
G1 X174.57 Y194.461 E712.29811
G1 X174.56 Y194.359 E712.30834
G1 X119.602 Y139.401 E720.06351
G1 X119.602 Y137.986 E720.2047
G1 X174.405 Y192.79 E727.93806
G1 X174.25 Y191.221 E728.09538
G1 X119.602 Y136.572 E735.80687
G1 X119.602 Y135.158 E735.94796
G1 X174.093 Y189.65 E743.6373
G1 X174.069 Y189.461 E743.65631
G1 X174.028 Y189.238 E743.67894
G1 X173.934 Y188.846 E743.71916
G1 X173.895 Y188.699 E743.73433
G1 X173.607 Y187.749 E743.83339
G1 X119.602 Y133.744 E751.45407
G1 X119.602 Y132.33 E751.59516
G1 X172.99 Y185.718 E759.12879
G1 X172.511 Y184.139 E759.29343
G1 X172.437 Y183.919 E759.31659
G1 X172.346 Y183.69 E759.34118
G1 X172.321 Y183.635 E759.34721
G1 X119.602 Y130.915 E766.7865
G1 X119.602 Y129.501 E766.92759
G1 X170.764 Y180.663 E774.1471
G1 X169.843 Y178.941 E774.34195
G1 X169.745 Y178.775 E774.36119
G1 X169.61 Y178.567 E774.38593
G1 X169.369 Y178.231 E774.42719
G1 X169.28 Y178.115 E774.44178
G1 X167.671 Y176.157 E774.69465
G1 X119.602 Y128.087 E781.47777
G1 X119.602 Y126.673 E781.61886
G1 X166.077 Y173.148 E788.17699
G1 X166.018 Y172.844 E788.20789
G1 X165.974 Y172.162 E788.27608
G1 X166.006 Y171.662 E788.32607
G1 X119.602 Y125.259 E794.87411
G1 X119.605 Y125.155 E794.88449
G1 X119.63 Y124.778 E794.92219
G1 X119.666 Y124.48 E794.95214
G1 X119.721 Y124.196 E794.981
G1 X119.769 Y124.012 E794.99998
G1 X166.249 Y170.492 E801.55881
G1 X166.358 Y170.161 E801.59358
