;FLAVOR:Marlin
;TIME:4447
;Filament used: 1.60554m, 0.799694m, 0.727733m, 0.773037m
;Layer height: 0.2
;MINX:120.859
;MINY:114.539
;MINZ:0.3
;MAXX:180.53
;MAXY:211.8
;MAXZ:6.1
;Generated with Cura_SteamEngine 4.12.1
T0
M140 S70
M105
M190 S70
M104 S205
M105
M109 S205
M82 ;absolute extrusion mode
;Z9E4 start gcode
G90 
G28 ;Home
G1 Z15.0 F6000 ;Move the platform down 15mm
;Pre-load E1
T0 
G92 E0
G1 E20 F1200
G1 E40 F180
;Pre-load E2
T1 
G92 E0
G1 E40 F1200
G1 E15 F600
;Pre-load E3
T2 
G92 E0
G1 E40 F1200
G1 E15 F600
;Pre-load E4
T3
G92 E0
G1 E40 F1200
G1 E15 F600
G1 Z5 F240
G1 X10 Y10 F1800
G1 Z0.3 F240
;Prime the nozzle
T0
G92 E0

G92 E0
;start gcode of Extruder 1 
G91 ; relative coordinates
G1 E35 F1800; push filament 35mm
G90 ;absolute coordinates
G92 E0 ;reset extrusion distance

G92 E0
G1 F1500 E-10
;LAYER_COUNT:25
;LAYER:0
M107
G0 F3000 X125.321 Y118.72 Z0.3
;TYPE:SKIRT
G1 F1500 E0
G1 X125.92 Y118.205 E0.03941
G1 X126.568 Y117.754 E0.0788
G1 X127.259 Y117.37 E0.11824
G1 X127.984 Y117.058 E0.15762
G1 X128.737 Y116.821 E0.197
G1 X129.511 Y116.662 E0.23642
G1 X130.296 Y116.581 E0.27579
G1 X130.698 Y116.571 E0.29586
G1 X150.108 Y116.571 E1.26422
G1 X150.571 Y116.534 E1.2874
G1 X151.36 Y116.552 E1.32677
G1 X151.514 Y116.571 E1.33451
G1 X170.698 Y116.571 E2.29161
G1 X171.487 Y116.611 E2.33102
G1 X172.267 Y116.73 E2.37038
G1 X173.032 Y116.928 E2.40981
G1 X173.772 Y117.202 E2.44918
G1 X174.481 Y117.55 E2.48858
G1 X175.152 Y117.968 E2.52802
G1 X175.776 Y118.451 E2.56739
G1 X176.349 Y118.994 E2.60677
G1 X176.864 Y119.593 E2.64618
G1 X177.315 Y120.241 E2.68557
G1 X177.699 Y120.932 E2.72501
G1 X178.011 Y121.657 E2.76439
G1 X178.248 Y122.41 E2.80377
G1 X178.407 Y123.184 E2.84319
G1 X178.488 Y123.969 E2.88257
G1 X178.498 Y124.371 E2.90263
G1 X178.498 Y143.781 E3.871
G1 X178.535 Y144.244 E3.89417
G1 X178.517 Y145.033 E3.93354
G1 X178.498 Y145.187 E3.94128
G1 X178.498 Y164.371 E4.89838
G1 X178.458 Y165.16 E4.93779
G1 X178.339 Y165.94 E4.97716
G1 X178.141 Y166.705 E5.01658
G1 X177.867 Y167.445 E5.05595
G1 X177.519 Y168.154 E5.09535
G1 X177.101 Y168.825 E5.13479
G1 X176.618 Y169.449 E5.17416
G1 X176.075 Y170.022 E5.21354
G1 X175.476 Y170.537 E5.25296
G1 X174.828 Y170.988 E5.29234
G1 X174.137 Y171.372 E5.33178
G1 X173.412 Y171.684 E5.37116
G1 X173.038 Y171.802 E5.39073
G1 X173.33 Y172.158 E5.4137
G1 X173.799 Y172.792 E5.45304
G1 X174.181 Y173.43 E5.49014
G1 X175.662 Y176.2 E5.64685
G1 X175.998 Y176.915 E5.68626
G1 X176.247 Y177.615 E5.72333
G1 X177.156 Y180.613 E5.87962
G1 X177.347 Y181.379 E5.91901
G1 X177.454 Y182.11 E5.95587
G1 X177.762 Y185.232 E6.11238
G1 X177.8 Y186.021 E6.15179
G1 X177.762 Y186.763 E6.18886
G1 X177.454 Y189.887 E6.34547
G1 X177.337 Y190.668 E6.38487
G1 X177.157 Y191.385 E6.42175
G1 X176.248 Y194.384 E6.57809
G1 X175.981 Y195.127 E6.61748
G1 X175.662 Y195.798 E6.65455
G1 X174.182 Y198.567 E6.81119
G1 X173.775 Y199.243 E6.85056
G1 X173.331 Y199.84 E6.88768
G1 X171.342 Y202.262 E7.04403
G1 X170.81 Y202.846 E7.08345
G1 X170.264 Y203.34 E7.12018
G1 X167.841 Y205.33 E7.27661
G1 X167.207 Y205.799 E7.31595
G1 X166.569 Y206.181 E7.35305
G1 X163.799 Y207.662 E7.50976
G1 X163.084 Y207.998 E7.54917
G1 X162.384 Y208.248 E7.58626
G1 X159.385 Y209.157 E7.7426
G1 X158.618 Y209.347 E7.78202
G1 X157.888 Y209.454 E7.81883
G1 X154.766 Y209.762 E7.97535
G1 X153.977 Y209.8 E8.01475
G1 X153.234 Y209.762 E8.05187
G1 X150.111 Y209.454 E8.20843
G1 X149.331 Y209.337 E8.24778
G1 X148.614 Y209.157 E8.28467
G1 X145.615 Y208.248 E8.44101
G1 X144.872 Y207.981 E8.4804
G1 X144.2 Y207.662 E8.51751
G1 X141.43 Y206.181 E8.67422
G1 X140.754 Y205.773 E8.71361
G1 X140.158 Y205.33 E8.75066
G1 X137.735 Y203.34 E8.90709
G1 X137.15 Y202.808 E8.94654
G1 X136.657 Y202.262 E8.98324
G1 X134.668 Y199.84 E9.1396
G1 X134.198 Y199.205 E9.17901
G1 X133.817 Y198.567 E9.21608
G1 X132.337 Y195.798 E9.37272
G1 X132 Y195.083 E9.41216
G1 X131.751 Y194.384 E9.44918
G1 X130.842 Y191.385 E9.60552
G1 X130.652 Y190.618 E9.64494
G1 X130.544 Y189.886 E9.68186
G1 X130.237 Y186.766 E9.83827
G1 X130.2 Y185.977 E9.87767
G1 X130.237 Y185.24 E9.91449
G1 X130.544 Y182.114 E10.0712
G1 X130.661 Y181.333 E10.1106
G1 X130.843 Y180.613 E10.14765
G1 X131.752 Y177.615 E10.30394
G1 X132.019 Y176.872 E10.34333
G1 X132.337 Y176.2 E10.38042
G1 X133.818 Y173.43 E10.53713
G1 X134.226 Y172.754 E10.57652
G1 X134.659 Y172.171 E10.61275
G1 X130.698 Y172.171 E10.81037
G1 X129.909 Y172.131 E10.84978
G1 X129.129 Y172.012 E10.88915
G1 X128.364 Y171.814 E10.92857
G1 X127.624 Y171.54 E10.96794
G1 X126.915 Y171.192 E11.00734
G1 X126.244 Y170.774 E11.04678
G1 X125.62 Y170.291 E11.08615
G1 X125.047 Y169.748 E11.12553
G1 X124.532 Y169.149 E11.16494
G1 X124.081 Y168.501 E11.20433
G1 X123.697 Y167.81 E11.24377
G1 X123.385 Y167.085 E11.28315
G1 X123.148 Y166.332 E11.32253
G1 X122.989 Y165.558 E11.36196
G1 X122.908 Y164.773 E11.40133
G1 X122.898 Y164.371 E11.42139
G1 X122.898 Y145.084 E12.38362
G1 X122.886 Y144.997 E12.388
G1 X122.859 Y144.208 E12.42739
G1 X122.898 Y143.617 E12.45694
G1 X122.898 Y124.371 E13.41713
G1 X122.938 Y123.582 E13.45654
G1 X123.057 Y122.802 E13.4959
G1 X123.255 Y122.037 E13.53533
G1 X123.529 Y121.297 E13.5747
G1 X123.877 Y120.588 E13.6141
G1 X124.295 Y119.917 E13.65354
G1 X124.778 Y119.293 E13.69291
G1 X125.321 Y118.72 E13.73229
G0 F3000 X125.714 Y118.901
G1 F1500 X126.309 Y118.413 E13.77068
G1 X126.951 Y117.99 E13.80904
G1 X127.634 Y117.635 E13.84744
G1 X128.349 Y117.354 E13.88577
G1 X129.091 Y117.148 E13.92419
G1 X129.849 Y117.02 E13.96254
G1 X130.698 Y116.971 E14.00497
G1 X150.119 Y116.971 E14.97389
G1 X150.622 Y116.933 E14.99905
G1 X151.391 Y116.955 E15.03743
G1 X151.511 Y116.971 E15.04347
G1 X170.698 Y116.971 E16.00072
G1 X171.466 Y117.011 E16.03909
G1 X172.226 Y117.13 E16.07746
G1 X172.969 Y117.328 E16.11583
G1 X173.688 Y117.602 E16.15421
G1 X174.374 Y117.949 E16.19257
G1 X175.021 Y118.365 E16.23094
G1 X175.621 Y118.846 E16.26931
G1 X176.168 Y119.387 E16.30769
G1 X176.656 Y119.982 E16.34608
G1 X177.079 Y120.624 E16.38444
G1 X177.434 Y121.307 E16.42284
G1 X177.715 Y122.022 E16.46117
G1 X177.921 Y122.764 E16.49959
G1 X178.049 Y123.522 E16.53794
G1 X178.098 Y124.371 E16.58037
G1 X178.098 Y143.792 E17.54929
G1 X178.136 Y144.295 E17.57445
G1 X178.114 Y145.064 E17.61283
G1 X178.098 Y145.184 E17.61887
G1 X178.098 Y164.371 E18.57612
G1 X178.058 Y165.139 E18.61448
G1 X177.939 Y165.899 E18.65286
G1 X177.741 Y166.642 E18.69122
G1 X177.467 Y167.361 E18.72961
G1 X177.12 Y168.047 E18.76797
G1 X176.704 Y168.694 E18.80634
G1 X176.223 Y169.294 E18.84471
G1 X175.682 Y169.841 E18.88309
G1 X175.087 Y170.329 E18.92148
G1 X174.445 Y170.752 E18.95984
G1 X173.762 Y171.107 E18.99824
G1 X173.047 Y171.388 E19.03657
G1 X172.342 Y171.584 E19.07308
G1 X173.021 Y172.411 E19.12646
G1 X173.477 Y173.03 E19.16482
G1 X173.828 Y173.619 E19.19902
G1 X175.309 Y176.389 E19.35573
G1 X175.636 Y177.085 E19.3941
G1 X175.865 Y177.731 E19.42829
G1 X176.774 Y180.729 E19.58459
G1 X176.958 Y181.475 E19.62292
G1 X177.056 Y182.149 E19.6569
G1 X177.364 Y185.271 E19.81341
G1 X177.4 Y186.04 E19.85182
G1 X177.364 Y186.724 E19.88599
G1 X177.056 Y189.848 E20.04261
G1 X176.941 Y190.609 E20.081
G1 X176.774 Y191.269 E20.11497
G1 X175.865 Y194.268 E20.27131
G1 X175.604 Y194.991 E20.30966
G1 X175.309 Y195.609 E20.34382
G1 X173.829 Y198.378 E20.50046
G1 X173.432 Y199.037 E20.53885
G1 X173.022 Y199.586 E20.57303
G1 X171.033 Y202.008 E20.72939
G1 X170.514 Y202.577 E20.76781
G1 X170.011 Y203.031 E20.80162
G1 X167.588 Y205.021 E20.95805
G1 X166.969 Y205.477 E20.9964
G1 X166.38 Y205.828 E21.03061
G1 X163.61 Y207.309 E21.18732
G1 X162.914 Y207.636 E21.22568
G1 X162.268 Y207.865 E21.25988
G1 X159.269 Y208.774 E21.41622
G1 X158.522 Y208.958 E21.4546
G1 X157.849 Y209.056 E21.48853
G1 X154.727 Y209.364 E21.64505
G1 X153.958 Y209.4 E21.68345
G1 X153.274 Y209.364 E21.71763
G1 X150.151 Y209.056 E21.87419
G1 X149.39 Y208.941 E21.91259
G1 X148.73 Y208.774 E21.94655
G1 X145.731 Y207.865 E22.10289
G1 X145.008 Y207.604 E22.14124
G1 X144.389 Y207.309 E22.17545
G1 X141.619 Y205.828 E22.33216
G1 X140.96 Y205.43 E22.37057
G1 X140.411 Y205.021 E22.40472
G1 X137.988 Y203.031 E22.56115
G1 X137.42 Y202.512 E22.59954
G1 X136.966 Y202.008 E22.63338
G1 X134.977 Y199.586 E22.78974
G1 X134.521 Y198.967 E22.8281
G1 X134.17 Y198.378 E22.8623
G1 X132.69 Y195.609 E23.01894
G1 X132.363 Y194.913 E23.05731
G1 X132.134 Y194.268 E23.09146
G1 X131.225 Y191.269 E23.2478
G1 X131.041 Y190.522 E23.28618
G1 X130.943 Y189.847 E23.32021
G1 X130.636 Y186.727 E23.47662
G1 X130.6 Y185.958 E23.51503
G1 X130.635 Y185.279 E23.54895
G1 X130.942 Y182.153 E23.70565
G1 X131.057 Y181.392 E23.74405
G1 X131.225 Y180.729 E23.77817
G1 X132.134 Y177.731 E23.93447
G1 X132.395 Y177.007 E23.97286
G1 X132.69 Y176.389 E24.00703
G1 X134.171 Y173.619 E24.16374
G1 X134.569 Y172.96 E24.20215
G1 X134.978 Y172.412 E24.23626
G1 X135.504 Y171.771 E24.27763
G1 X130.698 Y171.771 E24.5174
G1 X129.93 Y171.731 E24.55577
G1 X129.17 Y171.612 E24.59415
G1 X128.427 Y171.414 E24.63251
G1 X127.708 Y171.14 E24.6709
G1 X127.022 Y170.793 E24.70925
G1 X126.375 Y170.377 E24.74763
G1 X125.775 Y169.896 E24.78599
G1 X125.228 Y169.355 E24.82437
G1 X124.74 Y168.76 E24.86277
G1 X124.317 Y168.118 E24.90112
G1 X123.962 Y167.435 E24.93953
G1 X123.681 Y166.72 E24.97785
G1 X123.475 Y165.978 E25.01627
G1 X123.347 Y165.22 E25.05462
G1 X123.298 Y164.371 E25.09705
G1 X123.298 Y145.044 E26.06128
G1 X123.282 Y144.923 E26.06737
G1 X123.26 Y144.154 E26.10575
G1 X123.298 Y143.651 E26.13092
G1 X123.298 Y124.371 E27.0928
G1 X123.338 Y123.603 E27.13117
G1 X123.457 Y122.843 E27.16955
G1 X123.655 Y122.1 E27.20791
G1 X123.929 Y121.381 E27.2463
G1 X124.276 Y120.695 E27.28465
G1 X124.692 Y120.048 E27.32302
G1 X125.173 Y119.448 E27.36139
G1 X125.714 Y118.901 E27.39977
G0 F3000 X126.106 Y119.087
G1 F1500 X126.696 Y118.628 E27.43707
G1 X127.332 Y118.233 E27.47442
G1 X128.006 Y117.909 E27.51173
G1 X128.711 Y117.659 E27.54905
G1 X129.439 Y117.485 E27.58639
G1 X130.181 Y117.39 E27.62371
G1 X130.698 Y117.371 E27.64952
G1 X150.123 Y117.371 E28.61864
G1 X150.672 Y117.332 E28.6461
G1 X151.42 Y117.359 E28.68344
G1 X151.503 Y117.371 E28.68762
G1 X170.698 Y117.371 E29.64527
G1 X171.445 Y117.411 E29.68259
G1 X172.183 Y117.53 E29.71988
G1 X172.905 Y117.728 E29.75723
G1 X173.601 Y118.001 E29.79453
G1 X174.264 Y118.348 E29.83186
G1 X174.887 Y118.763 E29.86921
G1 X175.461 Y119.242 E29.90651
G1 X175.982 Y119.779 E29.94384
G1 X176.441 Y120.369 E29.98113
G1 X176.836 Y121.005 E30.01848
G1 X177.16 Y121.679 E30.05579
G1 X177.41 Y122.384 E30.09311
G1 X177.584 Y123.112 E30.13045
G1 X177.679 Y123.854 E30.16777
G1 X177.698 Y124.371 E30.19359
G1 X177.698 Y143.796 E31.1627
G1 X177.737 Y144.345 E31.19016
G1 X177.71 Y145.093 E31.2275
G1 X177.698 Y145.176 E31.23169
G1 X177.698 Y164.371 E32.18933
G1 X177.658 Y165.118 E32.22665
G1 X177.539 Y165.856 E32.26395
G1 X177.341 Y166.578 E32.3013
G1 X177.068 Y167.274 E32.3386
G1 X176.721 Y167.937 E32.37593
G1 X176.306 Y168.56 E32.41328
G1 X175.827 Y169.134 E32.45057
G1 X175.29 Y169.655 E32.4879
G1 X174.7 Y170.114 E32.5252
G1 X174.064 Y170.509 E32.56255
G1 X173.39 Y170.833 E32.59986
G1 X172.685 Y171.083 E32.63718
G1 X171.957 Y171.257 E32.67452
G1 X171.593 Y171.304 E32.69283
G1 X172.711 Y172.665 E32.7807
G1 X173.155 Y173.268 E32.81806
G1 X173.475 Y173.808 E32.84938
G1 X174.956 Y176.578 E33.00609
G1 X175.273 Y177.255 E33.04338
G1 X175.482 Y177.847 E33.0747
G1 X176.391 Y180.845 E33.231
G1 X176.569 Y181.571 E33.26829
G1 X176.658 Y182.189 E33.29944
G1 X176.966 Y185.311 E33.45595
G1 X177 Y186.058 E33.49326
G1 X176.966 Y186.685 E33.52459
G1 X176.658 Y189.809 E33.6812
G1 X176.545 Y190.548 E33.7185
G1 X176.391 Y191.152 E33.74959
G1 X175.482 Y194.151 E33.90594
G1 X175.227 Y194.855 E33.94329
G1 X174.957 Y195.421 E33.97458
G1 X173.477 Y198.19 E34.13122
G1 X173.089 Y198.83 E34.16856
G1 X172.713 Y199.333 E34.19989
G1 X170.724 Y201.755 E34.35625
G1 X170.219 Y202.306 E34.39354
G1 X169.757 Y202.721 E34.42452
G1 X167.334 Y204.711 E34.58095
G1 X166.731 Y205.155 E34.61831
G1 X166.191 Y205.475 E34.64962
G1 X163.421 Y206.956 E34.80633
G1 X162.744 Y207.273 E34.84363
G1 X162.151 Y207.482 E34.87499
G1 X159.152 Y208.391 E35.03134
G1 X158.426 Y208.569 E35.06863
G1 X157.809 Y208.658 E35.09973
G1 X154.687 Y208.966 E35.25624
G1 X153.94 Y209 E35.29355
G1 X153.313 Y208.966 E35.32488
G1 X150.19 Y208.658 E35.48144
G1 X149.451 Y208.545 E35.51874
G1 X148.847 Y208.391 E35.54984
G1 X145.848 Y207.482 E35.70618
G1 X145.144 Y207.227 E35.74353
G1 X144.578 Y206.956 E35.77484
G1 X141.808 Y205.475 E35.93155
G1 X141.168 Y205.088 E35.96886
G1 X140.665 Y204.711 E36.00022
G1 X138.242 Y202.721 E36.15665
G1 X137.69 Y202.216 E36.19398
G1 X137.275 Y201.755 E36.22492
G1 X135.286 Y199.333 E36.38128
G1 X134.843 Y198.73 E36.41861
G1 X134.522 Y198.19 E36.44995
G1 X133.042 Y195.421 E36.60659
G1 X132.726 Y194.743 E36.64391
G1 X132.517 Y194.151 E36.67523
G1 X131.608 Y191.152 E36.83158
G1 X131.43 Y190.426 E36.86887
G1 X131.341 Y189.807 E36.90007
G1 X131.034 Y186.687 E37.05648
G1 X131 Y185.94 E37.09378
G1 X131.034 Y185.318 E37.12486
G1 X131.341 Y182.192 E37.28157
G1 X131.453 Y181.452 E37.31891
G1 X131.608 Y180.845 E37.35016
G1 X132.517 Y177.847 E37.50646
G1 X132.772 Y177.144 E37.54377
G1 X133.043 Y176.578 E37.57508
G1 X134.524 Y173.808 E37.73178
G1 X134.911 Y173.168 E37.7691
G1 X135.287 Y172.666 E37.80039
G1 X136.35 Y171.371 E37.88397
G1 X130.698 Y171.371 E38.16595
G1 X129.951 Y171.331 E38.20328
G1 X129.213 Y171.212 E38.24057
G1 X128.491 Y171.014 E38.27792
G1 X127.795 Y170.741 E38.31522
G1 X127.132 Y170.394 E38.35255
G1 X126.509 Y169.979 E38.3899
G1 X125.935 Y169.5 E38.4272
G1 X125.414 Y168.963 E38.46453
G1 X124.955 Y168.373 E38.50182
G1 X124.56 Y167.737 E38.53917
G1 X124.236 Y167.063 E38.57648
G1 X123.986 Y166.358 E38.6138
G1 X123.812 Y165.63 E38.65114
G1 X123.717 Y164.888 E38.68846
G1 X123.698 Y164.371 E38.71427
G1 X123.698 Y145.012 E39.6801
G1 X123.677 Y144.85 E39.68825
G1 X123.662 Y144.102 E39.72557
G1 X123.698 Y143.683 E39.74655
G1 X123.698 Y124.371 E40.71003
G1 X123.738 Y123.624 E40.74736
G1 X123.857 Y122.886 E40.78465
G1 X124.055 Y122.164 E40.822
G1 X124.328 Y121.468 E40.8593
G1 X124.675 Y120.805 E40.89663
G1 X125.09 Y120.182 E40.93398
G1 X125.569 Y119.608 E40.97128
G1 X126.106 Y119.087 E41.00861
G0 F3000 X125.963 Y119.773
G1 F1500 X126.497 Y119.28 E41.04487
G1 X127.082 Y118.85 E41.08109
G1 X127.711 Y118.486 E41.11734
G1 X128.376 Y118.193 E41.1536
G1 X129.069 Y117.975 E41.18984
G1 X129.781 Y117.835 E41.22605
G1 X130.698 Y117.771 E41.27191
G1 X150.117 Y117.771 E42.24072
G1 X150.721 Y117.731 E42.27092
G1 X151.447 Y117.763 E42.30718
G1 X151.498 Y117.771 E42.30975
G1 X170.698 Y117.771 E43.26765
G1 X171.423 Y117.811 E43.30387
G1 X172.14 Y117.93 E43.34013
G1 X172.839 Y118.128 E43.37638
G1 X173.512 Y118.401 E43.41261
G1 X174.151 Y118.746 E43.44884
G1 X174.748 Y119.16 E43.48509
G1 X175.296 Y119.636 E43.5213
G1 X175.789 Y120.17 E43.55756
G1 X176.219 Y120.755 E43.59378
G1 X176.583 Y121.384 E43.63004
G1 X176.876 Y122.049 E43.66629
G1 X177.094 Y122.742 E43.70254
G1 X177.234 Y123.454 E43.73874
G1 X177.298 Y124.371 E43.7846
G1 X177.298 Y143.79 E44.75342
G1 X177.338 Y144.394 E44.78362
G1 X177.306 Y145.12 E44.81987
G1 X177.298 Y145.171 E44.82245
G1 X177.298 Y164.371 E45.78034
G1 X177.258 Y165.096 E45.81656
G1 X177.139 Y165.813 E45.85282
G1 X176.941 Y166.512 E45.88907
G1 X176.668 Y167.185 E45.9253
G1 X176.323 Y167.824 E45.96153
G1 X175.909 Y168.421 E45.99778
G1 X175.433 Y168.969 E46.03399
G1 X174.899 Y169.462 E46.07025
G1 X174.314 Y169.892 E46.10647
G1 X173.685 Y170.256 E46.14273
G1 X173.02 Y170.549 E46.17898
G1 X172.327 Y170.767 E46.21523
G1 X171.615 Y170.907 E46.25143
G1 X170.796 Y170.964 E46.29239
G1 X172.402 Y172.919 E46.41862
G1 X172.832 Y173.505 E46.45488
G1 X173.122 Y173.996 E46.48333
G1 X174.603 Y176.766 E46.64004
G1 X174.91 Y177.425 E46.67631
G1 X175.099 Y177.963 E46.70475
G1 X176.008 Y180.961 E46.86105
G1 X176.18 Y181.667 E46.8973
G1 X176.26 Y182.228 E46.92557
G1 X176.568 Y185.35 E47.08209
G1 X176.6 Y186.076 E47.11834
G1 X176.568 Y186.646 E47.14682
G1 X176.26 Y189.77 E47.30344
