; Generated with "ZONESTAR Laser Engraving Gcode generator V3"
;
M106 S0 ; turn off laser
G21; Set units to millimeters
G90; Use absolute coordinates
G28; home all axes
G92 X-5 Y0 Z0; Coordinate Offset
M0 turn on laser power and press knob ;Wait for laser turn on
;
G1 Z20 F400 ;Move up Z axis before engraving
;
G0 X31.9 Y2.4 F1200
M106 S255
G4 P20
G1 X32.0 Y2.4 F480
M106 S0
G4 P100
G0 X32.4 Y2.5 F1200
M106 S255
G4 P20
G1 X32.0 Y2.5 F480
M106 S0
G4 P100
G0 X32.0 Y2.6 F1200
M106 S255
G4 P20
G1 X32.4 Y2.6 F480
M106 S0
G4 P100
G0 X32.7 Y2.6 F1200
M106 S255
G4 P20
G1 X32.8 Y2.6 F480
M106 S0
G4 P100
G0 X32.9 Y2.7 F1200
M106 S255
G4 P20
G1 X32.0 Y2.7 F480
M106 S0
G4 P100
G0 X31.9 Y2.8 F1200
M106 S255
G4 P20
G1 X32.9 Y2.8 F480
M106 S0
G4 P100
G0 X33.0 Y2.9 F1200
M106 S255
G4 P20
G1 X31.5 Y2.9 F480
M106 S0
G4 P100
G0 X22.3 Y2.9 F1200
M106 S255
G4 P20
G1 X22.3 Y2.9 F480
M106 S0
G4 P100
G0 X22.0 Y3.0 F1200
M106 S255
G4 P20
G1 X22.0 Y3.0 F480
M106 S0
G4 P100
G0 X22.2 Y3.0 F1200
M106 S255
G4 P20
G1 X22.4 Y3.0 F480
M106 S0
G4 P100
G0 X31.3 Y3.0 F1200
M106 S255
G4 P20
G1 X33.3 Y3.0 F480
M106 S0
G4 P100
G0 X33.4 Y3.1 F1200
M106 S255
G4 P20
G1 X31.2 Y3.1 F480
M106 S0
G4 P100
G0 X22.4 Y3.1 F1200
M106 S255
G4 P20
G1 X22.0 Y3.1 F480
M106 S0
G4 P100
G0 X22.0 Y3.2 F1200
M106 S255
G4 P20
G1 X22.3 Y3.2 F480
M106 S0
G4 P100
G0 X31.1 Y3.2 F1200
M106 S255
G4 P20
G1 X33.3 Y3.2 F480
M106 S0
G4 P100
G0 X34.6 Y3.3 F1200
M106 S255
G4 P20
G1 X34.6 Y3.3 F480
M106 S0
G4 P100
G0 X33.2 Y3.3 F1200
M106 S255
G4 P20
G1 X31.1 Y3.3 F480
M106 S0
G4 P100
G0 X29.8 Y3.3 F1200
M106 S255
G4 P20
G1 X29.8 Y3.3 F480
M106 S0
G4 P100
G0 X22.6 Y3.3 F1200
M106 S255
G4 P20
G1 X22.5 Y3.3 F480
M106 S0
G4 P100
G0 X21.8 Y3.3 F1200
M106 S255
G4 P20
G1 X21.7 Y3.3 F480
M106 S0
G4 P100
G0 X21.6 Y3.4 F1200
M106 S255
G4 P20
G1 X22.6 Y3.4 F480
M106 S0
G4 P100
G0 X29.9 Y3.4 F1200
M106 S255
G4 P20
G1 X30.1 Y3.4 F480
M106 S0
G4 P100
G0 X31.1 Y3.4 F1200
M106 S255
G4 P20
G1 X33.6 Y3.4 F480
M106 S0
G4 P100
G0 X34.7 Y3.5 F1200
M106 S255
G4 P20
G1 X34.7 Y3.5 F480
M106 S0
G4 P100
G0 X33.6 Y3.5 F1200
M106 S255
G4 P20
G1 X31.1 Y3.5 F480
M106 S0
G4 P100
G0 X30.2 Y3.5 F1200
M106 S255
G4 P20
G1 X29.9 Y3.5 F480
M106 S0
G4 P100
G0 X29.7 Y3.5 F1200
M106 S255
G4 P20
G1 X29.7 Y3.5 F480
M106 S0
G4 P100
G0 X22.9 Y3.5 F1200
M106 S255
G4 P20
G1 X21.3 Y3.5 F480
M106 S0
G4 P100
G0 X20.4 Y3.6 F1200
M106 S255
G4 P20
G1 X20.6 Y3.6 F480
M106 S0
G4 P100
G0 X21.0 Y3.6 F1200
M106 S255
G4 P20
G1 X23.1 Y3.6 F480
M106 S0
G4 P100
G0 X23.6 Y3.6 F1200
M106 S255
G4 P20
G1 X24.0 Y3.6 F480
M106 S0
G4 P100
G0 X29.6 Y3.6 F1200
M106 S255
G4 P20
G1 X30.3 Y3.6 F480
M106 S0
G4 P100
G0 X31.0 Y3.6 F1200
M106 S255
G4 P20
G1 X33.5 Y3.6 F480
M106 S0
G4 P100
G0 X34.0 Y3.6 F1200
M106 S255
G4 P20
G1 X34.1 Y3.6 F480
M106 S0
G4 P100
G0 X34.8 Y3.6 F1200
M106 S255
G4 P20
G1 X34.8 Y3.6 F480
M106 S0
G4 P100
G0 X34.8 Y3.7 F1200
M106 S255
G4 P20
G1 X34.8 Y3.7 F480
M106 S0
G4 P100
G0 X34.2 Y3.7 F1200
M106 S255
G4 P20
G1 X34.0 Y3.7 F480
M106 S0
G4 P100
G0 X33.5 Y3.7 F1200
M106 S255
G4 P20
G1 X30.9 Y3.7 F480
M106 S0
G4 P100
G0 X30.4 Y3.7 F1200
M106 S255
G4 P20
G1 X29.3 Y3.7 F480
M106 S0
G4 P100
G0 X29.0 Y3.7 F1200
M106 S255
G4 P20
G1 X28.9 Y3.7 F480
M106 S0
G4 P100
G0 X24.2 Y3.7 F1200
M106 S255
G4 P20
G1 X20.9 Y3.7 F480
M106 S0
G4 P100
G0 X20.7 Y3.7 F1200
M106 S255
G4 P20
G1 X20.4 Y3.7 F480
M106 S0
G4 P100
G0 X20.4 Y3.8 F1200
M106 S255
G4 P20
G1 X24.4 Y3.8 F480
M106 S0
G4 P100
G0 X24.7 Y3.8 F1200
M106 S255
G4 P20
G1 X24.7 Y3.8 F480
M106 S0
G4 P100
G0 X25.5 Y3.8 F1200
M106 S255
G4 P20
G1 X25.6 Y3.8 F480
M106 S0
G4 P100
G0 X28.9 Y3.8 F1200
M106 S255
G4 P20
G1 X30.4 Y3.8 F480
M106 S0
G4 P100
G0 X30.8 Y3.8 F1200
M106 S255
G4 P20
G1 X33.5 Y3.8 F480
M106 S0
G4 P100
G0 X33.9 Y3.8 F1200
M106 S255
G4 P20
G1 X34.2 Y3.8 F480
M106 S0
G4 P100
G0 X34.8 Y3.8 F1200
M106 S255
G4 P20
G1 X34.8 Y3.8 F480
M106 S0
G4 P100
G0 X34.8 Y3.9 F1200
M106 S255
G4 P20
G1 X34.7 Y3.9 F480
M106 S0
G4 P100
G0 X34.3 Y3.9 F1200
M106 S255
G4 P20
G1 X30.7 Y3.9 F480
M106 S0
G4 P100
G0 X30.5 Y3.9 F1200
M106 S255
G4 P20
G1 X28.9 Y3.9 F480
M106 S0
G4 P100
G0 X25.6 Y3.9 F1200
M106 S255
G4 P20
G1 X25.6 Y3.9 F480
M106 S0
G4 P100
G0 X24.3 Y3.9 F1200
M106 S255
G4 P20
G1 X20.4 Y3.9 F480
M106 S0
G4 P100
G0 X20.3 Y4.0 F1200
M106 S255
G4 P20
G1 X24.3 Y4.0 F480
M106 S0
G4 P100
G0 X25.3 Y4.0 F1200
M106 S255
G4 P20
G1 X26.0 Y4.0 F480
M106 S0
G4 P100
G0 X26.7 Y4.0 F1200
M106 S255
G4 P20
G1 X26.7 Y4.0 F480
M106 S0
G4 P100
G0 X27.4 Y4.0 F1200
M106 S255
G4 P20
G1 X27.5 Y4.0 F480
M106 S0
G4 P100
G0 X27.7 Y4.0 F1200
M106 S255
G4 P20
G1 X27.9 Y4.0 F480
M106 S0
G4 P100
G0 X28.8 Y4.0 F1200
M106 S255
G4 P20
G1 X34.4 Y4.0 F480
M106 S0
G4 P100
G0 X34.7 Y4.0 F1200
M106 S255
G4 P20
G1 X34.7 Y4.0 F480
M106 S0
G4 P100
G0 X34.9 Y4.0 F1200
M106 S255
G4 P20
G1 X34.9 Y4.0 F480
M106 S0
G4 P100
G0 X34.9 Y4.1 F1200
M106 S255
G4 P20
G1 X34.9 Y4.1 F480
M106 S0
G4 P100
G0 X34.7 Y4.1 F1200
M106 S255
G4 P20
G1 X34.7 Y4.1 F480
M106 S0
G4 P100
G0 X34.5 Y4.1 F1200
M106 S255
G4 P20
G1 X34.3 Y4.1 F480
M106 S0
G4 P100
G0 X34.0 Y4.1 F1200
M106 S255
G4 P20
G1 X28.7 Y4.1 F480
M106 S0
G4 P100
G0 X28.4 Y4.1 F1200
M106 S255
G4 P20
G1 X27.2 Y4.1 F480
M106 S0
G4 P100
G0 X26.2 Y4.1 F1200
M106 S255
G4 P20
G1 X25.2 Y4.1 F480
M106 S0
G4 P100
G0 X24.4 Y4.1 F1200
M106 S255
G4 P20
G1 X20.4 Y4.1 F480
M106 S0
G4 P100
G0 X18.9 Y4.1 F1200
M106 S255
G4 P20
G1 X18.5 Y4.1 F480
M106 S0
G4 P100
G0 X18.0 Y4.1 F1200
M106 S255
G4 P20
G1 X17.7 Y4.1 F480
M106 S0
G4 P100
G0 X17.6 Y4.2 F1200
M106 S255
G4 P20
G1 X19.3 Y4.2 F480
M106 S0
G4 P100
G0 X20.1 Y4.2 F1200
M106 S255
G4 P20
G1 X24.6 Y4.2 F480
M106 S0
G4 P100
G0 X24.9 Y4.2 F1200
M106 S255
G4 P20
G1 X26.4 Y4.2 F480
M106 S0
G4 P100
G0 X27.2 Y4.2 F1200
M106 S255
G4 P20
G1 X35.0 Y4.2 F480
M106 S0
G4 P100
G0 X35.1 Y4.3 F1200
M106 S255
G4 P20
G1 X27.2 Y4.3 F480
M106 S0
G4 P100
G0 X27.0 Y4.3 F1200
M106 S255
G4 P20
G1 X27.0 Y4.3 F480
M106 S0
G4 P100
G0 X26.5 Y4.3 F1200
M106 S255
G4 P20
G1 X24.8 Y4.3 F480
M106 S0
G4 P100
G0 X24.6 Y4.3 F1200
M106 S255
G4 P20
G1 X20.1 Y4.3 F480
M106 S0
G4 P100
G0 X19.4 Y4.3 F1200
M106 S255
G4 P20
G1 X18.0 Y4.3 F480
M106 S0
G4 P100
G0 X17.8 Y4.3 F1200
M106 S255
G4 P20
G1 X17.7 Y4.3 F480
M106 S0
G4 P100
G0 X17.9 Y4.4 F1200
M106 S255
G4 P20
G1 X19.5 Y4.4 F480
M106 S0
G4 P100
G0 X19.9 Y4.4 F1200
M106 S255
G4 P20
G1 X26.7 Y4.4 F480
M106 S0
G4 P100
G0 X26.9 Y4.4 F1200
M106 S255
G4 P20
G1 X35.1 Y4.4 F480
M106 S0
G4 P100
G0 X35.2 Y4.5 F1200
M106 S255
G4 P20
G1 X20.0 Y4.5 F480
M106 S0
G4 P100
G0 X19.6 Y4.5 F1200
M106 S255
G4 P20
G1 X17.9 Y4.5 F480
M106 S0
G4 P100
G0 X15.9 Y4.6 F1200
M106 S255
G4 P20
G1 X15.9 Y4.6 F480
M106 S0
G4 P100
G0 X17.7 Y4.6 F1200
M106 S255
G4 P20
G1 X35.3 Y4.6 F480
M106 S0
G4 P100
G0 X35.3 Y4.7 F1200
M106 S255
G4 P20
G1 X17.5 Y4.7 F480
M106 S0
G4 P100
G0 X17.5 Y4.8 F1200
M106 S255
G4 P20
G1 X35.4 Y4.8 F480
M106 S0
G4 P100
G0 X35.4 Y4.9 F1200
M106 S255
G4 P20
G1 X17.4 Y4.9 F480
M106 S0
G4 P100
G0 X17.3 Y5.0 F1200
M106 S255
G4 P20
G1 X35.4 Y5.0 F480
M106 S0
G4 P100
G0 X35.4 Y5.1 F1200
M106 S255
G4 P20
G1 X17.3 Y5.1 F480
M106 S0
G4 P100
G0 X17.2 Y5.2 F1200
M106 S255
G4 P20
G1 X35.5 Y5.2 F480
M106 S0
G4 P100
G0 X35.5 Y5.3 F1200
M106 S255
G4 P20
G1 X17.2 Y5.3 F480
M106 S0
G4 P100
G0 X13.5 Y5.4 F1200
M106 S255
G4 P20
G1 X13.5 Y5.4 F480
M106 S0
G4 P100
G0 X17.2 Y5.4 F1200
M106 S255
G4 P20
G1 X35.6 Y5.4 F480
M106 S0
G4 P100
G0 X35.6 Y5.5 F1200
M106 S255
G4 P20
G1 X17.2 Y5.5 F480
M106 S0
G4 P100
G0 X13.5 Y5.5 F1200
M106 S255
G4 P20
G1 X13.5 Y5.5 F480
M106 S0
G4 P100
G0 X13.5 Y5.6 F1200
M106 S255
G4 P20
G1 X13.5 Y5.6 F480
M106 S0
G4 P100
G0 X16.4 Y5.6 F1200
M106 S255
G4 P20
G1 X16.4 Y5.6 F480
M106 S0
G4 P100
G0 X17.2 Y5.6 F1200
M106 S255
G4 P20
G1 X35.6 Y5.6 F480
M106 S0
G4 P100
G0 X35.7 Y5.7 F1200
M106 S255
G4 P20
G1 X17.2 Y5.7 F480
M106 S0
G4 P100
G0 X16.9 Y5.7 F1200
M106 S255
G4 P20
G1 X16.9 Y5.7 F480
M106 S0
G4 P100
G0 X16.6 Y5.7 F1200
M106 S255
G4 P20
G1 X16.2 Y5.7 F480
M106 S0
G4 P100
G0 X13.6 Y5.7 F1200
M106 S255
G4 P20
G1 X13.6 Y5.7 F480
M106 S0
G4 P100
G0 X13.6 Y5.8 F1200
M106 S255
G4 P20
G1 X13.6 Y5.8 F480
M106 S0
G4 P100
G0 X15.8 Y5.8 F1200
M106 S255
G4 P20
G1 X15.8 Y5.8 F480
M106 S0
G4 P100
G0 X16.0 Y5.8 F1200
M106 S255
G4 P20
G1 X16.6 Y5.8 F480
M106 S0
G4 P100
G0 X16.8 Y5.8 F1200
M106 S255
G4 P20
G1 X16.9 Y5.8 F480
M106 S0
G4 P100
G0 X17.2 Y5.8 F1200
M106 S255
G4 P20
G1 X35.7 Y5.8 F480
M106 S0
G4 P100
G0 X35.7 Y5.9 F1200
M106 S255
G4 P20
G1 X15.7 Y5.9 F480
M106 S0
G4 P100
G0 X13.7 Y5.9 F1200
M106 S255
G4 P20
G1 X13.6 Y5.9 F480
M106 S0
G4 P100
G0 X13.6 Y6.0 F1200
M106 S255
G4 P20
G1 X13.7 Y6.0 F480
M106 S0
G4 P100
G0 X15.7 Y6.0 F1200
M106 S255
G4 P20
G1 X35.8 Y6.0 F480
M106 S0
G4 P100
G0 X35.8 Y6.1 F1200
M106 S255
G4 P20
G1 X15.9 Y6.1 F480
M106 S0
G4 P100
G0 X13.8 Y6.1 F1200
M106 S255
G4 P20
G1 X13.7 Y6.1 F480
M106 S0
G4 P100
G0 X13.6 Y6.2 F1200
M106 S255
G4 P20
G1 X13.9 Y6.2 F480
M106 S0
G4 P100
G0 X15.5 Y6.2 F1200
M106 S255
G4 P20
G1 X15.7 Y6.2 F480
M106 S0
G4 P100
G0 X15.9 Y6.2 F1200
M106 S255
G4 P20
G1 X35.8 Y6.2 F480
M106 S0
G4 P100
G0 X35.9 Y6.3 F1200
M106 S255
G4 P20
G1 X15.5 Y6.3 F480
M106 S0
G4 P100
G0 X13.9 Y6.3 F1200
M106 S255
G4 P20
G1 X13.7 Y6.3 F480
M106 S0
G4 P100
G0 X13.8 Y6.4 F1200
M106 S255
G4 P20
G1 X14.0 Y6.4 F480
M106 S0
G4 P100
G0 X15.7 Y6.4 F1200
M106 S255
G4 P20
G1 X35.9 Y6.4 F480
M106 S0
G4 P100
G0 X35.9 Y6.5 F1200
M106 S255
G4 P20
G1 X15.8 Y6.5 F480
M106 S0
G4 P100
G0 X14.0 Y6.5 F1200
M106 S255
G4 P20
G1 X13.8 Y6.5 F480
M106 S0
G4 P100
G0 X13.9 Y6.6 F1200
M106 S255
G4 P20
G1 X14.1 Y6.6 F480
M106 S0
G4 P100
G0 X15.9 Y6.6 F1200
M106 S255
G4 P20
G1 X36.0 Y6.6 F480
M106 S0
G4 P100
G0 X36.0 Y6.7 F1200
M106 S255
G4 P20
G1 X15.4 Y6.7 F480
M106 S0
G4 P100
G0 X14.1 Y6.7 F1200
M106 S255
G4 P20
G1 X14.0 Y6.7 F480
M106 S0
G4 P100
G0 X14.1 Y6.8 F1200
M106 S255
G4 P20
G1 X14.1 Y6.8 F480
M106 S0
G4 P100
G0 X15.4 Y6.8 F1200
M106 S255
G4 P20
G1 X36.1 Y6.8 F480
M106 S0
G4 P100
G0 X36.1 Y6.9 F1200
M106 S255
G4 P20
G1 X15.4 Y6.9 F480
M106 S0
G4 P100
G0 X14.2 Y6.9 F1200
M106 S255
G4 P20
G1 X14.1 Y6.9 F480
M106 S0
G4 P100
G0 X14.2 Y7.0 F1200
M106 S255
G4 P20
G1 X14.2 Y7.0 F480
M106 S0
G4 P100
G0 X15.3 Y7.0 F1200
M106 S255
G4 P20
G1 X36.2 Y7.0 F480
M106 S0
G4 P100
G0 X36.2 Y7.1 F1200
M106 S255
G4 P20
G1 X15.2 Y7.1 F480
M106 S0
G4 P100
G0 X14.3 Y7.1 F1200
M106 S255
G4 P20
G1 X14.2 Y7.1 F480
M106 S0
G4 P100
G0 X14.1 Y7.2 F1200
M106 S255
G4 P20
G1 X14.1 Y7.2 F480
M106 S0
G4 P100
G0 X14.3 Y7.2 F1200
M106 S255
G4 P20
G1 X14.4 Y7.2 F480
M106 S0
G4 P100
G0 X15.4 Y7.2 F1200
M106 S255
G4 P20
G1 X36.3 Y7.2 F480
M106 S0
G4 P100
G0 X36.3 Y7.3 F1200
M106 S255
G4 P20
G1 X15.5 Y7.3 F480
M106 S0
G4 P100
G0 X14.4 Y7.3 F1200
M106 S255
G4 P20
G1 X14.3 Y7.3 F480
M106 S0
G4 P100
G0 X14.1 Y7.3 F1200
M106 S255
G4 P20
G1 X14.1 Y7.3 F480
M106 S0
G4 P100
G0 X14.4 Y7.4 F1200
M106 S255
G4 P20
G1 X14.4 Y7.4 F480
M106 S0
G4 P100
G0 X15.5 Y7.4 F1200
M106 S255
G4 P20
G1 X36.3 Y7.4 F480
M106 S0
G4 P100
G0 X37.1 Y7.4 F1200
M106 S255
G4 P20
G1 X37.1 Y7.4 F480
M106 S0
G4 P100
G0 X43.1 Y7.4 F1200
M106 S255
G4 P20
G1 X43.1 Y7.4 F480
M106 S0
G4 P100
G0 X43.2 Y7.5 F1200
M106 S255
G4 P20
G1 X43.1 Y7.5 F480
M106 S0
G4 P100
G0 X37.1 Y7.5 F1200
M106 S255
G4 P20
G1 X37.1 Y7.5 F480
M106 S0
G4 P100
G0 X36.3 Y7.5 F1200
M106 S255
G4 P20
G1 X15.4 Y7.5 F480
M106 S0
G4 P100
G0 X14.5 Y7.5 F1200
M106 S255
G4 P20
G1 X14.3 Y7.5 F480
M106 S0
G4 P100
G0 X14.3 Y7.6 F1200
M106 S255
G4 P20
G1 X14.6 Y7.6 F480
M106 S0
G4 P100
G0 X15.4 Y7.6 F1200
M106 S255
G4 P20
G1 X36.4 Y7.6 F480
M106 S0
G4 P100
G0 X37.1 Y7.6 F1200
M106 S255
G4 P20
G1 X37.2 Y7.6 F480
M106 S0
G4 P100
G0 X43.2 Y7.6 F1200
M106 S255
G4 P20
G1 X43.3 Y7.6 F480
M106 S0
G4 P100
G0 X43.4 Y7.7 F1200
M106 S255
G4 P20
G1 X43.3 Y7.7 F480
M106 S0
G4 P100
G0 X37.3 Y7.7 F1200
M106 S255
G4 P20
G1 X37.1 Y7.7 F480
M106 S0
G4 P100
G0 X36.4 Y7.7 F1200
M106 S255
G4 P20
G1 X15.2 Y7.7 F480
M106 S0
G4 P100
G0 X14.6 Y7.7 F1200
M106 S255
G4 P20
G1 X14.4 Y7.7 F480
M106 S0
G4 P100
G0 X14.5 Y7.8 F1200
M106 S255
G4 P20
G1 X14.6 Y7.8 F480
M106 S0
G4 P100
G0 X15.1 Y7.8 F1200
M106 S255
G4 P20
G1 X36.5 Y7.8 F480
M106 S0
G4 P100
G0 X37.2 Y7.8 F1200
M106 S255
G4 P20
G1 X37.3 Y7.8 F480
M106 S0
G4 P100
G0 X43.3 Y7.8 F1200
M106 S255
G4 P20
G1 X43.4 Y7.8 F480
M106 S0
G4 P100
G0 X43.5 Y7.9 F1200
M106 S255
G4 P20
G1 X43.3 Y7.9 F480
M106 S0
G4 P100
G0 X37.4 Y7.9 F1200
M106 S255
G4 P20
G1 X37.2 Y7.9 F480
M106 S0
G4 P100
G0 X37.0 Y7.9 F1200
M106 S255
G4 P20
G1 X37.0 Y7.9 F480
M106 S0
G4 P100
G0 X36.6 Y7.9 F1200
M106 S255
G4 P20
G1 X15.2 Y7.9 F480
M106 S0
G4 P100
G0 X14.7 Y7.9 F1200
M106 S255
G4 P20
G1 X14.5 Y7.9 F480
M106 S0
G4 P100
G0 X14.6 Y8.0 F1200
M106 S255
G4 P20
G1 X14.7 Y8.0 F480
M106 S0
G4 P100
G0 X15.2 Y8.0 F1200
M106 S255
G4 P20
G1 X36.6 Y8.0 F480
M106 S0
G4 P100
G0 X37.0 Y8.0 F1200
M106 S255
G4 P20
G1 X37.0 Y8.0 F480
M106 S0
G4 P100
G0 X37.2 Y8.0 F1200
M106 S255
G4 P20
G1 X37.4 Y8.0 F480
M106 S0
G4 P100
G0 X43.4 Y8.0 F1200
M106 S255
G4 P20
G1 X43.5 Y8.0 F480
M106 S0
G4 P100
G0 X43.6 Y8.1 F1200
M106 S255
G4 P20
G1 X43.4 Y8.1 F480
M106 S0
G4 P100
G0 X37.5 Y8.1 F1200
M106 S255
G4 P20
G1 X36.9 Y8.1 F480
M106 S0
G4 P100
G0 X36.7 Y8.1 F1200
M106 S255
G4 P20
G1 X15.2 Y8.1 F480
M106 S0
G4 P100
G0 X14.8 Y8.1 F1200
M106 S255
G4 P20
G1 X14.6 Y8.1 F480
M106 S0
G4 P100
G0 X14.6 Y8.2 F1200
M106 S255
G4 P20
G1 X14.8 Y8.2 F480
M106 S0
G4 P100
G0 X15.3 Y8.2 F1200
M106 S255
G4 P20
G1 X15.3 Y8.2 F480
M106 S0
G4 P100
G0 X15.5 Y8.2 F1200
M106 S255
G4 P20
G1 X37.6 Y8.2 F480
M106 S0
G4 P100
G0 X43.5 Y8.2 F1200
M106 S255
G4 P20
G1 X43.7 Y8.2 F480
M106 S0
G4 P100
G0 X43.7 Y8.3 F1200
M106 S255
G4 P20
G1 X43.5 Y8.3 F480
M106 S0
G4 P100
G0 X37.6 Y8.3 F1200
M106 S255
G4 P20
G1 X15.3 Y8.3 F480
M106 S0
G4 P100
G0 X14.9 Y8.3 F1200
M106 S255
G4 P20
G1 X14.7 Y8.3 F480
M106 S0
G4 P100
G0 X14.7 Y8.4 F1200
M106 S255
G4 P20
G1 X14.9 Y8.4 F480
M106 S0
G4 P100
G0 X15.3 Y8.4 F1200
M106 S255
G4 P20
G1 X37.6 Y8.4 F480
M106 S0
G4 P100
G0 X38.0 Y8.4 F1200
M106 S255
G4 P20
G1 X38.0 Y8.4 F480
M106 S0
G4 P100
G0 X43.6 Y8.4 F1200
M106 S255
G4 P20
G1 X43.8 Y8.4 F480
M106 S0
G4 P100
G0 X43.8 Y8.5 F1200
M106 S255
G4 P20
G1 X43.6 Y8.5 F480
M106 S0
G4 P100
G0 X37.8 Y8.5 F1200
M106 S255
G4 P20
G1 X15.3 Y8.5 F480
M106 S0
G4 P100
G0 X15.0 Y8.5 F1200
M106 S255
G4 P20
G1 X14.8 Y8.5 F480
M106 S0
G4 P100
G0 X14.9 Y8.6 F1200
M106 S255
G4 P20
G1 X15.1 Y8.6 F480
M106 S0
G4 P100
G0 X15.4 Y8.6 F1200
M106 S255
G4 P20
G1 X37.9 Y8.6 F480
M106 S0
G4 P100
G0 X38.1 Y8.6 F1200
M106 S255
G4 P20
G1 X38.1 Y8.6 F480
M106 S0
G4 P100
G0 X43.6 Y8.6 F1200
M106 S255
G4 P20
G1 X43.8 Y8.6 F480
M106 S0
G4 P100
G0 X43.9 Y8.7 F1200
M106 S255
G4 P20
G1 X43.7 Y8.7 F480
M106 S0
G4 P100
G0 X38.1 Y8.7 F1200
M106 S255
G4 P20
G1 X15.4 Y8.7 F480
M106 S0
G4 P100
G0 X15.1 Y8.7 F1200
M106 S255
G4 P20
G1 X14.9 Y8.7 F480
M106 S0
G4 P100
G0 X15.0 Y8.8 F1200
M106 S255
G4 P20
G1 X15.1 Y8.8 F480
M106 S0
G4 P100
G0 X15.5 Y8.8 F1200
M106 S255
G4 P20
G1 X15.6 Y8.8 F480
M106 S0
G4 P100
G0 X15.8 Y8.8 F1200
M106 S255
G4 P20
G1 X37.7 Y8.8 F480
M106 S0
G4 P100
G0 X38.0 Y8.8 F1200
M106 S255
G4 P20
G1 X38.1 Y8.8 F480
M106 S0
G4 P100
G0 X43.7 Y8.8 F1200
M106 S255
G4 P20
G1 X44.0 Y8.8 F480
M106 S0
G4 P100
G0 X44.0 Y8.9 F1200
M106 S255
G4 P20
G1 X43.8 Y8.9 F480
M106 S0
G4 P100
G0 X38.2 Y8.9 F1200
M106 S255
G4 P20
G1 X38.1 Y8.9 F480
M106 S0
G4 P100
G0 X37.7 Y8.9 F1200
M106 S255
G4 P20
G1 X15.5 Y8.9 F480
M106 S0
G4 P100
G0 X15.2 Y8.9 F1200
M106 S255
G4 P20
G1 X15.0 Y8.9 F480
M106 S0
G4 P100
G0 X15.1 Y9.0 F1200
M106 S255
G4 P20
G1 X15.2 Y9.0 F480
M106 S0
G4 P100
G0 X15.5 Y9.0 F1200
M106 S255
G4 P20
G1 X37.8 Y9.0 F480
M106 S0
G4 P100
G0 X38.2 Y9.0 F1200
M106 S255
G4 P20
G1 X38.4 Y9.0 F480
M106 S0
G4 P100
G0 X43.8 Y9.0 F1200
M106 S255
G4 P20
G1 X44.0 Y9.0 F480
M106 S0
G4 P100
G0 X44.2 Y9.1 F1200
M106 S255
G4 P20
G1 X43.9 Y9.1 F480
M106 S0
G4 P100
G0 X38.3 Y9.1 F1200
M106 S255
G4 P20
G1 X38.2 Y9.1 F480
M106 S0
G4 P100
G0 X37.9 Y9.1 F1200
M106 S255
G4 P20
G1 X15.5 Y9.1 F480
M106 S0
G4 P100
G0 X15.2 Y9.1 F1200
M106 S255
G4 P20
G1 X15.1 Y9.1 F480
M106 S0
G4 P100
G0 X15.2 Y9.2 F1200
M106 S255
G4 P20
G1 X15.2 Y9.2 F480
M106 S0
G4 P100
G0 X15.5 Y9.2 F1200
M106 S255
G4 P20
G1 X37.9 Y9.2 F480
M106 S0
G4 P100
G0 X38.2 Y9.2 F1200
M106 S255
G4 P20
G1 X38.2 Y9.2 F480
M106 S0
G4 P100
G0 X43.9 Y9.2 F1200
M106 S255
G4 P20
G1 X44.2 Y9.2 F480
M106 S0
G4 P100
G0 X44.1 Y9.3 F1200
M106 S255
G4 P20
G1 X43.9 Y9.3 F480
M106 S0
G4 P100
G0 X38.4 Y9.3 F1200
M106 S255
G4 P20
G1 X38.2 Y9.3 F480
M106 S0
G4 P100
G0 X38.0 Y9.3 F1200
M106 S255
G4 P20
G1 X15.7 Y9.3 F480
M106 S0
G4 P100
G0 X15.4 Y9.3 F1200
M106 S255
G4 P20
G1 X15.3 Y9.3 F480
M106 S0
G4 P100
G0 X15.3 Y9.4 F1200
M106 S255
G4 P20
G1 X15.4 Y9.4 F480
M106 S0
G4 P100
G0 X15.8 Y9.4 F1200
M106 S255
G4 P20
G1 X38.5 Y9.4 F480
M106 S0
G4 P100
G0 X43.9 Y9.4 F1200
M106 S255
G4 P20
G1 X44.1 Y9.4 F480
M106 S0
G4 P100
G0 X44.3 Y9.4 F1200
M106 S255
G4 P20
G1 X44.3 Y9.4 F480
M106 S0
G4 P100
G0 X44.3 Y9.5 F1200
M106 S255
G4 P20
G1 X44.0 Y9.5 F480
M106 S0
G4 P100
G0 X38.5 Y9.5 F1200
M106 S255
G4 P20
G1 X15.8 Y9.5 F480
M106 S0
G4 P100
G0 X15.5 Y9.5 F1200
M106 S255
G4 P20
G1 X15.3 Y9.5 F480
M106 S0
G4 P100
G0 X15.4 Y9.6 F1200
M106 S255
G4 P20
G1 X38.6 Y9.6 F480
M106 S0
G4 P100
G0 X44.0 Y9.6 F1200
M106 S255
G4 P20
G1 X44.3 Y9.6 F480
M106 S0
G4 P100
G0 X44.3 Y9.7 F1200
M106 S255
G4 P20
G1 X44.0 Y9.7 F480
M106 S0
G4 P100
G0 X38.6 Y9.7 F1200
M106 S255
G4 P20
G1 X15.4 Y9.7 F480
M106 S0
G4 P100
G0 X15.5 Y9.8 F1200
M106 S255
G4 P20
G1 X38.6 Y9.8 F480
M106 S0
G4 P100
G0 X44.1 Y9.8 F1200
M106 S255
G4 P20
G1 X44.4 Y9.8 F480
M106 S0
G4 P100
G0 X44.4 Y9.9 F1200
M106 S255
G4 P20
G1 X44.1 Y9.9 F480
M106 S0
G4 P100
G0 X38.7 Y9.9 F1200
M106 S255
G4 P20
G1 X15.5 Y9.9 F480
M106 S0
G4 P100
G0 X15.6 Y10.0 F1200
M106 S255
G4 P20
G1 X38.7 Y10.0 F480
M106 S0
G4 P100
G0 X44.1 Y10.0 F1200
M106 S255
G4 P20
G1 X44.4 Y10.0 F480
M106 S0
G4 P100
G0 X44.4 Y10.1 F1200
M106 S255
G4 P20
G1 X44.1 Y10.1 F480
M106 S0
G4 P100
G0 X38.7 Y10.1 F1200
M106 S255
G4 P20
G1 X16.0 Y10.1 F480
M106 S0
G4 P100
G0 X15.8 Y10.1 F1200
M106 S255
G4 P20
G1 X15.7 Y10.1 F480
M106 S0
G4 P100
G0 X15.7 Y10.2 F1200
M106 S255
G4 P20
G1 X38.7 Y10.2 F480
M106 S0
G4 P100
G0 X44.2 Y10.2 F1200
M106 S255
G4 P20
G1 X44.5 Y10.2 F480
M106 S0
G4 P100
G0 X44.7 Y10.3 F1200
M106 S255
G4 P20
G1 X44.7 Y10.3 F480
M106 S0
G4 P100
G0 X44.5 Y10.3 F1200
M106 S255
G4 P20
G1 X44.2 Y10.3 F480
M106 S0
G4 P100
G0 X38.8 Y10.3 F1200
M106 S255
G4 P20
G1 X15.7 Y10.3 F480
M106 S0
G4 P100
G0 X15.8 Y10.4 F1200
M106 S255
G4 P20
G1 X38.8 Y10.4 F480
M106 S0
G4 P100
G0 X44.2 Y10.4 F1200
M106 S255
G4 P20
G1 X44.5 Y10.4 F480
M106 S0
G4 P100
G0 X44.7 Y10.4 F1200
M106 S255
G4 P20
G1 X44.7 Y10.4 F480
M106 S0
G4 P100
G0 X44.6 Y10.5 F1200
M106 S255
G4 P20
G1 X44.2 Y10.5 F480
M106 S0
G4 P100
G0 X38.8 Y10.5 F1200
M106 S255
G4 P20
G1 X15.8 Y10.5 F480
M106 S0
G4 P100
G0 X15.8 Y10.6 F1200
M106 S255
G4 P20
G1 X15.8 Y10.6 F480
M106 S0
G4 P100
G0 X16.0 Y10.6 F1200
M106 S255
G4 P20
G1 X16.4 Y10.6 F480
M106 S0
G4 P100
G0 X16.6 Y10.6 F1200
M106 S255
G4 P20
G1 X16.7 Y10.6 F480
M106 S0
G4 P100
G0 X16.9 Y10.6 F1200
M106 S255
G4 P20
G1 X38.8 Y10.6 F480
M106 S0
G4 P100
G0 X44.3 Y10.6 F1200
M106 S255
G4 P20
G1 X44.6 Y10.6 F480
M106 S0
G4 P100
G0 X44.9 Y10.6 F1200
M106 S255
G4 P20
G1 X44.9 Y10.6 F480
M106 S0
G4 P100
G0 X44.9 Y10.7 F1200
M106 S255
G4 P20
G1 X44.9 Y10.7 F480
M106 S0
G4 P100
G0 X44.7 Y10.7 F1200
M106 S255
G4 P20
G1 X44.3 Y10.7 F480
M106 S0
G4 P100
G0 X38.8 Y10.7 F1200
M106 S255
G4 P20
G1 X16.0 Y10.7 F480
M106 S0
G4 P100
G0 X16.0 Y10.8 F1200
M106 S255
G4 P20
G1 X38.9 Y10.8 F480
M106 S0
G4 P100
G0 X44.3 Y10.8 F1200
M106 S255
G4 P20
G1 X44.9 Y10.8 F480
M106 S0
G4 P100
G0 X44.9 Y10.9 F1200
M106 S255
G4 P20
G1 X44.3 Y10.9 F480
M106 S0
G4 P100
G0 X39.0 Y10.9 F1200
M106 S255
G4 P20
G1 X15.9 Y10.9 F480
M106 S0
G4 P100
G0 X15.8 Y11.0 F1200
M106 S255
G4 P20
G1 X39.0 Y11.0 F480
M106 S0
G4 P100
G0 X44.4 Y11.0 F1200
M106 S255
G4 P20
G1 X45.0 Y11.0 F480
M106 S0
G4 P100
G0 X45.1 Y11.1 F1200
M106 S255
G4 P20
G1 X44.9 Y11.1 F480
M106 S0
G4 P100
G0 X44.7 Y11.1 F1200
M106 S255
G4 P20
G1 X44.4 Y11.1 F480
M106 S0
G4 P100
G0 X39.2 Y11.1 F1200
M106 S255
G4 P20
G1 X39.2 Y11.1 F480
M106 S0
G4 P100
G0 X38.9 Y11.1 F1200
M106 S255
G4 P20
G1 X15.7 Y11.1 F480
M106 S0
G4 P100
G0 X16.2 Y11.2 F1200
M106 S255
G4 P20
G1 X39.2 Y11.2 F480
M106 S0
G4 P100
G0 X44.4 Y11.2 F1200
M106 S255
G4 P20
G1 X44.7 Y11.2 F480
M106 S0
G4 P100
G0 X44.9 Y11.2 F1200
M106 S255
G4 P20
G1 X45.1 Y11.2 F480
M106 S0
G4 P100
G0 X45.2 Y11.3 F1200
M106 S255
G4 P20
G1 X44.9 Y11.3 F480
M106 S0
G4 P100
G0 X44.7 Y11.3 F1200
M106 S255
G4 P20
G1 X44.4 Y11.3 F480
M106 S0
G4 P100
G0 X39.5 Y11.3 F1200
M106 S255
G4 P20
G1 X16.2 Y11.3 F480
M106 S0
G4 P100
G0 X15.9 Y11.4 F1200
M106 S255
G4 P20
G1 X15.9 Y11.4 F480
M106 S0
G4 P100
G0 X16.1 Y11.4 F1200
M106 S255
G4 P20
G1 X39.6 Y11.4 F480
M106 S0
G4 P100
G0 X44.5 Y11.4 F1200
M106 S255
G4 P20
G1 X44.8 Y11.4 F480
M106 S0
G4 P100
G0 X45.0 Y11.4 F1200
M106 S255
G4 P20
G1 X45.2 Y11.4 F480
M106 S0
G4 P100
G0 X45.3 Y11.5 F1200
M106 S255
G4 P20
G1 X45.1 Y11.5 F480
M106 S0
G4 P100
G0 X44.9 Y11.5 F1200
M106 S255
G4 P20
G1 X44.5 Y11.5 F480
M106 S0
G4 P100
G0 X39.8 Y11.5 F1200
M106 S255
G4 P20
G1 X39.7 Y11.5 F480
M106 S0
G4 P100
G0 X39.4 Y11.5 F1200
M106 S255
G4 P20
G1 X39.3 Y11.5 F480
M106 S0
G4 P100
G0 X38.9 Y11.5 F1200
M106 S255
G4 P20
G1 X15.9 Y11.5 F480
M106 S0
G4 P100
G0 X16.0 Y11.6 F1200
M106 S255
G4 P20
G1 X39.0 Y11.6 F480
M106 S0
G4 P100
G0 X39.8 Y11.6 F1200
M106 S255
G4 P20
G1 X40.0 Y11.6 F480
M106 S0
G4 P100
G0 X44.5 Y11.6 F1200
M106 S255
G4 P20
G1 X44.9 Y11.6 F480
M106 S0
G4 P100
G0 X45.1 Y11.6 F1200
M106 S255
G4 P20
G1 X45.3 Y11.6 F480
M106 S0
G4 P100
G0 X45.4 Y11.7 F1200
M106 S255
G4 P20
G1 X45.2 Y11.7 F480
M106 S0
G4 P100
G0 X44.9 Y11.7 F1200
M106 S255
G4 P20
G1 X44.5 Y11.7 F480
M106 S0
G4 P100
G0 X40.3 Y11.7 F1200
M106 S255
G4 P20
G1 X39.9 Y11.7 F480
M106 S0
G4 P100
G0 X39.0 Y11.7 F1200
M106 S255
G4 P20
G1 X16.5 Y11.7 F480
M106 S0
G4 P100
G0 X16.3 Y11.7 F1200
M106 S255
G4 P20
G1 X16.3 Y11.7 F480
M106 S0
G4 P100
G0 X16.2 Y11.8 F1200
M106 S255
G4 P20
G1 X39.0 Y11.8 F480
M106 S0
G4 P100
G0 X39.7 Y11.8 F1200
M106 S255
G4 P20
G1 X39.8 Y11.8 F480
M106 S0
G4 P100
G0 X40.1 Y11.8 F1200
M106 S255
G4 P20
G1 X40.3 Y11.8 F480
M106 S0
G4 P100
G0 X44.5 Y11.8 F1200
M106 S255
G4 P20
G1 X45.0 Y11.8 F480
M106 S0
G4 P100
G0 X45.2 Y11.8 F1200
M106 S255
G4 P20
G1 X45.4 Y11.8 F480
M106 S0
G4 P100
G0 X45.5 Y11.9 F1200
M106 S255
G4 P20
G1 X44.5 Y11.9 F480
M106 S0
G4 P100
G0 X40.4 Y11.9 F1200
M106 S255
G4 P20
G1 X39.8 Y11.9 F480
M106 S0
G4 P100
G0 X38.9 Y11.9 F1200
M106 S255
G4 P20
G1 X16.4 Y11.9 F480
M106 S0
G4 P100
G0 X16.3 Y12.0 F1200
M106 S255
G4 P20
G1 X38.9 Y12.0 F480
M106 S0
G4 P100
G0 X39.9 Y12.0 F1200
M106 S255
G4 P20
G1 X40.5 Y12.0 F480
M106 S0
G4 P100
G0 X44.6 Y12.0 F1200
M106 S255
G4 P20
G1 X45.5 Y12.0 F480
M106 S0
G4 P100
G0 X45.6 Y12.1 F1200
M106 S255
G4 P20
G1 X44.6 Y12.1 F480
M106 S0
G4 P100
G0 X40.6 Y12.1 F1200
M106 S255
G4 P20
G1 X39.9 Y12.1 F480
M106 S0
G4 P100
G0 X38.9 Y12.1 F1200
M106 S255
G4 P20
G1 X16.3 Y12.1 F480
M106 S0
G4 P100
G0 X16.3 Y12.2 F1200
M106 S255
G4 P20
G1 X38.9 Y12.2 F480
M106 S0
G4 P100
G0 X40.2 Y12.2 F1200
M106 S255
G4 P20
G1 X40.8 Y12.2 F480
M106 S0
G4 P100
G0 X44.6 Y12.2 F1200
M106 S255
G4 P20
G1 X45.6 Y12.2 F480
M106 S0
G4 P100
G0 X45.7 Y12.3 F1200
M106 S255
G4 P20
G1 X44.6 Y12.3 F480
M106 S0
G4 P100
G0 X40.9 Y12.3 F1200
M106 S255
G4 P20
G1 X40.5 Y12.3 F480
M106 S0
G4 P100
G0 X40.3 Y12.3 F1200
M106 S255
G4 P20
G1 X40.2 Y12.3 F480
M106 S0
G4 P100
G0 X38.9 Y12.3 F1200
M106 S255
G4 P20
G1 X16.3 Y12.3 F480
M106 S0
G4 P100
G0 X15.4 Y12.4 F1200
M106 S255
G4 P20
G1 X15.4 Y12.4 F480
M106 S0
G4 P100
G0 X16.3 Y12.4 F1200
M106 S255
G4 P20
G1 X38.8 Y12.4 F480
M106 S0
G4 P100
G0 X40.2 Y12.4 F1200
M106 S255
G4 P20
G1 X40.3 Y12.4 F480
M106 S0
G4 P100
G0 X40.6 Y12.4 F1200
M106 S255
G4 P20
G1 X41.0 Y12.4 F480
M106 S0
G4 P100
G0 X44.6 Y12.4 F1200
M106 S255
G4 P20
G1 X45.8 Y12.4 F480
M106 S0
G4 P100
G0 X47.4 Y12.5 F1200
M106 S255
G4 P20
G1 X47.4 Y12.5 F480
M106 S0
G4 P100
G0 X45.8 Y12.5 F1200
M106 S255
G4 P20
G1 X44.6 Y12.5 F480
M106 S0
G4 P100
G0 X41.1 Y12.5 F1200
M106 S255
G4 P20
G1 X40.8 Y12.5 F480
M106 S0
G4 P100
G0 X40.3 Y12.5 F1200
M106 S255
G4 P20
G1 X40.3 Y12.5 F480
M106 S0
G4 P100
G0 X38.8 Y12.5 F1200
M106 S255
G4 P20
G1 X16.3 Y12.5 F480
M106 S0
G4 P100
G0 X13.0 Y12.5 F1200
M106 S255
G4 P20
G1 X13.0 Y12.5 F480
M106 S0
G4 P100
G0 X13.0 Y12.6 F1200
M106 S255
G4 P20
G1 X13.0 Y12.6 F480
M106 S0
G4 P100
G0 X16.4 Y12.6 F1200
M106 S255
G4 P20
G1 X38.8 Y12.6 F480
M106 S0
G4 P100
G0 X40.9 Y12.6 F1200
M106 S255
G4 P20
G1 X41.4 Y12.6 F480
M106 S0
G4 P100
G0 X44.7 Y12.6 F1200
M106 S255
G4 P20
G1 X45.8 Y12.6 F480
M106 S0
G4 P100
G0 X45.8 Y12.7 F1200
M106 S255
G4 P20
G1 X44.7 Y12.7 F480
M106 S0
G4 P100
G0 X41.6 Y12.7 F1200
M106 S255
G4 P20
G1 X41.1 Y12.7 F480
M106 S0
G4 P100
G0 X38.8 Y12.7 F1200
M106 S255
G4 P20
G1 X16.4 Y12.7 F480
M106 S0
G4 P100
G0 X14.2 Y12.7 F1200
M106 S255
G4 P20
G1 X14.2 Y12.7 F480
M106 S0
G4 P100
G0 X13.1 Y12.8 F1200
M106 S255
G4 P20
G1 X13.1 Y12.8 F480
M106 S0
G4 P100
G0 X14.2 Y12.8 F1200
M106 S255
G4 P20
G1 X14.2 Y12.8 F480
M106 S0
G4 P100
G0 X16.4 Y12.8 F1200
M106 S255
G4 P20
G1 X38.7 Y12.8 F480
M106 S0
G4 P100
G0 X40.0 Y12.8 F1200
M106 S255
G4 P20
G1 X40.1 Y12.8 F480
M106 S0
G4 P100
G0 X41.3 Y12.8 F1200
M106 S255
G4 P20
G1 X41.5 Y12.8 F480
M106 S0
G4 P100
G0 X44.7 Y12.8 F1200
M106 S255
G4 P20
G1 X45.9 Y12.8 F480
M106 S0
G4 P100
G0 X47.2 Y12.8 F1200
M106 S255
G4 P20
G1 X47.2 Y12.8 F480
M106 S0
G4 P100
G0 X47.2 Y12.9 F1200
M106 S255
G4 P20
G1 X47.2 Y12.9 F480
M106 S0
G4 P100
G0 X45.9 Y12.9 F1200
M106 S255
G4 P20
G1 X44.7 Y12.9 F480
M106 S0
G4 P100
G0 X41.4 Y12.9 F1200
M106 S255
G4 P20
G1 X41.3 Y12.9 F480
M106 S0
G4 P100
G0 X38.7 Y12.9 F1200
M106 S255
G4 P20
G1 X16.5 Y12.9 F480
M106 S0
G4 P100
G0 X13.1 Y12.9 F1200
M106 S255
G4 P20
G1 X13.1 Y12.9 F480
M106 S0
G4 P100
G0 X14.3 Y13.0 F1200
M106 S255
G4 P20
G1 X14.3 Y13.0 F480
M106 S0
G4 P100
G0 X16.6 Y13.0 F1200
M106 S255
G4 P20
G1 X38.6 Y13.0 F480
M106 S0
G4 P100
G0 X41.4 Y13.0 F1200
M106 S255
G4 P20
G1 X41.4 Y13.0 F480
M106 S0
G4 P100
G0 X42.0 Y13.0 F1200
M106 S255
G4 P20
G1 X42.0 Y13.0 F480
M106 S0
G4 P100
G0 X44.7 Y13.0 F1200
M106 S255
G4 P20
G1 X45.9 Y13.0 F480
M106 S0
G4 P100
G0 X47.1 Y13.0 F1200
M106 S255
G4 P20
G1 X47.2 Y13.0 F480
M106 S0
G4 P100
G0 X47.1 Y13.1 F1200
M106 S255
G4 P20
G1 X47.1 Y13.1 F480
M106 S0
G4 P100
G0 X45.9 Y13.1 F1200
M106 S255
G4 P20
G1 X44.8 Y13.1 F480
M106 S0
G4 P100
G0 X41.4 Y13.1 F1200
M106 S255
G4 P20
G1 X41.4 Y13.1 F480
M106 S0
G4 P100
G0 X38.6 Y13.1 F1200
M106 S255
G4 P20
G1 X16.6 Y13.1 F480
M106 S0
G4 P100
G0 X14.3 Y13.1 F1200
M106 S255
G4 P20
G1 X14.3 Y13.1 F480
M106 S0
G4 P100
G0 X14.3 Y13.2 F1200
M106 S255
G4 P20
G1 X14.4 Y13.2 F480
M106 S0
G4 P100
G0 X16.6 Y13.2 F1200
M106 S255
G4 P20
G1 X38.6 Y13.2 F480
M106 S0
G4 P100
G0 X44.8 Y13.2 F1200
M106 S255
G4 P20
G1 X46.0 Y13.2 F480
M106 S0
G4 P100
G0 X47.1 Y13.2 F1200
M106 S255
G4 P20
G1 X47.1 Y13.2 F480
M106 S0
G4 P100
G0 X47.1 Y13.3 F1200
M106 S255
G4 P20
G1 X47.0 Y13.3 F480
M106 S0
G4 P100
G0 X46.0 Y13.3 F1200
M106 S255
G4 P20
G1 X44.8 Y13.3 F480
M106 S0
G4 P100
G0 X38.6 Y13.3 F1200
M106 S255
G4 P20
G1 X16.6 Y13.3 F480
M106 S0
G4 P100
G0 X14.4 Y13.3 F1200
M106 S255
G4 P20
G1 X14.3 Y13.3 F480
M106 S0
G4 P100
G0 X14.4 Y13.4 F1200
M106 S255
G4 P20
G1 X14.4 Y13.4 F480
M106 S0
G4 P100
G0 X16.6 Y13.4 F1200
M106 S255
G4 P20
G1 X17.0 Y13.4 F480
M106 S0
G4 P100
G0 X17.3 Y13.4 F1200
M106 S255
G4 P20
G1 X38.5 Y13.4 F480
M106 S0
G4 P100
G0 X41.7 Y13.4 F1200
M106 S255
G4 P20
G1 X41.8 Y13.4 F480
M106 S0
G4 P100
G0 X44.8 Y13.4 F1200
M106 S255
G4 P20
G1 X46.1 Y13.4 F480
M106 S0
G4 P100
G0 X47.0 Y13.4 F1200
M106 S255
G4 P20
G1 X47.1 Y13.4 F480
M106 S0
G4 P100
G0 X47.0 Y13.5 F1200
M106 S255
G4 P20
G1 X47.0 Y13.5 F480
M106 S0
G4 P100
G0 X46.1 Y13.5 F1200
M106 S255
G4 P20
G1 X44.8 Y13.5 F480
M106 S0
G4 P100
G0 X38.5 Y13.5 F1200
M106 S255
G4 P20
G1 X16.6 Y13.5 F480
M106 S0
G4 P100
G0 X14.4 Y13.5 F1200
M106 S255
G4 P20
G1 X14.4 Y13.5 F480
M106 S0
G4 P100
G0 X14.4 Y13.6 F1200
M106 S255
G4 P20
G1 X14.5 Y13.6 F480
M106 S0
G4 P100
G0 X16.6 Y13.6 F1200
M106 S255
G4 P20
G1 X38.4 Y13.6 F480
M106 S0
G4 P100
G0 X42.5 Y13.6 F1200
M106 S255
G4 P20
G1 X42.5 Y13.6 F480
M106 S0
G4 P100
G0 X44.8 Y13.6 F1200
M106 S255
G4 P20
G1 X46.2 Y13.6 F480
M106 S0
G4 P100
G0 X46.9 Y13.6 F1200
M106 S255
G4 P20
G1 X47.0 Y13.6 F480
M106 S0
G4 P100
G0 X47.0 Y13.7 F1200
M106 S255
G4 P20
G1 X46.9 Y13.7 F480
M106 S0
G4 P100
G0 X46.2 Y13.7 F1200
M106 S255
G4 P20
G1 X44.8 Y13.7 F480
M106 S0
G4 P100
G0 X42.5 Y13.7 F1200
M106 S255
G4 P20
G1 X42.5 Y13.7 F480
M106 S0
G4 P100
G0 X38.4 Y13.7 F1200
M106 S255
G4 P20
G1 X16.6 Y13.7 F480
M106 S0
G4 P100
G0 X14.5 Y13.7 F1200
M106 S255
G4 P20
G1 X14.4 Y13.7 F480
M106 S0
G4 P100
G0 X14.4 Y13.8 F1200
M106 S255
G4 P20
G1 X14.5 Y13.8 F480
M106 S0
G4 P100
G0 X16.6 Y13.8 F1200
M106 S255
G4 P20
G1 X38.4 Y13.8 F480
M106 S0
G4 P100
G0 X44.8 Y13.8 F1200
M106 S255
G4 P20
G1 X46.2 Y13.8 F480
M106 S0
G4 P100
G0 X46.9 Y13.8 F1200
M106 S255
G4 P20
G1 X47.0 Y13.8 F480
M106 S0
G4 P100
G0 X47.0 Y13.9 F1200
M106 S255
G4 P20
G1 X46.8 Y13.9 F480
M106 S0
G4 P100
G0 X46.2 Y13.9 F1200
M106 S255
G4 P20
G1 X44.8 Y13.9 F480
M106 S0
G4 P100
G0 X38.3 Y13.9 F1200
M106 S255
G4 P20
G1 X17.2 Y13.9 F480
M106 S0
G4 P100
G0 X17.0 Y13.9 F1200
M106 S255
G4 P20
G1 X16.6 Y13.9 F480
M106 S0
G4 P100
G0 X14.6 Y13.9 F1200
M106 S255
G4 P20
G1 X14.5 Y13.9 F480
M106 S0
G4 P100
G0 X14.5 Y14.0 F1200
M106 S255
G4 P20
G1 X14.6 Y14.0 F480
M106 S0
G4 P100
G0 X16.6 Y14.0 F1200
M106 S255
G4 P20
G1 X16.7 Y14.0 F480
M106 S0
G4 P100
G0 X17.0 Y14.0 F1200
M106 S255
G4 P20
G1 X38.3 Y14.0 F480
M106 S0
G4 P100
G0 X44.8 Y14.0 F1200
M106 S255
G4 P20
G1 X46.2 Y14.0 F480
M106 S0
G4 P100
G0 X46.8 Y14.0 F1200
M106 S255
G4 P20
G1 X47.0 Y14.0 F480
M106 S0
G4 P100
G0 X47.0 Y14.1 F1200
M106 S255
G4 P20
G1 X46.7 Y14.1 F480
M106 S0
G4 P100
G0 X46.3 Y14.1 F1200
M106 S255
G4 P20
G1 X44.8 Y14.1 F480
M106 S0
G4 P100
G0 X38.2 Y14.1 F1200
M106 S255
G4 P20
G1 X17.0 Y14.1 F480
M106 S0
G4 P100
G0 X16.7 Y14.1 F1200
M106 S255
G4 P20
G1 X16.6 Y14.1 F480
M106 S0
G4 P100
G0 X14.6 Y14.1 F1200
M106 S255
G4 P20
G1 X14.5 Y14.1 F480
M106 S0
G4 P100
G0 X14.6 Y14.2 F1200
M106 S255
G4 P20
G1 X14.7 Y14.2 F480
M106 S0
G4 P100
G0 X16.6 Y14.2 F1200
M106 S255
G4 P20
G1 X16.7 Y14.2 F480
M106 S0
G4 P100
G0 X17.0 Y14.2 F1200
M106 S255
G4 P20
G1 X38.2 Y14.2 F480
M106 S0
G4 P100
G0 X44.8 Y14.2 F1200
M106 S255
G4 P20
G1 X46.3 Y14.2 F480
M106 S0
G4 P100
G0 X46.7 Y14.2 F1200
M106 S255
G4 P20
G1 X47.0 Y14.2 F480
M106 S0
G4 P100
G0 X47.0 Y14.3 F1200
M106 S255
G4 P20
G1 X46.6 Y14.3 F480
M106 S0
G4 P100
G0 X46.3 Y14.3 F1200
M106 S255
G4 P20
G1 X44.8 Y14.3 F480
M106 S0
G4 P100
G0 X38.1 Y14.3 F1200
M106 S255
G4 P20
G1 X17.0 Y14.3 F480
M106 S0
G4 P100
G0 X16.7 Y14.3 F1200
M106 S255
G4 P20
G1 X16.6 Y14.3 F480
M106 S0
G4 P100
G0 X14.7 Y14.3 F1200
M106 S255
G4 P20
G1 X14.6 Y14.3 F480
M106 S0
G4 P100
G0 X13.3 Y14.4 F1200
M106 S255
G4 P20
G1 X13.3 Y14.4 F480
M106 S0
G4 P100
G0 X14.7 Y14.4 F1200
M106 S255
G4 P20
G1 X14.7 Y14.4 F480
M106 S0
G4 P100
G0 X16.6 Y14.4 F1200
M106 S255
G4 P20
G1 X16.7 Y14.4 F480
M106 S0
G4 P100
G0 X17.0 Y14.4 F1200
M106 S255
G4 P20
G1 X38.1 Y14.4 F480
M106 S0
G4 P100
G0 X44.8 Y14.4 F1200
M106 S255
G4 P20
G1 X46.3 Y14.4 F480
M106 S0
G4 P100
G0 X46.6 Y14.4 F1200
M106 S255
G4 P20
G1 X47.0 Y14.4 F480
M106 S0
G4 P100
G0 X47.0 Y14.5 F1200
M106 S255
G4 P20
G1 X46.6 Y14.5 F480
M106 S0
G4 P100
G0 X46.4 Y14.5 F1200
M106 S255
G4 P20
G1 X44.8 Y14.5 F480
M106 S0
G4 P100
G0 X38.0 Y14.5 F1200
M106 S255
G4 P20
G1 X17.0 Y14.5 F480
M106 S0
G4 P100
G0 X16.6 Y14.5 F1200
M106 S255
G4 P20
G1 X16.5 Y14.5 F480
M106 S0
G4 P100
G0 X14.8 Y14.5 F1200
M106 S255
G4 P20
G1 X14.7 Y14.5 F480
M106 S0
G4 P100
G0 X13.3 Y14.5 F1200
M106 S255
G4 P20
G1 X13.3 Y14.5 F480
M106 S0
G4 P100
G0 X14.7 Y14.6 F1200
M106 S255
G4 P20
G1 X14.8 Y14.6 F480
M106 S0
G4 P100
G0 X16.5 Y14.6 F1200
M106 S255
G4 P20
G1 X16.6 Y14.6 F480
M106 S0
G4 P100
G0 X17.1 Y14.6 F1200
M106 S255
G4 P20
G1 X38.0 Y14.6 F480
M106 S0
G4 P100
G0 X39.3 Y14.6 F1200
M106 S255
G4 P20
G1 X39.3 Y14.6 F480
M106 S0
G4 P100
G0 X42.5 Y14.6 F1200
M106 S255
G4 P20
G1 X42.5 Y14.6 F480
M106 S0
G4 P100
G0 X44.8 Y14.6 F1200
M106 S255
G4 P20
G1 X46.4 Y14.6 F480
M106 S0
G4 P100
G0 X46.6 Y14.6 F1200
M106 S255
G4 P20
G1 X47.0 Y14.6 F480
M106 S0
G4 P100
G0 X47.0 Y14.7 F1200
M106 S255
G4 P20
G1 X44.8 Y14.7 F480
M106 S0
G4 P100
G0 X42.5 Y14.7 F1200
M106 S255
G4 P20
G1 X42.5 Y14.7 F480
M106 S0
G4 P100
G0 X39.3 Y14.7 F1200
M106 S255
G4 P20
G1 X39.3 Y14.7 F480
M106 S0
G4 P100
G0 X38.0 Y14.7 F1200
M106 S255
G4 P20
G1 X17.1 Y14.7 F480
M106 S0
G4 P100
G0 X16.6 Y14.7 F1200
M106 S255
G4 P20
G1 X16.5 Y14.7 F480
M106 S0
G4 P100
G0 X14.9 Y14.7 F1200
M106 S255
G4 P20
G1 X14.7 Y14.7 F480
M106 S0
G4 P100
G0 X14.7 Y14.8 F1200
M106 S255
G4 P20
G1 X15.0 Y14.8 F480
M106 S0
G4 P100
G0 X16.5 Y14.8 F1200
M106 S255
G4 P20
G1 X16.6 Y14.8 F480
M106 S0
G4 P100
G0 X17.1 Y14.8 F1200
M106 S255
G4 P20
G1 X37.9 Y14.8 F480
M106 S0
G4 P100
G0 X39.2 Y14.8 F1200
M106 S255
G4 P20
G1 X39.2 Y14.8 F480
M106 S0
G4 P100
G0 X44.8 Y14.8 F1200
M106 S255
G4 P20
G1 X47.0 Y14.8 F480
M106 S0
G4 P100
G0 X47.0 Y14.9 F1200
M106 S255
G4 P20
G1 X44.7 Y14.9 F480
M106 S0
G4 P100
G0 X39.2 Y14.9 F1200
M106 S255
G4 P20
G1 X39.2 Y14.9 F480
M106 S0
G4 P100
G0 X37.9 Y14.9 F1200
M106 S255
G4 P20
G1 X17.5 Y14.9 F480
M106 S0
G4 P100
G0 X17.3 Y14.9 F1200
M106 S255
G4 P20
G1 X17.1 Y14.9 F480
M106 S0
G4 P100
G0 X16.6 Y14.9 F1200
M106 S255
G4 P20
G1 X16.5 Y14.9 F480
M106 S0
G4 P100
G0 X15.0 Y14.9 F1200
M106 S255
G4 P20
G1 X14.8 Y14.9 F480
M106 S0
G4 P100
G0 X14.8 Y15.0 F1200
M106 S255
G4 P20
G1 X15.1 Y15.0 F480
M106 S0
G4 P100
G0 X16.5 Y15.0 F1200
M106 S255
G4 P20
G1 X16.6 Y15.0 F480
M106 S0
G4 P100
G0 X17.1 Y15.0 F1200
M106 S255
G4 P20
G1 X17.3 Y15.0 F480
M106 S0
G4 P100
G0 X17.6 Y15.0 F1200
M106 S255
G4 P20
G1 X37.9 Y15.0 F480
M106 S0
G4 P100
G0 X39.2 Y15.0 F1200
M106 S255
G4 P20
G1 X39.2 Y15.0 F480
M106 S0
G4 P100
G0 X44.7 Y15.0 F1200
M106 S255
G4 P20
G1 X46.9 Y15.0 F480
M106 S0
G4 P100
G0 X46.9 Y15.1 F1200
M106 S255
G4 P20
G1 X44.7 Y15.1 F480
M106 S0
G4 P100
G0 X37.8 Y15.1 F1200
M106 S255
G4 P20
G1 X21.1 Y15.1 F480
M106 S0
G4 P100
G0 X20.8 Y15.1 F1200
M106 S255
G4 P20
G1 X17.7 Y15.1 F480
M106 S0
G4 P100
G0 X17.3 Y15.1 F1200
M106 S255
G4 P20
G1 X17.2 Y15.1 F480
M106 S0
G4 P100
G0 X16.6 Y15.1 F1200
M106 S255
G4 P20
G1 X16.5 Y15.1 F480
M106 S0
G4 P100
G0 X15.2 Y15.1 F1200
M106 S255
G4 P20
G1 X14.8 Y15.1 F480
M106 S0
G4 P100
G0 X13.3 Y15.2 F1200
M106 S255
G4 P20
G1 X13.3 Y15.2 F480
M106 S0
G4 P100
G0 X14.8 Y15.2 F1200
M106 S255
G4 P20
G1 X15.2 Y15.2 F480
M106 S0
G4 P100
G0 X16.5 Y15.2 F1200
M106 S255
G4 P20
G1 X16.6 Y15.2 F480
M106 S0
G4 P100
G0 X17.2 Y15.2 F1200
M106 S255
G4 P20
G1 X17.3 Y15.2 F480
M106 S0
G4 P100
G0 X17.7 Y15.2 F1200
M106 S255
G4 P20
G1 X37.8 Y15.2 F480
M106 S0
G4 P100
G0 X44.6 Y15.2 F1200
M106 S255
G4 P20
G1 X46.9 Y15.2 F480
M106 S0
G4 P100
G0 X46.9 Y15.3 F1200
M106 S255
G4 P20
G1 X44.7 Y15.3 F480
M106 S0
G4 P100
G0 X39.1 Y15.3 F1200
M106 S255
G4 P20
G1 X39.1 Y15.3 F480
M106 S0
G4 P100
G0 X37.7 Y15.3 F1200
M106 S255
G4 P20
G1 X17.7 Y15.3 F480
M106 S0
G4 P100
G0 X17.4 Y15.3 F1200
M106 S255
G4 P20
G1 X17.2 Y15.3 F480
M106 S0
G4 P100
G0 X16.6 Y15.3 F1200
M106 S255
G4 P20
G1 X16.4 Y15.3 F480
M106 S0
G4 P100
G0 X15.5 Y15.3 F1200
M106 S255
G4 P20
G1 X14.8 Y15.3 F480
M106 S0
G4 P100
G0 X13.3 Y15.3 F1200
M106 S255
G4 P20
G1 X13.3 Y15.3 F480
M106 S0
G4 P100
G0 X13.3 Y15.4 F1200
M106 S255
G4 P20
G1 X13.3 Y15.4 F480
M106 S0
G4 P100
G0 X14.8 Y15.4 F1200
M106 S255
G4 P20
G1 X15.7 Y15.4 F480
M106 S0
G4 P100
G0 X16.4 Y15.4 F1200
M106 S255
G4 P20
G1 X16.6 Y15.4 F480
M106 S0
G4 P100
G0 X17.2 Y15.4 F1200
M106 S255
G4 P20
G1 X17.4 Y15.4 F480
M106 S0
G4 P100
G0 X17.8 Y15.4 F1200
M106 S255
G4 P20
G1 X37.7 Y15.4 F480
M106 S0
G4 P100
G0 X44.8 Y15.4 F1200
M106 S255
G4 P20
G1 X46.9 Y15.4 F480
M106 S0
G4 P100
G0 X46.9 Y15.5 F1200
M106 S255
G4 P20
G1 X44.8 Y15.5 F480
M106 S0
G4 P100
G0 X37.6 Y15.5 F1200
M106 S255
G4 P20
G1 X17.9 Y15.5 F480
M106 S0
G4 P100
G0 X17.4 Y15.5 F1200
M106 S255
G4 P20
G1 X17.3 Y15.5 F480
M106 S0
G4 P100
G0 X16.6 Y15.5 F1200
M106 S255
G4 P20
G1 X16.4 Y15.5 F480
M106 S0
G4 P100
G0 X15.9 Y15.5 F1200
M106 S255
G4 P20
G1 X14.8 Y15.5 F480
M106 S0
G4 P100
G0 X13.3 Y15.5 F1200
M106 S255
G4 P20
G1 X13.3 Y15.5 F480
M106 S0
G4 P100
G0 X13.3 Y15.6 F1200
M106 S255
G4 P20
G1 X13.3 Y15.6 F480
M106 S0
G4 P100
G0 X14.9 Y15.6 F1200
M106 S255
G4 P20
G1 X16.0 Y15.6 F480
M106 S0
G4 P100
G0 X16.4 Y15.6 F1200
M106 S255
G4 P20
G1 X16.6 Y15.6 F480
M106 S0
G4 P100
G0 X17.3 Y15.6 F1200
M106 S255
G4 P20
G1 X17.4 Y15.6 F480
M106 S0
G4 P100
G0 X17.9 Y15.6 F1200
M106 S255
G4 P20
G1 X37.6 Y15.6 F480
M106 S0
G4 P100
G0 X44.7 Y15.6 F1200
M106 S255
G4 P20
G1 X46.9 Y15.6 F480
M106 S0
G4 P100
G0 X46.9 Y15.7 F1200
M106 S255
G4 P20
G1 X44.7 Y15.7 F480
M106 S0
G4 P100
G0 X37.5 Y15.7 F1200
M106 S255
G4 P20
G1 X17.9 Y15.7 F480
M106 S0
G4 P100
G0 X17.4 Y15.7 F1200
M106 S255
G4 P20
G1 X17.4 Y15.7 F480
M106 S0
G4 P100
G0 X16.5 Y15.7 F1200
M106 S255
G4 P20
G1 X16.3 Y15.7 F480
M106 S0
G4 P100
G0 X16.1 Y15.7 F1200
M106 S255
G4 P20
G1 X14.9 Y15.7 F480
M106 S0
G4 P100
G0 X14.9 Y15.8 F1200
M106 S255
G4 P20
G1 X16.5 Y15.8 F480
M106 S0
G4 P100
G0 X17.0 Y15.8 F1200
M106 S255
G4 P20
G1 X17.0 Y15.8 F480
M106 S0
G4 P100
G0 X17.4 Y15.8 F1200
M106 S255
G4 P20
G1 X17.5 Y15.8 F480
M106 S0
G4 P100
G0 X17.9 Y15.8 F1200
M106 S255
G4 P20
G1 X37.5 Y15.8 F480
M106 S0
G4 P100
G0 X42.1 Y15.8 F1200
M106 S255
G4 P20
G1 X42.1 Y15.8 F480
M106 S0
G4 P100
G0 X44.7 Y15.8 F1200
M106 S255
G4 P20
G1 X46.9 Y15.8 F480
M106 S0
G4 P100
G0 X47.0 Y15.9 F1200
M106 S255
G4 P20
G1 X44.7 Y15.9 F480
M106 S0
G4 P100
G0 X42.1 Y15.9 F1200
M106 S255
G4 P20
G1 X42.1 Y15.9 F480
M106 S0
G4 P100
G0 X37.5 Y15.9 F1200
M106 S255
G4 P20
G1 X18.1 Y15.9 F480
M106 S0
G4 P100
G0 X17.5 Y15.9 F1200
M106 S255
G4 P20
G1 X17.5 Y15.9 F480
M106 S0
G4 P100
G0 X16.5 Y15.9 F1200
M106 S255
G4 P20
G1 X14.9 Y15.9 F480
M106 S0
G4 P100
G0 X13.4 Y16.0 F1200
M106 S255
G4 P20
G1 X13.4 Y16.0 F480
M106 S0
G4 P100
G0 X14.6 Y16.0 F1200
M106 S255
G4 P20
G1 X14.6 Y16.0 F480
M106 S0
G4 P100
G0 X14.9 Y16.0 F1200
M106 S255
G4 P20
G1 X16.5 Y16.0 F480
M106 S0
G4 P100
G0 X17.5 Y16.0 F1200
M106 S255
G4 P20
G1 X17.5 Y16.0 F480
M106 S0
G4 P100
G0 X18.1 Y16.0 F1200
M106 S255
G4 P20
G1 X37.4 Y16.0 F480
M106 S0
G4 P100
G0 X38.8 Y16.0 F1200
M106 S255
G4 P20
G1 X38.8 Y16.0 F480
M106 S0
G4 P100
G0 X44.6 Y16.0 F1200
M106 S255
G4 P20
G1 X47.0 Y16.0 F480
M106 S0
G4 P100
G0 X47.0 Y16.1 F1200
M106 S255
G4 P20
G1 X44.6 Y16.1 F480
M106 S0
G4 P100
G0 X42.0 Y16.1 F1200
M106 S255
G4 P20
G1 X42.0 Y16.1 F480
M106 S0
G4 P100
G0 X38.7 Y16.1 F1200
M106 S255
G4 P20
G1 X38.7 Y16.1 F480
M106 S0
G4 P100
G0 X37.4 Y16.1 F1200
M106 S255
G4 P20
G1 X18.1 Y16.1 F480
M106 S0
G4 P100
G0 X17.6 Y16.1 F1200
M106 S255
G4 P20
G1 X17.5 Y16.1 F480
M106 S0
G4 P100
G0 X16.6 Y16.1 F1200
M106 S255
G4 P20
G1 X14.9 Y16.1 F480
M106 S0
G4 P100
G0 X14.6 Y16.1 F1200
M106 S255
G4 P20
G1 X14.6 Y16.1 F480
M106 S0
G4 P100
G0 X13.4 Y16.1 F1200
M106 S255
G4 P20
G1 X13.4 Y16.1 F480
M106 S0
G4 P100
G0 X14.6 Y16.2 F1200
M106 S255
G4 P20
G1 X14.6 Y16.2 F480
M106 S0
G4 P100
G0 X14.9 Y16.2 F1200
M106 S255
G4 P20
G1 X16.8 Y16.2 F480
M106 S0
G4 P100
G0 X17.1 Y16.2 F1200
M106 S255
G4 P20
G1 X17.1 Y16.2 F480
M106 S0
G4 P100
G0 X17.5 Y16.2 F1200
M106 S255
G4 P20
G1 X17.6 Y16.2 F480
M106 S0
G4 P100
G0 X18.2 Y16.2 F1200
M106 S255
G4 P20
G1 X37.3 Y16.2 F480
M106 S0
G4 P100
G0 X38.5 Y16.2 F1200
M106 S255
G4 P20
G1 X38.7 Y16.2 F480
M106 S0
G4 P100
G0 X42.0 Y16.2 F1200
M106 S255
G4 P20
G1 X42.0 Y16.2 F480
M106 S0
G4 P100
G0 X44.6 Y16.2 F1200
M106 S255
G4 P20
G1 X47.0 Y16.2 F480
M106 S0
G4 P100
G0 X47.0 Y16.3 F1200
M106 S255
G4 P20
G1 X44.6 Y16.3 F480
M106 S0
G4 P100
G0 X42.0 Y16.3 F1200
M106 S255
G4 P20
G1 X42.0 Y16.3 F480
M106 S0
G4 P100
G0 X38.7 Y16.3 F1200
M106 S255
G4 P20
G1 X38.5 Y16.3 F480
M106 S0
G4 P100
G0 X37.3 Y16.3 F1200
M106 S255
G4 P20
G1 X18.8 Y16.3 F480
M106 S0
G4 P100
G0 X18.6 Y16.3 F1200
M106 S255
G4 P20
G1 X18.4 Y16.3 F480
M106 S0
G4 P100
G0 X17.7 Y16.3 F1200
M106 S255
G4 P20
G1 X17.6 Y16.3 F480
M106 S0
G4 P100
G0 X17.1 Y16.3 F1200
M106 S255
G4 P20
G1 X17.1 Y16.3 F480
M106 S0
G4 P100
G0 X16.8 Y16.3 F1200
M106 S255
G4 P20
G1 X14.7 Y16.3 F480
M106 S0
G4 P100
G0 X13.5 Y16.3 F1200
M106 S255
G4 P20
G1 X13.5 Y16.3 F480
M106 S0
G4 P100
G0 X13.5 Y16.4 F1200
M106 S255
G4 P20
G1 X13.5 Y16.4 F480
M106 S0
G4 P100
G0 X14.7 Y16.4 F1200
M106 S255
G4 P20
G1 X16.9 Y16.4 F480
M106 S0
G4 P100
G0 X17.6 Y16.4 F1200
M106 S255
G4 P20
G1 X17.7 Y16.4 F480
M106 S0
G4 P100
G0 X18.4 Y16.4 F1200
M106 S255
G4 P20
G1 X18.6 Y16.4 F480
M106 S0
G4 P100
G0 X18.8 Y16.4 F1200
M106 S255
G4 P20
G1 X37.2 Y16.4 F480
M106 S0
G4 P100
G0 X38.5 Y16.4 F1200
M106 S255
G4 P20
G1 X38.6 Y16.4 F480
M106 S0
G4 P100
G0 X41.9 Y16.4 F1200
M106 S255
G4 P20
G1 X41.9 Y16.4 F480
M106 S0
G4 P100
G0 X44.6 Y16.4 F1200
M106 S255
G4 P20
G1 X46.9 Y16.4 F480
M106 S0
G4 P100
G0 X47.1 Y16.5 F1200
M106 S255
G4 P20
G1 X47.1 Y16.5 F480
M106 S0
G4 P100
G0 X46.9 Y16.5 F1200
M106 S255
G4 P20
G1 X44.5 Y16.5 F480
M106 S0
G4 P100
G0 X41.9 Y16.5 F1200
M106 S255
G4 P20
G1 X41.9 Y16.5 F480
M106 S0
G4 P100
G0 X38.6 Y16.5 F1200
M106 S255
G4 P20
G1 X38.4 Y16.5 F480
M106 S0
G4 P100
G0 X37.2 Y16.5 F1200
M106 S255
G4 P20
G1 X18.8 Y16.5 F480
M106 S0
G4 P100
G0 X18.6 Y16.5 F1200
M106 S255
G4 P20
G1 X18.4 Y16.5 F480
M106 S0
G4 P100
G0 X17.8 Y16.5 F1200
M106 S255
G4 P20
G1 X17.7 Y16.5 F480
M106 S0
G4 P100
G0 X17.0 Y16.5 F1200
M106 S255
G4 P20
G1 X14.7 Y16.5 F480
M106 S0
G4 P100
G0 X13.5 Y16.5 F1200
M106 S255
G4 P20
G1 X13.5 Y16.5 F480
M106 S0
G4 P100
G0 X14.7 Y16.6 F1200
M106 S255
G4 P20
G1 X17.1 Y16.6 F480
M106 S0
G4 P100
G0 X17.7 Y16.6 F1200
M106 S255
G4 P20
G1 X17.8 Y16.6 F480
M106 S0
G4 P100
G0 X18.4 Y16.6 F1200
M106 S255
G4 P20
G1 X37.2 Y16.6 F480
M106 S0
G4 P100
G0 X38.4 Y16.6 F1200
M106 S255
G4 P20
G1 X38.6 Y16.6 F480
M106 S0
G4 P100
G0 X41.9 Y16.6 F1200
M106 S255
G4 P20
G1 X41.9 Y16.6 F480
M106 S0
G4 P100
G0 X44.5 Y16.6 F1200
M106 S255
G4 P20
G1 X46.9 Y16.6 F480
M106 S0
G4 P100
G0 X47.1 Y16.6 F1200
M106 S255
G4 P20
G1 X47.1 Y16.6 F480
M106 S0
G4 P100
G0 X47.1 Y16.7 F1200
M106 S255
G4 P20
G1 X47.1 Y16.7 F480
M106 S0
G4 P100
G0 X46.9 Y16.7 F1200
M106 S255
G4 P20
G1 X44.5 Y16.7 F480
M106 S0
G4 P100
G0 X38.5 Y16.7 F1200
M106 S255
G4 P20
G1 X38.3 Y16.7 F480
M106 S0
G4 P100
G0 X37.1 Y16.7 F1200
M106 S255
G4 P20
G1 X18.4 Y16.7 F480
M106 S0
G4 P100
G0 X17.9 Y16.7 F1200
M106 S255
G4 P20
G1 X17.7 Y16.7 F480
M106 S0
G4 P100
G0 X17.3 Y16.7 F1200
M106 S255
G4 P20
G1 X14.7 Y16.7 F480
M106 S0
G4 P100
G0 X14.7 Y16.8 F1200
M106 S255
G4 P20
G1 X17.3 Y16.8 F480
M106 S0
G4 P100
G0 X17.6 Y16.8 F1200
M106 S255
G4 P20
G1 X17.6 Y16.8 F480
M106 S0
G4 P100
G0 X17.8 Y16.8 F1200
M106 S255
G4 P20
G1 X18.0 Y16.8 F480
M106 S0
G4 P100
G0 X18.4 Y16.8 F1200
M106 S255
G4 P20
G1 X37.1 Y16.8 F480
M106 S0
G4 P100
G0 X38.3 Y16.8 F1200
M106 S255
G4 P20
G1 X38.4 Y16.8 F480
M106 S0
G4 P100
G0 X44.5 Y16.8 F1200
M106 S255
G4 P20
G1 X46.9 Y16.8 F480
M106 S0
G4 P100
G0 X47.1 Y16.8 F1200
M106 S255
G4 P20
G1 X47.1 Y16.8 F480
M106 S0
G4 P100
G0 X46.9 Y16.9 F1200
M106 S255
G4 P20
G1 X44.3 Y16.9 F480
M106 S0
G4 P100
G0 X38.4 Y16.9 F1200
M106 S255
G4 P20
G1 X38.2 Y16.9 F480
M106 S0
G4 P100
G0 X37.1 Y16.9 F1200
M106 S255
G4 P20
G1 X18.7 Y16.9 F480
M106 S0
G4 P100
G0 X18.0 Y16.9 F1200
M106 S255
G4 P20
G1 X17.8 Y16.9 F480
M106 S0
G4 P100
G0 X17.4 Y16.9 F1200
M106 S255
G4 P20
G1 X14.7 Y16.9 F480
M106 S0
G4 P100
G0 X14.8 Y17.0 F1200
M106 S255
G4 P20
G1 X17.5 Y17.0 F480
M106 S0
G4 P100
G0 X17.9 Y17.0 F1200
M106 S255
G4 P20
G1 X18.0 Y17.0 F480
M106 S0
G4 P100
G0 X18.7 Y17.0 F1200
M106 S255
G4 P20
G1 X37.0 Y17.0 F480
M106 S0
G4 P100
G0 X38.2 Y17.0 F1200
M106 S255
G4 P20
G1 X38.3 Y17.0 F480
M106 S0
G4 P100
G0 X43.7 Y17.0 F1200
M106 S255
G4 P20
G1 X43.7 Y17.0 F480
M106 S0
G4 P100
G0 X44.2 Y17.0 F1200
M106 S255
G4 P20
G1 X46.9 Y17.0 F480
M106 S0
G4 P100
G0 X47.0 Y17.1 F1200
M106 S255
G4 P20
G1 X44.2 Y17.1 F480
M106 S0
G4 P100
G0 X43.7 Y17.1 F1200
M106 S255
G4 P20
G1 X43.6 Y17.1 F480
M106 S0
G4 P100
G0 X38.3 Y17.1 F1200
M106 S255
G4 P20
G1 X38.2 Y17.1 F480
M106 S0
G4 P100
G0 X37.0 Y17.1 F1200
M106 S255
G4 P20
G1 X18.6 Y17.1 F480
M106 S0
G4 P100
G0 X18.1 Y17.1 F1200
M106 S255
G4 P20
G1 X18.0 Y17.1 F480
M106 S0
G4 P100
G0 X17.5 Y17.1 F1200
M106 S255
G4 P20
G1 X14.8 Y17.1 F480
M106 S0
G4 P100
G0 X14.8 Y17.2 F1200
M106 S255
G4 P20
G1 X17.6 Y17.2 F480
M106 S0
G4 P100
G0 X18.0 Y17.2 F1200
M106 S255
G4 P20
G1 X18.1 Y17.2 F480
M106 S0
G4 P100
G0 X18.6 Y17.2 F1200
M106 S255
G4 P20
G1 X18.6 Y17.2 F480
M106 S0
G4 P100
G0 X18.9 Y17.2 F1200
M106 S255
G4 P20
G1 X36.9 Y17.2 F480
M106 S0
G4 P100
G0 X38.1 Y17.2 F1200
M106 S255
G4 P20
G1 X38.2 Y17.2 F480
M106 S0
G4 P100
G0 X43.6 Y17.2 F1200
M106 S255
G4 P20
G1 X43.7 Y17.2 F480
M106 S0
G4 P100
G0 X44.2 Y17.2 F1200
M106 S255
G4 P20
G1 X47.0 Y17.2 F480
M106 S0
G4 P100
G0 X47.0 Y17.3 F1200
M106 S255
G4 P20
G1 X44.2 Y17.3 F480
M106 S0
G4 P100
G0 X38.1 Y17.3 F1200
M106 S255
G4 P20
G1 X38.1 Y17.3 F480
M106 S0
G4 P100
G0 X36.9 Y17.3 F1200
M106 S255
G4 P20
G1 X19.0 Y17.3 F480
M106 S0
G4 P100
G0 X18.6 Y17.3 F1200
M106 S255
G4 P20
G1 X18.6 Y17.3 F480
M106 S0
G4 P100
G0 X18.2 Y17.3 F1200
M106 S255
G4 P20
G1 X18.1 Y17.3 F480
M106 S0
G4 P100
G0 X17.7 Y17.3 F1200
M106 S255
G4 P20
G1 X14.8 Y17.3 F480
M106 S0
G4 P100
G0 X14.9 Y17.4 F1200
M106 S255
G4 P20
G1 X17.8 Y17.4 F480
M106 S0
G4 P100
G0 X18.2 Y17.4 F1200
M106 S255
G4 P20
G1 X18.2 Y17.4 F480
M106 S0
G4 P100
G0 X19.0 Y17.4 F1200
M106 S255
G4 P20
G1 X36.8 Y17.4 F480
M106 S0
G4 P100
G0 X38.1 Y17.4 F1200
M106 S255
G4 P20
G1 X38.1 Y17.4 F480
M106 S0
G4 P100
G0 X44.2 Y17.4 F1200
M106 S255
G4 P20
G1 X47.0 Y17.4 F480
M106 S0
G4 P100
G0 X48.0 Y17.4 F1200
M106 S255
G4 P20
G1 X48.0 Y17.4 F480
M106 S0
G4 P100
G0 X48.1 Y17.5 F1200
M106 S255
G4 P20
G1 X48.0 Y17.5 F480
M106 S0
G4 P100
G0 X47.1 Y17.5 F1200
M106 S255
G4 P20
G1 X44.1 Y17.5 F480
M106 S0
G4 P100
G0 X41.5 Y17.5 F1200
M106 S255
G4 P20
G1 X41.5 Y17.5 F480
M106 S0
G4 P100
G0 X36.8 Y17.5 F1200
M106 S255
G4 P20
G1 X18.9 Y17.5 F480
M106 S0
G4 P100
G0 X18.3 Y17.5 F1200
M106 S255
G4 P20
G1 X18.2 Y17.5 F480
M106 S0
G4 P100
G0 X17.9 Y17.5 F1200
M106 S255
G4 P20
G1 X14.9 Y17.5 F480
M106 S0
G4 P100
G0 X15.0 Y17.6 F1200
M106 S255
G4 P20
G1 X18.0 Y17.6 F480
M106 S0
G4 P100
G0 X18.2 Y17.6 F1200
M106 S255
G4 P20
G1 X18.4 Y17.6 F480
M106 S0
G4 P100
G0 X18.9 Y17.6 F1200
M106 S255
G4 P20
G1 X36.8 Y17.6 F480
M106 S0
G4 P100
G0 X41.5 Y17.6 F1200
M106 S255
G4 P20
G1 X41.5 Y17.6 F480
M106 S0
G4 P100
G0 X44.0 Y17.6 F1200
M106 S255
G4 P20
G1 X47.1 Y17.6 F480
M106 S0
G4 P100
G0 X48.1 Y17.6 F1200
M106 S255
G4 P20
G1 X48.1 Y17.6 F480
M106 S0
G4 P100
G0 X48.2 Y17.7 F1200
M106 S255
G4 P20
G1 X48.1 Y17.7 F480
M106 S0
G4 P100
G0 X47.1 Y17.7 F1200
M106 S255
G4 P20
G1 X43.9 Y17.7 F480
M106 S0
G4 P100
G0 X36.7 Y17.7 F1200
M106 S255
G4 P20
G1 X20.4 Y17.7 F480
M106 S0
G4 P100
G0 X20.1 Y17.7 F1200
M106 S255
G4 P20
G1 X19.1 Y17.7 F480
M106 S0
G4 P100
G0 X18.4 Y17.7 F1200
M106 S255
G4 P20
G1 X18.3 Y17.7 F480
M106 S0
G4 P100
G0 X18.0 Y17.7 F1200
M106 S255
G4 P20
G1 X15.1 Y17.7 F480
M106 S0
G4 P100
G0 X15.1 Y17.8 F1200
M106 S255
G4 P20
G1 X18.0 Y17.8 F480
M106 S0
G4 P100
G0 X18.3 Y17.8 F1200
M106 S255
G4 P20
G1 X18.5 Y17.8 F480
M106 S0
G4 P100
G0 X19.8 Y17.8 F1200
M106 S255
G4 P20
G1 X20.0 Y17.8 F480
M106 S0
G4 P100
G0 X20.5 Y17.8 F1200
M106 S255
G4 P20
G1 X36.7 Y17.8 F480
M106 S0
G4 P100
G0 X41.4 Y17.8 F1200
M106 S255
G4 P20
G1 X41.4 Y17.8 F480
M106 S0
G4 P100
G0 X43.5 Y17.8 F1200
M106 S255
G4 P20
G1 X47.1 Y17.8 F480
M106 S0
G4 P100
G0 X48.1 Y17.8 F1200
M106 S255
G4 P20
G1 X48.2 Y17.8 F480
M106 S0
G4 P100
G0 X48.2 Y17.9 F1200
M106 S255
G4 P20
G1 X48.1 Y17.9 F480
M106 S0
G4 P100
G0 X47.1 Y17.9 F1200
M106 S255
G4 P20
G1 X43.5 Y17.9 F480
M106 S0
G4 P100
G0 X36.5 Y17.9 F1200
M106 S255
G4 P20
G1 X19.6 Y17.9 F480
M106 S0
G4 P100
G0 X19.1 Y17.9 F1200
M106 S255
G4 P20
G1 X19.1 Y17.9 F480
M106 S0
G4 P100
G0 X18.6 Y17.9 F1200
M106 S255
G4 P20
G1 X18.4 Y17.9 F480
M106 S0
G4 P100
G0 X18.2 Y17.9 F1200
M106 S255
G4 P20
G1 X15.2 Y17.9 F480
M106 S0
G4 P100
G0 X15.2 Y18.0 F1200
M106 S255
G4 P20
G1 X18.3 Y18.0 F480
M106 S0
G4 P100
G0 X18.5 Y18.0 F1200
M106 S255
G4 P20
G1 X18.6 Y18.0 F480
M106 S0
G4 P100
G0 X19.7 Y18.0 F1200
M106 S255
G4 P20
G1 X36.5 Y18.0 F480
M106 S0
G4 P100
G0 X43.4 Y18.0 F1200
M106 S255
G4 P20
G1 X47.1 Y18.0 F480
M106 S0
G4 P100
G0 X48.1 Y18.0 F1200
M106 S255
G4 P20
G1 X48.3 Y18.0 F480
M106 S0
G4 P100
G0 X48.3 Y18.1 F1200
M106 S255
G4 P20
G1 X48.2 Y18.1 F480
M106 S0
G4 P100
G0 X47.1 Y18.1 F1200
M106 S255
G4 P20
G1 X43.4 Y18.1 F480
M106 S0
G4 P100
G0 X36.5 Y18.1 F1200
M106 S255
G4 P20
G1 X19.8 Y18.1 F480
M106 S0
G4 P100
G0 X18.6 Y18.1 F1200
M106 S255
G4 P20
G1 X15.3 Y18.1 F480
M106 S0
G4 P100
G0 X15.3 Y18.2 F1200
M106 S255
G4 P20
G1 X18.7 Y18.2 F480
M106 S0
G4 P100
G0 X19.5 Y18.2 F1200
M106 S255
G4 P20
G1 X19.5 Y18.2 F480
M106 S0
G4 P100
G0 X19.8 Y18.2 F1200
M106 S255
G4 P20
G1 X20.5 Y18.2 F480
M106 S0
G4 P100
G0 X20.8 Y18.2 F1200
M106 S255
G4 P20
G1 X36.6 Y18.2 F480
M106 S0
G4 P100
G0 X43.4 Y18.2 F1200
M106 S255
G4 P20
G1 X47.2 Y18.2 F480
M106 S0
G4 P100
G0 X48.2 Y18.2 F1200
M106 S255
G4 P20
G1 X48.3 Y18.2 F480
M106 S0
G4 P100
G0 X48.4 Y18.3 F1200
M106 S255
G4 P20
G1 X48.3 Y18.3 F480
M106 S0
G4 P100
G0 X47.2 Y18.3 F1200
M106 S255
G4 P20
G1 X43.4 Y18.3 F480
M106 S0
G4 P100
G0 X42.6 Y18.3 F1200
M106 S255
G4 P20
G1 X42.6 Y18.3 F480
M106 S0
G4 P100
G0 X37.6 Y18.3 F1200
M106 S255
G4 P20
G1 X37.6 Y18.3 F480
M106 S0
G4 P100
G0 X36.7 Y18.3 F1200
M106 S255
G4 P20
G1 X20.8 Y18.3 F480
M106 S0
G4 P100
G0 X20.5 Y18.3 F1200
M106 S255
G4 P20
G1 X19.4 Y18.3 F480
M106 S0
G4 P100
G0 X18.8 Y18.3 F1200
M106 S255
G4 P20
G1 X15.4 Y18.3 F480
M106 S0
G4 P100
G0 X15.4 Y18.4 F1200
M106 S255
G4 P20
G1 X18.8 Y18.4 F480
M106 S0
G4 P100
G0 X19.4 Y18.4 F1200
M106 S255
G4 P20
G1 X36.8 Y18.4 F480
M106 S0
G4 P100
G0 X37.5 Y18.4 F1200
M106 S255
G4 P20
G1 X37.7 Y18.4 F480
M106 S0
G4 P100
G0 X42.6 Y18.4 F1200
M106 S255
G4 P20
G1 X42.6 Y18.4 F480
M106 S0
G4 P100
G0 X42.9 Y18.4 F1200
M106 S255
G4 P20
G1 X47.2 Y18.4 F480
M106 S0
G4 P100
G0 X48.3 Y18.4 F1200
M106 S255
G4 P20
G1 X48.4 Y18.4 F480
M106 S0
G4 P100
G0 X48.4 Y18.5 F1200
M106 S255
G4 P20
G1 X48.3 Y18.5 F480
M106 S0
G4 P100
G0 X47.2 Y18.5 F1200
M106 S255
G4 P20
G1 X42.5 Y18.5 F480
M106 S0
G4 P100
G0 X37.6 Y18.5 F1200
M106 S255
G4 P20
G1 X37.5 Y18.5 F480
M106 S0
G4 P100
G0 X36.9 Y18.5 F1200
M106 S255
G4 P20
G1 X19.6 Y18.5 F480
M106 S0
G4 P100
G0 X19.0 Y18.5 F1200
M106 S255
G4 P20
G1 X15.4 Y18.5 F480
M106 S0
G4 P100
G0 X15.5 Y18.6 F1200
M106 S255
G4 P20
G1 X19.0 Y18.6 F480
M106 S0
G4 P100
G0 X19.7 Y18.6 F1200
M106 S255
G4 P20
G1 X37.5 Y18.6 F480
M106 S0
G4 P100
G0 X42.4 Y18.6 F1200
M106 S255
G4 P20
G1 X47.2 Y18.6 F480
M106 S0
G4 P100
G0 X48.4 Y18.6 F1200
M106 S255
G4 P20
G1 X48.5 Y18.6 F480
M106 S0
G4 P100
G0 X48.5 Y18.7 F1200
M106 S255
G4 P20
G1 X48.4 Y18.7 F480
M106 S0
G4 P100
G0 X47.2 Y18.7 F1200
M106 S255
G4 P20
G1 X42.3 Y18.7 F480
M106 S0
G4 P100
G0 X37.5 Y18.7 F1200
M106 S255
G4 P20
G1 X20.2 Y18.7 F480
M106 S0
G4 P100
G0 X19.9 Y18.7 F1200
M106 S255
G4 P20
G1 X19.7 Y18.7 F480
M106 S0
G4 P100
G0 X19.0 Y18.7 F1200
M106 S255
G4 P20
G1 X15.5 Y18.7 F480
M106 S0
G4 P100
G0 X15.6 Y18.8 F1200
M106 S255
G4 P20
G1 X19.1 Y18.8 F480
M106 S0
G4 P100
G0 X19.7 Y18.8 F1200
M106 S255
G4 P20
G1 X19.9 Y18.8 F480
M106 S0
G4 P100
G0 X20.5 Y18.8 F1200
M106 S255
G4 P20
G1 X37.6 Y18.8 F480
M106 S0
G4 P100
G0 X42.3 Y18.8 F1200
M106 S255
G4 P20
G1 X47.2 Y18.8 F480
M106 S0
G4 P100
G0 X48.4 Y18.8 F1200
M106 S255
G4 P20
G1 X48.6 Y18.8 F480
M106 S0
G4 P100
G0 X48.6 Y18.9 F1200
M106 S255
G4 P20
G1 X48.5 Y18.9 F480
M106 S0
G4 P100
G0 X47.2 Y18.9 F1200
M106 S255
G4 P20
G1 X42.2 Y18.9 F480
M106 S0
G4 P100
G0 X41.3 Y18.9 F1200
M106 S255
G4 P20
G1 X41.3 Y18.9 F480
M106 S0
G4 P100
G0 X37.6 Y18.9 F1200
M106 S255
G4 P20
G1 X36.8 Y18.9 F480
M106 S0
G4 P100
G0 X36.2 Y18.9 F1200
M106 S255
G4 P20
G1 X23.6 Y18.9 F480
M106 S0
G4 P100
G0 X23.4 Y18.9 F1200
M106 S255
G4 P20
G1 X21.3 Y18.9 F480
M106 S0
G4 P100
G0 X21.0 Y18.9 F1200
M106 S255
G4 P20
G1 X20.5 Y18.9 F480
M106 S0
G4 P100
G0 X20.2 Y18.9 F1200
M106 S255
G4 P20
G1 X20.0 Y18.9 F480
M106 S0
G4 P100
G0 X19.1 Y18.9 F1200
M106 S255
G4 P20
G1 X15.6 Y18.9 F480
M106 S0
G4 P100
G0 X15.6 Y19.0 F1200
M106 S255
G4 P20
G1 X19.3 Y19.0 F480
M106 S0
G4 P100
G0 X19.7 Y19.0 F1200
M106 S255
G4 P20
G1 X19.7 Y19.0 F480
M106 S0
G4 P100
G0 X20.0 Y19.0 F1200
M106 S255
G4 P20
G1 X21.3 Y19.0 F480
M106 S0
G4 P100
G0 X21.6 Y19.0 F1200
M106 S255
G4 P20
G1 X36.1 Y19.0 F480
M106 S0
G4 P100
G0 X36.9 Y19.0 F1200
M106 S255
G4 P20
G1 X37.5 Y19.0 F480
M106 S0
G4 P100
G0 X41.5 Y19.0 F1200
M106 S255
G4 P20
G1 X41.5 Y19.0 F480
M106 S0
G4 P100
G0 X42.2 Y19.0 F1200
M106 S255
G4 P20
G1 X47.2 Y19.0 F480
M106 S0
G4 P100
G0 X48.5 Y19.0 F1200
M106 S255
G4 P20
G1 X48.6 Y19.0 F480
M106 S0
G4 P100
G0 X48.7 Y19.1 F1200
M106 S255
G4 P20
G1 X48.5 Y19.1 F480
M106 S0
G4 P100
G0 X47.3 Y19.1 F1200
M106 S255
G4 P20
G1 X42.1 Y19.1 F480
M106 S0
G4 P100
G0 X41.5 Y19.1 F1200
M106 S255
G4 P20
G1 X41.5 Y19.1 F480
M106 S0
G4 P100
G0 X37.7 Y19.1 F1200
M106 S255
G4 P20
G1 X37.2 Y19.1 F480
M106 S0
G4 P100
G0 X36.1 Y19.1 F1200
M106 S255
G4 P20
G1 X21.6 Y19.1 F480
M106 S0
G4 P100
G0 X21.3 Y19.1 F1200
M106 S255
G4 P20
G1 X21.3 Y19.1 F480
M106 S0
G4 P100
G0 X21.1 Y19.1 F1200
M106 S255
G4 P20
G1 X20.0 Y19.1 F480
M106 S0
G4 P100
G0 X19.7 Y19.1 F1200
M106 S255
G4 P20
G1 X19.7 Y19.1 F480
M106 S0
G4 P100
G0 X19.3 Y19.1 F1200
M106 S255
G4 P20
G1 X15.7 Y19.1 F480
M106 S0
G4 P100
G0 X15.8 Y19.2 F1200
M106 S255
G4 P20
G1 X19.4 Y19.2 F480
M106 S0
G4 P100
G0 X19.7 Y19.2 F1200
M106 S255
G4 P20
G1 X19.7 Y19.2 F480
M106 S0
G4 P100
G0 X20.0 Y19.2 F1200
M106 S255
G4 P20
G1 X21.0 Y19.2 F480
M106 S0
G4 P100
G0 X21.3 Y19.2 F1200
M106 S255
G4 P20
G1 X23.6 Y19.2 F480
M106 S0
G4 P100
G0 X23.8 Y19.2 F1200
M106 S255
G4 P20
G1 X36.0 Y19.2 F480
M106 S0
G4 P100
G0 X37.2 Y19.2 F1200
M106 S255
G4 P20
G1 X37.8 Y19.2 F480
M106 S0
G4 P100
G0 X41.5 Y19.2 F1200
M106 S255
G4 P20
G1 X41.5 Y19.2 F480
M106 S0
G4 P100
G0 X42.0 Y19.2 F1200
M106 S255
G4 P20
G1 X47.3 Y19.2 F480
M106 S0
G4 P100
G0 X48.5 Y19.2 F1200
M106 S255
G4 P20
G1 X48.7 Y19.2 F480
M106 S0
G4 P100
G0 X48.7 Y19.3 F1200
M106 S255
G4 P20
G1 X48.5 Y19.3 F480
M106 S0
G4 P100
G0 X47.3 Y19.3 F1200
M106 S255
G4 P20
G1 X42.0 Y19.3 F480
M106 S0
G4 P100
G0 X41.4 Y19.3 F1200
M106 S255
G4 P20
G1 X41.4 Y19.3 F480
M106 S0
G4 P100
G0 X41.2 Y19.3 F1200
M106 S255
G4 P20
G1 X41.0 Y19.3 F480
M106 S0
G4 P100
G0 X37.9 Y19.3 F1200
M106 S255
G4 P20
G1 X37.6 Y19.3 F480
M106 S0
G4 P100
G0 X37.3 Y19.3 F1200
M106 S255
G4 P20
G1 X37.3 Y19.3 F480
M106 S0
G4 P100
G0 X35.9 Y19.3 F1200
M106 S255
G4 P20
G1 X23.8 Y19.3 F480
M106 S0
G4 P100
G0 X23.6 Y19.3 F1200
M106 S255
G4 P20
G1 X21.3 Y19.3 F480
M106 S0
G4 P100
G0 X21.0 Y19.3 F1200
M106 S255
G4 P20
G1 X20.0 Y19.3 F480
M106 S0
G4 P100
G0 X19.5 Y19.3 F1200
M106 S255
G4 P20
G1 X15.8 Y19.3 F480
M106 S0
G4 P100
G0 X15.9 Y19.4 F1200
M106 S255
G4 P20
G1 X19.5 Y19.4 F480
M106 S0
G4 P100
G0 X20.0 Y19.4 F1200
M106 S255
G4 P20
G1 X21.0 Y19.4 F480
M106 S0
G4 P100
G0 X21.4 Y19.4 F1200
M106 S255
G4 P20
G1 X21.4 Y19.4 F480
M106 S0
G4 P100
G0 X21.8 Y19.4 F1200
M106 S255
G4 P20
G1 X23.7 Y19.4 F480
M106 S0
G4 P100
G0 X23.9 Y19.4 F1200
M106 S255
G4 P20
G1 X35.9 Y19.4 F480
M106 S0
G4 P100
G0 X37.5 Y19.4 F1200
M106 S255
G4 P20
G1 X37.5 Y19.4 F480
M106 S0
G4 P100
G0 X37.8 Y19.4 F1200
M106 S255
G4 P20
G1 X38.1 Y19.4 F480
M106 S0
G4 P100
G0 X41.0 Y19.4 F1200
M106 S255
G4 P20
G1 X41.2 Y19.4 F480
M106 S0
G4 P100
G0 X41.4 Y19.4 F1200
M106 S255
G4 P20
G1 X41.4 Y19.4 F480
M106 S0
G4 P100
G0 X42.0 Y19.4 F1200
M106 S255
G4 P20
G1 X47.4 Y19.4 F480
M106 S0
G4 P100
G0 X48.5 Y19.4 F1200
M106 S255
G4 P20
G1 X48.7 Y19.4 F480
M106 S0
G4 P100
G0 X48.7 Y19.5 F1200
M106 S255
G4 P20
G1 X48.6 Y19.5 F480
M106 S0
G4 P100
G0 X47.4 Y19.5 F1200
M106 S255
G4 P20
G1 X41.9 Y19.5 F480
M106 S0
G4 P100
G0 X41.4 Y19.5 F1200
M106 S255
G4 P20
G1 X41.4 Y19.5 F480
M106 S0
G4 P100
G0 X41.2 Y19.5 F1200
M106 S255
G4 P20
G1 X41.0 Y19.5 F480
M106 S0
G4 P100
G0 X38.3 Y19.5 F1200
M106 S255
G4 P20
G1 X37.9 Y19.5 F480
M106 S0
G4 P100
G0 X37.5 Y19.5 F1200
M106 S255
G4 P20
G1 X37.5 Y19.5 F480
M106 S0
G4 P100
G0 X37.1 Y19.5 F1200
M106 S255
G4 P20
G1 X37.1 Y19.5 F480
M106 S0
G4 P100
G0 X35.8 Y19.5 F1200
M106 S255
G4 P20
G1 X24.0 Y19.5 F480
M106 S0
G4 P100
G0 X23.8 Y19.5 F1200
M106 S255
G4 P20
G1 X21.9 Y19.5 F480
M106 S0
G4 P100
G0 X21.4 Y19.5 F1200
M106 S255
G4 P20
G1 X21.4 Y19.5 F480
M106 S0
G4 P100
G0 X21.0 Y19.5 F1200
M106 S255
G4 P20
G1 X20.2 Y19.5 F480
M106 S0
G4 P100
G0 X19.6 Y19.5 F1200
M106 S255
G4 P20
G1 X16.0 Y19.5 F480
M106 S0
G4 P100
G0 X16.1 Y19.6 F1200
M106 S255
G4 P20
G1 X19.6 Y19.6 F480
M106 S0
G4 P100
G0 X20.3 Y19.6 F1200
M106 S255
G4 P20
G1 X21.0 Y19.6 F480
M106 S0
G4 P100
G0 X21.3 Y19.6 F1200
M106 S255
G4 P20
G1 X21.6 Y19.6 F480
M106 S0
G4 P100
G0 X22.1 Y19.6 F1200
M106 S255
G4 P20
G1 X23.8 Y19.6 F480
M106 S0
G4 P100
G0 X24.0 Y19.6 F1200
M106 S255
G4 P20
G1 X35.8 Y19.6 F480
M106 S0
G4 P100
G0 X38.3 Y19.6 F1200
M106 S255
G4 P20
G1 X38.4 Y19.6 F480
M106 S0
G4 P100
G0 X40.9 Y19.6 F1200
M106 S255
G4 P20
G1 X41.2 Y19.6 F480
M106 S0
G4 P100
G0 X41.4 Y19.6 F1200
M106 S255
G4 P20
G1 X41.4 Y19.6 F480
M106 S0
G4 P100
G0 X41.8 Y19.6 F1200
M106 S255
G4 P20
G1 X47.4 Y19.6 F480
M106 S0
G4 P100
G0 X48.6 Y19.6 F1200
M106 S255
G4 P20
G1 X48.8 Y19.6 F480
M106 S0
G4 P100
G0 X48.8 Y19.7 F1200
M106 S255
G4 P20
G1 X48.6 Y19.7 F480
M106 S0
G4 P100
G0 X47.4 Y19.7 F1200
M106 S255
G4 P20
G1 X41.8 Y19.7 F480
M106 S0
G4 P100
G0 X41.4 Y19.7 F1200
M106 S255
G4 P20
G1 X40.9 Y19.7 F480
M106 S0
G4 P100
G0 X38.6 Y19.7 F1200
M106 S255
G4 P20
G1 X38.4 Y19.7 F480
M106 S0
G4 P100
G0 X35.7 Y19.7 F1200
M106 S255
G4 P20
G1 X24.1 Y19.7 F480
M106 S0
G4 P100
G0 X23.8 Y19.7 F1200
M106 S255
G4 P20
G1 X23.1 Y19.7 F480
M106 S0
G4 P100
G0 X22.9 Y19.7 F1200
M106 S255
G4 P20
G1 X22.1 Y19.7 F480
M106 S0
G4 P100
G0 X21.7 Y19.7 F1200
M106 S255
G4 P20
G1 X21.3 Y19.7 F480
M106 S0
G4 P100
G0 X21.0 Y19.7 F1200
M106 S255
G4 P20
G1 X20.9 Y19.7 F480
M106 S0
G4 P100
G0 X20.6 Y19.7 F1200
M106 S255
G4 P20
G1 X20.3 Y19.7 F480
M106 S0
G4 P100
G0 X19.7 Y19.7 F1200
M106 S255
G4 P20
G1 X16.2 Y19.7 F480
M106 S0
G4 P100
G0 X16.2 Y19.8 F1200
M106 S255
G4 P20
G1 X19.8 Y19.8 F480
M106 S0
G4 P100
G0 X20.2 Y19.8 F1200
M106 S255
G4 P20
G1 X20.3 Y19.8 F480
M106 S0
G4 P100
G0 X20.6 Y19.8 F1200
M106 S255
G4 P20
G1 X20.7 Y19.8 F480
M106 S0
G4 P100
G0 X20.9 Y19.8 F1200
M106 S255
G4 P20
G1 X21.6 Y19.8 F480
M106 S0
G4 P100
G0 X22.2 Y19.8 F1200
M106 S255
G4 P20
G1 X23.9 Y19.8 F480
M106 S0
G4 P100
G0 X24.1 Y19.8 F1200
M106 S255
G4 P20
G1 X35.7 Y19.8 F480
M106 S0
G4 P100
G0 X38.4 Y19.8 F1200
M106 S255
G4 P20
G1 X38.4 Y19.8 F480
M106 S0
G4 P100
G0 X40.9 Y19.8 F1200
M106 S255
G4 P20
G1 X41.5 Y19.8 F480
M106 S0
G4 P100
G0 X41.7 Y19.8 F1200
M106 S255
G4 P20
G1 X47.5 Y19.8 F480
M106 S0
G4 P100
G0 X48.6 Y19.8 F1200
M106 S255
G4 P20
G1 X48.8 Y19.8 F480
M106 S0
G4 P100
G0 X48.8 Y19.9 F1200
M106 S255
G4 P20
G1 X48.6 Y19.9 F480
M106 S0
G4 P100
G0 X47.5 Y19.9 F1200
M106 S255
G4 P20
G1 X41.5 Y19.9 F480
M106 S0
G4 P100
G0 X41.3 Y19.9 F1200
M106 S255
G4 P20
G1 X40.9 Y19.9 F480
M106 S0
G4 P100
G0 X38.9 Y19.9 F1200
M106 S255
G4 P20
G1 X38.9 Y19.9 F480
M106 S0
G4 P100
G0 X38.4 Y19.9 F1200
M106 S255
G4 P20
G1 X38.4 Y19.9 F480
M106 S0
G4 P100
G0 X35.6 Y19.9 F1200
M106 S255
G4 P20
G1 X22.4 Y19.9 F480
M106 S0
G4 P100
G0 X21.5 Y19.9 F1200
M106 S255
G4 P20
G1 X20.9 Y19.9 F480
M106 S0
G4 P100
G0 X20.7 Y19.9 F1200
M106 S255
G4 P20
G1 X20.6 Y19.9 F480
M106 S0
G4 P100
G0 X20.3 Y19.9 F1200
M106 S255
G4 P20
G1 X20.2 Y19.9 F480
M106 S0
G4 P100
G0 X19.8 Y19.9 F1200
M106 S255
G4 P20
G1 X16.3 Y19.9 F480
M106 S0
G4 P100
G0 X16.3 Y20.0 F1200
M106 S255
G4 P20
G1 X19.9 Y20.0 F480
M106 S0
G4 P100
G0 X20.3 Y20.0 F1200
M106 S255
G4 P20
G1 X20.4 Y20.0 F480
M106 S0
G4 P100
G0 X21.0 Y20.0 F1200
M106 S255
G4 P20
G1 X21.6 Y20.0 F480
M106 S0
G4 P100
G0 X22.4 Y20.0 F1200
M106 S255
G4 P20
G1 X23.9 Y20.0 F480
M106 S0
G4 P100
G0 X24.1 Y20.0 F1200
M106 S255
G4 P20
G1 X35.6 Y20.0 F480
M106 S0
G4 P100
G0 X38.5 Y20.0 F1200
M106 S255
G4 P20
G1 X38.5 Y20.0 F480
M106 S0
G4 P100
G0 X40.8 Y20.0 F1200
M106 S255
G4 P20
G1 X47.5 Y20.0 F480
M106 S0
G4 P100
G0 X48.6 Y20.0 F1200
M106 S255
G4 P20
G1 X48.8 Y20.0 F480
M106 S0
G4 P100
G0 X48.8 Y20.1 F1200
M106 S255
G4 P20
G1 X48.6 Y20.1 F480
M106 S0
G4 P100
G0 X47.6 Y20.1 F1200
M106 S255
G4 P20
G1 X40.8 Y20.1 F480
M106 S0
G4 P100
G0 X40.4 Y20.1 F1200
M106 S255
G4 P20
G1 X40.4 Y20.1 F480
M106 S0
G4 P100
G0 X39.2 Y20.1 F1200
M106 S255
G4 P20
G1 X39.2 Y20.1 F480
M106 S0
G4 P100
G0 X35.5 Y20.1 F1200
M106 S255
G4 P20
G1 X24.4 Y20.1 F480
M106 S0
G4 P100
G0 X23.9 Y20.1 F1200
M106 S255
G4 P20
G1 X22.4 Y20.1 F480
M106 S0
G4 P100
G0 X21.7 Y20.1 F1200
M106 S255
G4 P20
G1 X21.3 Y20.1 F480
M106 S0
G4 P100
G0 X20.5 Y20.1 F1200
M106 S255
G4 P20
G1 X20.3 Y20.1 F480
M106 S0
G4 P100
G0 X20.0 Y20.1 F1200
M106 S255
G4 P20
G1 X16.4 Y20.1 F480
M106 S0
G4 P100
G0 X16.4 Y20.2 F1200
M106 S255
G4 P20
G1 X20.2 Y20.2 F480
M106 S0
G4 P100
G0 X20.5 Y20.2 F1200
M106 S255
G4 P20
G1 X20.7 Y20.2 F480
M106 S0
G4 P100
G0 X21.3 Y20.2 F1200
M106 S255
G4 P20
G1 X21.7 Y20.2 F480
M106 S0
G4 P100
G0 X22.7 Y20.2 F1200
M106 S255
G4 P20
G1 X23.9 Y20.2 F480
M106 S0
G4 P100
G0 X24.3 Y20.2 F1200
M106 S255
G4 P20
G1 X35.5 Y20.2 F480
M106 S0
G4 P100
G0 X39.3 Y20.2 F1200
M106 S255
G4 P20
G1 X39.3 Y20.2 F480
M106 S0
G4 P100
G0 X40.7 Y20.2 F1200
M106 S255
G4 P20
G1 X47.6 Y20.2 F480
M106 S0
G4 P100
G0 X48.7 Y20.2 F1200
M106 S255
G4 P20
G1 X48.9 Y20.2 F480
M106 S0
G4 P100
G0 X48.9 Y20.3 F1200
M106 S255
G4 P20
G1 X48.7 Y20.3 F480
M106 S0
G4 P100
G0 X47.6 Y20.3 F1200
M106 S255
G4 P20
G1 X40.7 Y20.3 F480
M106 S0
G4 P100
G0 X39.5 Y20.3 F1200
M106 S255
G4 P20
G1 X39.4 Y20.3 F480
M106 S0
G4 P100
G0 X35.4 Y20.3 F1200
M106 S255
G4 P20
G1 X22.7 Y20.3 F480
M106 S0
G4 P100
G0 X21.7 Y20.3 F1200
M106 S255
G4 P20
G1 X21.3 Y20.3 F480
M106 S0
G4 P100
G0 X20.9 Y20.3 F1200
M106 S255
G4 P20
G1 X20.6 Y20.3 F480
M106 S0
G4 P100
G0 X20.2 Y20.3 F1200
M106 S255
G4 P20
G1 X16.5 Y20.3 F480
M106 S0
G4 P100
G0 X16.5 Y20.4 F1200
M106 S255
G4 P20
G1 X20.3 Y20.4 F480
M106 S0
G4 P100
G0 X20.6 Y20.4 F1200
M106 S255
G4 P20
G1 X21.7 Y20.4 F480
M106 S0
G4 P100
G0 X22.7 Y20.4 F1200
M106 S255
G4 P20
G1 X35.3 Y20.4 F480
M106 S0
G4 P100
G0 X39.5 Y20.4 F1200
M106 S255
G4 P20
G1 X39.6 Y20.4 F480
M106 S0
G4 P100
G0 X40.3 Y20.4 F1200
M106 S255
G4 P20
G1 X40.3 Y20.4 F480
M106 S0
G4 P100
G0 X40.6 Y20.4 F1200
M106 S255
G4 P20
G1 X47.6 Y20.4 F480
M106 S0
G4 P100
G0 X48.7 Y20.4 F1200
M106 S255
G4 P20
G1 X48.9 Y20.4 F480
M106 S0
G4 P100
G0 X48.9 Y20.5 F1200
M106 S255
G4 P20
G1 X48.7 Y20.5 F480
M106 S0
G4 P100
G0 X47.7 Y20.5 F1200
M106 S255
G4 P20
G1 X40.6 Y20.5 F480
M106 S0
G4 P100
G0 X40.3 Y20.5 F1200
M106 S255
G4 P20
G1 X40.3 Y20.5 F480
M106 S0
G4 P100
G0 X39.6 Y20.5 F1200
M106 S255
G4 P20
G1 X39.5 Y20.5 F480
M106 S0
G4 P100
G0 X35.3 Y20.5 F1200
M106 S255
G4 P20
G1 X22.7 Y20.5 F480
M106 S0
G4 P100
G0 X21.7 Y20.5 F1200
M106 S255
G4 P20
G1 X16.5 Y20.5 F480
M106 S0
G4 P100
G0 X16.6 Y20.6 F1200
M106 S255
G4 P20
G1 X21.6 Y20.6 F480
M106 S0
G4 P100
G0 X22.7 Y20.6 F1200
M106 S255
G4 P20
G1 X35.2 Y20.6 F480
M106 S0
G4 P100
G0 X40.2 Y20.6 F1200
M106 S255
G4 P20
G1 X40.3 Y20.6 F480
M106 S0
G4 P100
G0 X40.5 Y20.6 F1200
M106 S255
G4 P20
G1 X47.7 Y20.6 F480
M106 S0
G4 P100
G0 X48.7 Y20.6 F1200
M106 S255
G4 P20
G1 X48.9 Y20.6 F480
M106 S0
G4 P100
G0 X49.0 Y20.7 F1200
M106 S255
G4 P20
G1 X48.7 Y20.7 F480
M106 S0
G4 P100
G0 X47.7 Y20.7 F1200
M106 S255
G4 P20
G1 X40.5 Y20.7 F480
M106 S0
G4 P100
G0 X35.2 Y20.7 F1200
M106 S255
G4 P20
G1 X23.0 Y20.7 F480
M106 S0
G4 P100
G0 X21.6 Y20.7 F1200
M106 S255
G4 P20
G1 X16.6 Y20.7 F480
M106 S0
G4 P100
G0 X16.6 Y20.8 F1200
M106 S255
G4 P20
G1 X21.6 Y20.8 F480
M106 S0
G4 P100
G0 X23.3 Y20.8 F1200
M106 S255
G4 P20
G1 X23.4 Y20.8 F480
M106 S0
G4 P100
G0 X23.7 Y20.8 F1200
M106 S255
G4 P20
G1 X24.0 Y20.8 F480
M106 S0
G4 P100
G0 X24.3 Y20.8 F1200
M106 S255
G4 P20
G1 X24.6 Y20.8 F480
M106 S0
G4 P100
G0 X25.1 Y20.8 F1200
M106 S255
G4 P20
G1 X35.1 Y20.8 F480
M106 S0
G4 P100
G0 X40.5 Y20.8 F1200
M106 S255
G4 P20
G1 X47.8 Y20.8 F480
M106 S0
G4 P100
G0 X48.7 Y20.8 F1200
M106 S255
G4 P20
G1 X49.0 Y20.8 F480
M106 S0
G4 P100
G0 X49.0 Y20.9 F1200
M106 S255
G4 P20
G1 X48.7 Y20.9 F480
M106 S0
G4 P100
G0 X47.8 Y20.9 F1200
M106 S255
G4 P20
G1 X40.5 Y20.9 F480
M106 S0
G4 P100
G0 X35.1 Y20.9 F1200
M106 S255
G4 P20
G1 X25.2 Y20.9 F480
M106 S0
G4 P100
G0 X24.4 Y20.9 F1200
M106 S255
G4 P20
G1 X24.4 Y20.9 F480
M106 S0
G4 P100
G0 X23.9 Y20.9 F1200
M106 S255
G4 P20
G1 X23.8 Y20.9 F480
M106 S0
G4 P100
G0 X21.7 Y20.9 F1200
M106 S255
G4 P20
G1 X16.7 Y20.9 F480
M106 S0
G4 P100
G0 X16.8 Y21.0 F1200
M106 S255
G4 P20
G1 X21.8 Y21.0 F480
M106 S0
G4 P100
G0 X23.9 Y21.0 F1200
M106 S255
G4 P20
G1 X23.9 Y21.0 F480
M106 S0
G4 P100
G0 X25.3 Y21.0 F1200
M106 S255
G4 P20
G1 X35.0 Y21.0 F480
M106 S0
G4 P100
G0 X40.4 Y21.0 F1200
M106 S255
G4 P20
G1 X47.8 Y21.0 F480
M106 S0
G4 P100
G0 X48.7 Y21.0 F1200
M106 S255
G4 P20
G1 X49.0 Y21.0 F480
M106 S0
G4 P100
G0 X49.0 Y21.1 F1200
M106 S255
G4 P20
G1 X48.7 Y21.1 F480
M106 S0
G4 P100
G0 X47.8 Y21.1 F1200
M106 S255
G4 P20
G1 X40.4 Y21.1 F480
M106 S0
G4 P100
G0 X34.9 Y21.1 F1200
M106 S255
G4 P20
G1 X25.3 Y21.1 F480
M106 S0
G4 P100
G0 X21.8 Y21.1 F1200
M106 S255
G4 P20
G1 X16.8 Y21.1 F480
M106 S0
G4 P100
G0 X16.9 Y21.2 F1200
M106 S255
G4 P20
G1 X21.8 Y21.2 F480
M106 S0
G4 P100
G0 X25.3 Y21.2 F1200
M106 S255
G4 P20
G1 X34.8 Y21.2 F480
M106 S0
G4 P100
G0 X39.9 Y21.2 F1200
M106 S255
G4 P20
G1 X39.9 Y21.2 F480
M106 S0
G4 P100
G0 X40.4 Y21.2 F1200
M106 S255
G4 P20
G1 X47.5 Y21.2 F480
M106 S0
G4 P100
G0 X47.7 Y21.2 F1200
M106 S255
G4 P20
G1 X47.8 Y21.2 F480
M106 S0
G4 P100
G0 X48.8 Y21.2 F1200
M106 S255
G4 P20
G1 X49.1 Y21.2 F480
M106 S0
G4 P100
G0 X49.1 Y21.3 F1200
M106 S255
G4 P20
G1 X48.8 Y21.3 F480
M106 S0
G4 P100
G0 X47.9 Y21.3 F1200
M106 S255
G4 P20
G1 X47.7 Y21.3 F480
M106 S0
G4 P100
G0 X47.5 Y21.3 F1200
M106 S255
G4 P20
G1 X40.3 Y21.3 F480
M106 S0
G4 P100
G0 X40.0 Y21.3 F1200
M106 S255
G4 P20
G1 X39.8 Y21.3 F480
M106 S0
G4 P100
G0 X34.8 Y21.3 F1200
M106 S255
G4 P20
G1 X25.6 Y21.3 F480
M106 S0
G4 P100
G0 X24.5 Y21.3 F1200
M106 S255
G4 P20
G1 X24.3 Y21.3 F480
M106 S0
G4 P100
G0 X22.1 Y21.3 F1200
M106 S255
G4 P20
G1 X16.9 Y21.3 F480
M106 S0
G4 P100
G0 X17.0 Y21.4 F1200
M106 S255
G4 P20
G1 X22.3 Y21.4 F480
M106 S0
G4 P100
G0 X24.3 Y21.4 F1200
M106 S255
G4 P20
G1 X24.6 Y21.4 F480
M106 S0
G4 P100
G0 X25.7 Y21.4 F1200
M106 S255
G4 P20
G1 X34.7 Y21.4 F480
M106 S0
G4 P100
G0 X39.8 Y21.4 F1200
M106 S255
G4 P20
G1 X39.9 Y21.4 F480
M106 S0
G4 P100
G0 X40.3 Y21.4 F1200
M106 S255
G4 P20
G1 X47.5 Y21.4 F480
M106 S0
G4 P100
G0 X47.8 Y21.4 F1200
M106 S255
G4 P20
G1 X47.9 Y21.4 F480
M106 S0
G4 P100
G0 X48.8 Y21.4 F1200
M106 S255
G4 P20
G1 X49.1 Y21.4 F480
M106 S0
G4 P100
G0 X49.1 Y21.5 F1200
M106 S255
G4 P20
G1 X48.8 Y21.5 F480
M106 S0
G4 P100
G0 X47.9 Y21.5 F1200
M106 S255
G4 P20
G1 X47.8 Y21.5 F480
M106 S0
G4 P100
G0 X47.5 Y21.5 F1200
M106 S255
G4 P20
G1 X40.2 Y21.5 F480
M106 S0
G4 P100
G0 X39.8 Y21.5 F1200
M106 S255
G4 P20
G1 X39.8 Y21.5 F480
M106 S0
G4 P100
G0 X34.7 Y21.5 F1200
M106 S255
G4 P20
G1 X25.7 Y21.5 F480
M106 S0
G4 P100
G0 X24.5 Y21.5 F1200
M106 S255
G4 P20
G1 X24.3 Y21.5 F480
M106 S0
G4 P100
G0 X22.5 Y21.5 F1200
M106 S255
G4 P20
G1 X17.1 Y21.5 F480
M106 S0
G4 P100
G0 X17.1 Y21.6 F1200
M106 S255
G4 P20
G1 X22.6 Y21.6 F480
M106 S0
G4 P100
G0 X25.7 Y21.6 F1200
M106 S255
G4 P20
G1 X34.6 Y21.6 F480
M106 S0
G4 P100
G0 X39.8 Y21.6 F1200
M106 S255
G4 P20
G1 X39.8 Y21.6 F480
M106 S0
G4 P100
G0 X40.2 Y21.6 F1200
M106 S255
G4 P20
G1 X47.5 Y21.6 F480
M106 S0
G4 P100
G0 X47.8 Y21.6 F1200
M106 S255
G4 P20
G1 X48.0 Y21.6 F480
M106 S0
G4 P100
G0 X48.8 Y21.6 F1200
M106 S255
G4 P20
G1 X49.1 Y21.6 F480
M106 S0
G4 P100
G0 X49.1 Y21.7 F1200
M106 S255
G4 P20
G1 X48.8 Y21.7 F480
M106 S0
G4 P100
G0 X48.0 Y21.7 F1200
M106 S255
G4 P20
G1 X47.8 Y21.7 F480
M106 S0
G4 P100
G0 X47.5 Y21.7 F1200
M106 S255
G4 P20
G1 X40.1 Y21.7 F480
M106 S0
G4 P100
G0 X39.8 Y21.7 F1200
M106 S255
G4 P20
G1 X39.8 Y21.7 F480
M106 S0
G4 P100
G0 X34.6 Y21.7 F1200
M106 S255
G4 P20
G1 X26.6 Y21.7 F480
M106 S0
G4 P100
G0 X26.4 Y21.7 F1200
M106 S255
G4 P20
G1 X25.8 Y21.7 F480
M106 S0
G4 P100
G0 X23.1 Y21.7 F1200
M106 S255
G4 P20
G1 X23.0 Y21.7 F480
M106 S0
G4 P100
G0 X22.6 Y21.7 F1200
M106 S255
G4 P20
G1 X17.2 Y21.7 F480
M106 S0
G4 P100
G0 X17.2 Y21.8 F1200
M106 S255
G4 P20
G1 X23.0 Y21.8 F480
M106 S0
G4 P100
G0 X23.7 Y21.8 F1200
M106 S255
G4 P20
G1 X23.7 Y21.8 F480
M106 S0
G4 P100
G0 X24.1 Y21.8 F1200
M106 S255
G4 P20
G1 X24.2 Y21.8 F480
M106 S0
G4 P100
G0 X25.9 Y21.8 F1200
M106 S255
G4 P20
G1 X26.2 Y21.8 F480
M106 S0
G4 P100
G0 X26.6 Y21.8 F1200
M106 S255
G4 P20
G1 X34.4 Y21.8 F480
M106 S0
G4 P100
G0 X39.8 Y21.8 F1200
M106 S255
G4 P20
G1 X39.8 Y21.8 F480
M106 S0
G4 P100
G0 X40.1 Y21.8 F1200
M106 S255
G4 P20
G1 X47.5 Y21.8 F480
M106 S0
G4 P100
G0 X47.8 Y21.8 F1200
M106 S255
G4 P20
G1 X48.0 Y21.8 F480
M106 S0
G4 P100
G0 X48.8 Y21.8 F1200
M106 S255
G4 P20
G1 X49.1 Y21.8 F480
M106 S0
G4 P100
G0 X49.2 Y21.9 F1200
M106 S255
G4 P20
G1 X48.8 Y21.9 F480
M106 S0
G4 P100
G0 X48.0 Y21.9 F1200
M106 S255
G4 P20
G1 X47.8 Y21.9 F480
M106 S0
G4 P100
G0 X47.5 Y21.9 F1200
M106 S255
G4 P20
G1 X40.1 Y21.9 F480
M106 S0
G4 P100
G0 X34.4 Y21.9 F1200
M106 S255
G4 P20
G1 X26.6 Y21.9 F480
M106 S0
G4 P100
G0 X26.3 Y21.9 F1200
M106 S255
G4 P20
G1 X26.2 Y21.9 F480
M106 S0
G4 P100
G0 X24.2 Y21.9 F1200
M106 S255
G4 P20
G1 X24.1 Y21.9 F480
M106 S0
G4 P100
G0 X23.1 Y21.9 F1200
M106 S255
G4 P20
G1 X17.3 Y21.9 F480
M106 S0
G4 P100
G0 X17.3 Y22.0 F1200
M106 S255
G4 P20
G1 X23.3 Y22.0 F480
M106 S0
G4 P100
G0 X24.2 Y22.0 F1200
M106 S255
G4 P20
G1 X24.2 Y22.0 F480
M106 S0
G4 P100
G0 X26.2 Y22.0 F1200
M106 S255
G4 P20
G1 X26.3 Y22.0 F480
M106 S0
G4 P100
G0 X26.7 Y22.0 F1200
M106 S255
G4 P20
G1 X34.3 Y22.0 F480
M106 S0
G4 P100
G0 X40.1 Y22.0 F1200
M106 S255
G4 P20
G1 X47.5 Y22.0 F480
M106 S0
G4 P100
G0 X47.8 Y22.0 F1200
M106 S255
G4 P20
G1 X48.0 Y22.0 F480
M106 S0
G4 P100
G0 X48.8 Y22.0 F1200
M106 S255
G4 P20
G1 X49.2 Y22.0 F480
M106 S0
G4 P100
G0 X49.2 Y22.1 F1200
M106 S255
G4 P20
G1 X48.9 Y22.1 F480
M106 S0
G4 P100
G0 X48.0 Y22.1 F1200
M106 S255
G4 P20
G1 X47.9 Y22.1 F480
M106 S0
G4 P100
G0 X47.5 Y22.1 F1200
M106 S255
G4 P20
G1 X40.0 Y22.1 F480
M106 S0
G4 P100
G0 X34.3 Y22.1 F1200
M106 S255
G4 P20
G1 X26.7 Y22.1 F480
M106 S0
G4 P100
G0 X26.4 Y22.1 F1200
M106 S255
G4 P20
G1 X26.2 Y22.1 F480
M106 S0
G4 P100
G0 X23.5 Y22.1 F1200
M106 S255
G4 P20
G1 X17.4 Y22.1 F480
M106 S0
G4 P100
G0 X17.4 Y22.2 F1200
M106 S255
G4 P20
G1 X23.6 Y22.2 F480
M106 S0
G4 P100
G0 X24.6 Y22.2 F1200
M106 S255
G4 P20
G1 X24.6 Y22.2 F480
M106 S0
G4 P100
G0 X26.8 Y22.2 F1200
M106 S255
G4 P20
G1 X34.2 Y22.2 F480
M106 S0
G4 P100
G0 X40.0 Y22.2 F1200
M106 S255
G4 P20
G1 X47.5 Y22.2 F480
M106 S0
G4 P100
G0 X47.9 Y22.2 F1200
M106 S255
G4 P20
G1 X48.0 Y22.2 F480
M106 S0
G4 P100
G0 X48.9 Y22.2 F1200
M106 S255
G4 P20
G1 X49.2 Y22.2 F480
M106 S0
G4 P100
G0 X49.2 Y22.3 F1200
M106 S255
G4 P20
G1 X48.9 Y22.3 F480
M106 S0
G4 P100
G0 X48.1 Y22.3 F1200
M106 S255
G4 P20
G1 X47.9 Y22.3 F480
M106 S0
G4 P100
G0 X47.5 Y22.3 F1200
M106 S255
G4 P20
G1 X45.9 Y22.3 F480
M106 S0
G4 P100
G0 X45.7 Y22.3 F1200
M106 S255
G4 P20
G1 X40.0 Y22.3 F480
M106 S0
G4 P100
G0 X39.6 Y22.3 F1200
M106 S255
G4 P20
G1 X39.6 Y22.3 F480
M106 S0
G4 P100
G0 X34.1 Y22.3 F1200
M106 S255
G4 P20
G1 X26.8 Y22.3 F480
M106 S0
G4 P100
G0 X23.9 Y22.3 F1200
M106 S255
G4 P20
G1 X17.5 Y22.3 F480
M106 S0
G4 P100
G0 X17.6 Y22.4 F1200
M106 S255
G4 P20
G1 X24.1 Y22.4 F480
M106 S0
G4 P100
G0 X26.9 Y22.4 F1200
M106 S255
G4 P20
G1 X34.0 Y22.4 F480
M106 S0
G4 P100
G0 X39.9 Y22.4 F1200
M106 S255
G4 P20
G1 X45.7 Y22.4 F480
M106 S0
G4 P100
G0 X45.9 Y22.4 F1200
M106 S255
G4 P20
G1 X47.6 Y22.4 F480
M106 S0
G4 P100
G0 X47.9 Y22.4 F1200
M106 S255
G4 P20
G1 X48.1 Y22.4 F480
M106 S0
G4 P100
G0 X48.9 Y22.4 F1200
M106 S255
G4 P20
G1 X49.2 Y22.4 F480
M106 S0
G4 P100
G0 X49.2 Y22.5 F1200
M106 S255
G4 P20
G1 X48.9 Y22.5 F480
M106 S0
G4 P100
G0 X48.1 Y22.5 F1200
M106 S255
G4 P20
G1 X47.9 Y22.5 F480
M106 S0
G4 P100
G0 X47.6 Y22.5 F1200
M106 S255
G4 P20
G1 X45.9 Y22.5 F480
M106 S0
G4 P100
G0 X45.7 Y22.5 F1200
M106 S255
G4 P20
G1 X39.9 Y22.5 F480
M106 S0
G4 P100
G0 X34.0 Y22.5 F1200
M106 S255
G4 P20
G1 X27.1 Y22.5 F480
M106 S0
G4 P100
G0 X24.4 Y22.5 F1200
M106 S255
G4 P20
G1 X17.6 Y22.5 F480
M106 S0
G4 P100
G0 X17.7 Y22.6 F1200
M106 S255
G4 P20
G1 X24.4 Y22.6 F480
M106 S0
G4 P100
G0 X27.2 Y22.6 F1200
M106 S255
G4 P20
G1 X33.9 Y22.6 F480
M106 S0
G4 P100
G0 X39.7 Y22.6 F1200
M106 S255
G4 P20
G1 X45.7 Y22.6 F480
M106 S0
G4 P100
G0 X45.9 Y22.6 F1200
M106 S255
G4 P20
G1 X47.6 Y22.6 F480
M106 S0
G4 P100
G0 X47.9 Y22.6 F1200
M106 S255
G4 P20
G1 X48.1 Y22.6 F480
M106 S0
G4 P100
G0 X48.9 Y22.6 F1200
M106 S255
G4 P20
G1 X49.2 Y22.6 F480
M106 S0
G4 P100
G0 X49.2 Y22.7 F1200
M106 S255
G4 P20
G1 X48.9 Y22.7 F480
M106 S0
G4 P100
G0 X48.1 Y22.7 F1200
M106 S255
G4 P20
G1 X47.9 Y22.7 F480
M106 S0
G4 P100
G0 X47.6 Y22.7 F1200
M106 S255
G4 P20
G1 X39.7 Y22.7 F480
M106 S0
G4 P100
G0 X33.8 Y22.7 F1200
M106 S255
G4 P20
G1 X27.3 Y22.7 F480
M106 S0
G4 P100
G0 X25.6 Y22.7 F1200
M106 S255
G4 P20
G1 X25.5 Y22.7 F480
M106 S0
G4 P100
G0 X24.5 Y22.7 F1200
M106 S255
G4 P20
G1 X17.8 Y22.7 F480
M106 S0
G4 P100
G0 X17.8 Y22.8 F1200
M106 S255
G4 P20
G1 X24.8 Y22.8 F480
M106 S0
G4 P100
G0 X25.3 Y22.8 F1200
M106 S255
G4 P20
G1 X25.6 Y22.8 F480
M106 S0
G4 P100
G0 X27.4 Y22.8 F1200
M106 S255
G4 P20
G1 X33.7 Y22.8 F480
M106 S0
G4 P100
G0 X39.7 Y22.8 F1200
M106 S255
G4 P20
G1 X47.6 Y22.8 F480
M106 S0
G4 P100
G0 X47.9 Y22.8 F1200
M106 S255
G4 P20
G1 X48.1 Y22.8 F480
M106 S0
G4 P100
G0 X48.9 Y22.8 F1200
M106 S255
G4 P20
G1 X49.2 Y22.8 F480
M106 S0
G4 P100
G0 X49.2 Y22.9 F1200
M106 S255
G4 P20
G1 X48.9 Y22.9 F480
M106 S0
G4 P100
G0 X48.1 Y22.9 F1200
M106 S255
G4 P20
G1 X47.9 Y22.9 F480
M106 S0
G4 P100
G0 X47.6 Y22.9 F1200
M106 S255
G4 P20
G1 X39.7 Y22.9 F480
M106 S0
G4 P100
G0 X35.3 Y22.9 F1200
M106 S255
G4 P20
G1 X35.2 Y22.9 F480
M106 S0
G4 P100
G0 X33.7 Y22.9 F1200
M106 S255
G4 P20
G1 X27.4 Y22.9 F480
M106 S0
G4 P100
G0 X25.3 Y22.9 F1200
M106 S255
G4 P20
G1 X17.9 Y22.9 F480
M106 S0
G4 P100
G0 X18.0 Y23.0 F1200
M106 S255
G4 P20
G1 X25.5 Y23.0 F480
M106 S0
G4 P100
G0 X27.6 Y23.0 F1200
M106 S255
G4 P20
G1 X33.6 Y23.0 F480
M106 S0
G4 P100
G0 X35.2 Y23.0 F1200
M106 S255
G4 P20
G1 X35.2 Y23.0 F480
M106 S0
G4 P100
G0 X39.6 Y23.0 F1200
M106 S255
G4 P20
G1 X47.6 Y23.0 F480
M106 S0
G4 P100
G0 X48.0 Y23.0 F1200
M106 S255
G4 P20
G1 X48.1 Y23.0 F480
M106 S0
G4 P100
G0 X48.9 Y23.0 F1200
M106 S255
G4 P20
G1 X49.2 Y23.0 F480
M106 S0
G4 P100
G0 X49.3 Y23.1 F1200
M106 S255
G4 P20
G1 X48.9 Y23.1 F480
M106 S0
G4 P100
G0 X48.1 Y23.1 F1200
M106 S255
G4 P20
G1 X48.0 Y23.1 F480
M106 S0
G4 P100
G0 X47.6 Y23.1 F1200
M106 S255
G4 P20
G1 X39.5 Y23.1 F480
M106 S0
G4 P100
G0 X39.2 Y23.1 F1200
M106 S255
G4 P20
G1 X39.2 Y23.1 F480
M106 S0
G4 P100
G0 X35.1 Y23.1 F1200
M106 S255
G4 P20
G1 X35.1 Y23.1 F480
M106 S0
G4 P100
G0 X33.6 Y23.1 F1200
M106 S255
G4 P20
G1 X27.6 Y23.1 F480
M106 S0
G4 P100
G0 X25.6 Y23.1 F1200
M106 S255
G4 P20
G1 X18.1 Y23.1 F480
M106 S0
G4 P100
G0 X18.2 Y23.2 F1200
M106 S255
G4 P20
G1 X25.8 Y23.2 F480
M106 S0
G4 P100
G0 X27.2 Y23.2 F1200
M106 S255
G4 P20
G1 X33.5 Y23.2 F480
M106 S0
G4 P100
G0 X39.2 Y23.2 F1200
M106 S255
G4 P20
G1 X39.3 Y23.2 F480
M106 S0
G4 P100
G0 X39.5 Y23.2 F1200
M106 S255
G4 P20
G1 X47.6 Y23.2 F480
M106 S0
G4 P100
G0 X48.0 Y23.2 F1200
M106 S255
G4 P20
G1 X48.2 Y23.2 F480
M106 S0
G4 P100
G0 X48.9 Y23.2 F1200
M106 S255
G4 P20
G1 X49.3 Y23.2 F480
M106 S0
G4 P100
G0 X49.3 Y23.3 F1200
M106 S255
G4 P20
G1 X49.0 Y23.3 F480
M106 S0
G4 P100
G0 X48.2 Y23.3 F1200
M106 S255
G4 P20
G1 X48.0 Y23.3 F480
M106 S0
G4 P100
G0 X47.6 Y23.3 F1200
M106 S255
G4 P20
G1 X39.2 Y23.3 F480
M106 S0
G4 P100
G0 X33.4 Y23.3 F1200
M106 S255
G4 P20
G1 X18.3 Y23.3 F480
M106 S0
G4 P100
G0 X18.3 Y23.4 F1200
M106 S255
G4 P20
G1 X33.3 Y23.4 F480
M106 S0
G4 P100
G0 X39.1 Y23.4 F1200
M106 S255
G4 P20
G1 X39.1 Y23.4 F480
M106 S0
G4 P100
G0 X39.3 Y23.4 F1200
M106 S255
G4 P20
G1 X47.6 Y23.4 F480
M106 S0
G4 P100
G0 X48.0 Y23.4 F1200
M106 S255
G4 P20
G1 X48.2 Y23.4 F480
M106 S0
G4 P100
G0 X49.0 Y23.4 F1200
M106 S255
G4 P20
G1 X49.3 Y23.4 F480
M106 S0
G4 P100
G0 X49.3 Y23.5 F1200
M106 S255
G4 P20
G1 X49.0 Y23.5 F480
M106 S0
G4 P100
G0 X48.2 Y23.5 F1200
M106 S255
G4 P20
G1 X48.0 Y23.5 F480
M106 S0
G4 P100
G0 X47.6 Y23.5 F1200
M106 S255
G4 P20
G1 X39.0 Y23.5 F480
M106 S0
G4 P100
G0 X33.2 Y23.5 F1200
M106 S255
G4 P20
G1 X18.4 Y23.5 F480
M106 S0
G4 P100
G0 X18.7 Y23.6 F1200
M106 S255
G4 P20
G1 X33.1 Y23.6 F480
M106 S0
G4 P100
G0 X38.9 Y23.6 F1200
M106 S255
G4 P20
G1 X47.6 Y23.6 F480
M106 S0
G4 P100
G0 X48.0 Y23.6 F1200
M106 S255
G4 P20
G1 X48.2 Y23.6 F480
M106 S0
G4 P100
G0 X49.0 Y23.6 F1200
M106 S255
G4 P20
G1 X49.3 Y23.6 F480
M106 S0
G4 P100
G0 X49.3 Y23.7 F1200
M106 S255
G4 P20
G1 X49.0 Y23.7 F480
M106 S0
G4 P100
G0 X48.2 Y23.7 F1200
M106 S255
G4 P20
G1 X48.0 Y23.7 F480
M106 S0
G4 P100
G0 X47.6 Y23.7 F1200
M106 S255
G4 P20
G1 X38.9 Y23.7 F480
M106 S0
G4 P100
G0 X33.1 Y23.7 F1200
M106 S255
G4 P20
G1 X18.8 Y23.7 F480
M106 S0
G4 P100
G0 X18.9 Y23.8 F1200
M106 S255
G4 P20
G1 X33.0 Y23.8 F480
M106 S0
G4 P100
G0 X38.8 Y23.8 F1200
M106 S255
G4 P20
G1 X47.6 Y23.8 F480
M106 S0
G4 P100
G0 X48.1 Y23.8 F1200
M106 S255
G4 P20
G1 X48.2 Y23.8 F480
M106 S0
G4 P100
G0 X49.0 Y23.8 F1200
M106 S255
G4 P20
G1 X49.3 Y23.8 F480
M106 S0
G4 P100
G0 X49.3 Y23.9 F1200
M106 S255
G4 P20
G1 X49.0 Y23.9 F480
M106 S0
G4 P100
G0 X48.2 Y23.9 F1200
M106 S255
G4 P20
G1 X48.1 Y23.9 F480
M106 S0
G4 P100
G0 X47.6 Y23.9 F1200
M106 S255
G4 P20
G1 X38.7 Y23.9 F480
M106 S0
G4 P100
G0 X32.9 Y23.9 F1200
M106 S255
G4 P20
G1 X19.0 Y23.9 F480
M106 S0
G4 P100
G0 X19.1 Y24.0 F1200
M106 S255
G4 P20
G1 X32.8 Y24.0 F480
M106 S0
G4 P100
G0 X38.6 Y24.0 F1200
M106 S255
G4 P20
G1 X47.6 Y24.0 F480
M106 S0
G4 P100
G0 X48.1 Y24.0 F1200
M106 S255
G4 P20
G1 X48.2 Y24.0 F480
M106 S0
G4 P100
G0 X49.0 Y24.0 F1200
M106 S255
G4 P20
G1 X49.3 Y24.0 F480
M106 S0
G4 P100
G0 X49.3 Y24.1 F1200
M106 S255
G4 P20
G1 X49.0 Y24.1 F480
M106 S0
G4 P100
G0 X48.2 Y24.1 F1200
M106 S255
G4 P20
G1 X48.1 Y24.1 F480
M106 S0
G4 P100
G0 X47.6 Y24.1 F1200
M106 S255
G4 P20
G1 X38.6 Y24.1 F480
M106 S0
G4 P100
G0 X32.7 Y24.1 F1200
M106 S255
G4 P20
G1 X19.3 Y24.1 F480
M106 S0
G4 P100
G0 X19.4 Y24.2 F1200
M106 S255
G4 P20
G1 X32.6 Y24.2 F480
M106 S0
G4 P100
G0 X38.5 Y24.2 F1200
M106 S255
G4 P20
G1 X47.6 Y24.2 F480
M106 S0
G4 P100
G0 X48.1 Y24.2 F1200
M106 S255
G4 P20
G1 X48.3 Y24.2 F480
M106 S0
G4 P100
G0 X49.0 Y24.2 F1200
M106 S255
G4 P20
G1 X49.3 Y24.2 F480
M106 S0
G4 P100
G0 X49.3 Y24.3 F1200
M106 S255
G4 P20
G1 X49.0 Y24.3 F480
M106 S0
G4 P100
G0 X48.3 Y24.3 F1200
M106 S255
G4 P20
G1 X48.1 Y24.3 F480
M106 S0
G4 P100
G0 X47.6 Y24.3 F1200
M106 S255
G4 P20
G1 X39.0 Y24.3 F480
M106 S0
G4 P100
G0 X38.8 Y24.3 F1200
M106 S255
G4 P20
G1 X38.7 Y24.3 F480
M106 S0
G4 P100
G0 X38.5 Y24.3 F1200
M106 S255
G4 P20
G1 X38.5 Y24.3 F480
M106 S0
G4 P100
G0 X32.6 Y24.3 F1200
M106 S255
G4 P20
G1 X19.5 Y24.3 F480
M106 S0
G4 P100
G0 X19.7 Y24.4 F1200
M106 S255
G4 P20
G1 X32.5 Y24.4 F480
M106 S0
G4 P100
G0 X38.6 Y24.4 F1200
M106 S255
G4 P20
G1 X47.6 Y24.4 F480
M106 S0
G4 P100
G0 X48.1 Y24.4 F1200
M106 S255
G4 P20
G1 X48.3 Y24.4 F480
M106 S0
G4 P100
G0 X49.0 Y24.4 F1200
M106 S255
G4 P20
G1 X49.3 Y24.4 F480
M106 S0
G4 P100
G0 X49.3 Y24.5 F1200
M106 S255
G4 P20
G1 X49.0 Y24.5 F480
M106 S0
G4 P100
G0 X48.3 Y24.5 F1200
M106 S255
G4 P20
G1 X48.1 Y24.5 F480
M106 S0
G4 P100
G0 X47.6 Y24.5 F1200
M106 S255
G4 P20
G1 X38.5 Y24.5 F480
M106 S0
G4 P100
G0 X32.4 Y24.5 F1200
M106 S255
G4 P20
G1 X19.8 Y24.5 F480
M106 S0
G4 P100
G0 X19.9 Y24.6 F1200
M106 S255
G4 P20
G1 X32.3 Y24.6 F480
M106 S0
G4 P100
G0 X38.5 Y24.6 F1200
M106 S255
G4 P20
G1 X38.6 Y24.6 F480
M106 S0
G4 P100
G0 X38.8 Y24.6 F1200
M106 S255
G4 P20
G1 X47.6 Y24.6 F480
M106 S0
G4 P100
G0 X48.1 Y24.6 F1200
M106 S255
G4 P20
G1 X48.3 Y24.6 F480
M106 S0
G4 P100
G0 X49.0 Y24.6 F1200
M106 S255
G4 P20
G1 X49.3 Y24.6 F480
M106 S0
G4 P100
G0 X49.3 Y24.7 F1200
M106 S255
G4 P20
G1 X49.0 Y24.7 F480
M106 S0
G4 P100
G0 X48.3 Y24.7 F1200
M106 S255
G4 P20
G1 X48.1 Y24.7 F480
M106 S0
G4 P100
G0 X47.6 Y24.7 F1200
M106 S255
G4 P20
G1 X38.4 Y24.7 F480
M106 S0
G4 P100
G0 X32.2 Y24.7 F1200
M106 S255
G4 P20
G1 X20.1 Y24.7 F480
M106 S0
G4 P100
G0 X20.2 Y24.8 F1200
M106 S255
G4 P20
G1 X32.1 Y24.8 F480
M106 S0
G4 P100
G0 X38.4 Y24.8 F1200
M106 S255
G4 P20
G1 X47.6 Y24.8 F480
M106 S0
G4 P100
G0 X48.1 Y24.8 F1200
M106 S255
G4 P20
G1 X48.3 Y24.8 F480
M106 S0
G4 P100
G0 X49.0 Y24.8 F1200
M106 S255
G4 P20
G1 X49.3 Y24.8 F480
M106 S0
G4 P100
G0 X49.3 Y24.9 F1200
M106 S255
G4 P20
G1 X49.0 Y24.9 F480
M106 S0
G4 P100
G0 X48.3 Y24.9 F1200
M106 S255
G4 P20
G1 X48.1 Y24.9 F480
M106 S0
G4 P100
G0 X47.6 Y24.9 F1200
M106 S255
G4 P20
G1 X38.3 Y24.9 F480
M106 S0
G4 P100
G0 X32.0 Y24.9 F1200
M106 S255
G4 P20
G1 X20.3 Y24.9 F480
M106 S0
G4 P100
G0 X20.5 Y25.0 F1200
M106 S255
G4 P20
G1 X31.9 Y25.0 F480
M106 S0
G4 P100
G0 X38.2 Y25.0 F1200
M106 S255
G4 P20
G1 X47.6 Y25.0 F480
M106 S0
G4 P100
G0 X48.1 Y25.0 F1200
M106 S255
G4 P20
G1 X48.3 Y25.0 F480
M106 S0
G4 P100
G0 X49.0 Y25.0 F1200
M106 S255
G4 P20
G1 X49.3 Y25.0 F480
M106 S0
G4 P100
G0 X49.3 Y25.1 F1200
M106 S255
G4 P20
G1 X48.9 Y25.1 F480
M106 S0
G4 P100
G0 X48.3 Y25.1 F1200
M106 S255
G4 P20
G1 X48.1 Y25.1 F480
M106 S0
G4 P100
G0 X47.6 Y25.1 F1200
M106 S255
G4 P20
G1 X38.1 Y25.1 F480
M106 S0
G4 P100
G0 X31.9 Y25.1 F1200
M106 S255
G4 P20
G1 X20.6 Y25.1 F480
M106 S0
G4 P100
G0 X20.8 Y25.2 F1200
M106 S255
G4 P20
G1 X31.8 Y25.2 F480
M106 S0
G4 P100
G0 X38.0 Y25.2 F1200
M106 S255
G4 P20
G1 X47.6 Y25.2 F480
M106 S0
G4 P100
G0 X48.1 Y25.2 F1200
M106 S255
G4 P20
G1 X48.3 Y25.2 F480
M106 S0
G4 P100
G0 X48.9 Y25.2 F1200
M106 S255
G4 P20
G1 X49.3 Y25.2 F480
M106 S0
G4 P100
G0 X49.3 Y25.3 F1200
M106 S255
G4 P20
G1 X48.9 Y25.3 F480
M106 S0
G4 P100
G0 X48.3 Y25.3 F1200
M106 S255
G4 P20
G1 X48.1 Y25.3 F480
M106 S0
G4 P100
G0 X47.6 Y25.3 F1200
M106 S255
G4 P20
G1 X38.0 Y25.3 F480
M106 S0
G4 P100
G0 X31.6 Y25.3 F1200
M106 S255
G4 P20
G1 X21.0 Y25.3 F480
M106 S0
G4 P100
G0 X21.3 Y25.4 F1200
M106 S255
G4 P20
G1 X31.5 Y25.4 F480
M106 S0
G4 P100
G0 X38.0 Y25.4 F1200
M106 S255
G4 P20
G1 X47.6 Y25.4 F480
M106 S0
G4 P100
G0 X48.1 Y25.4 F1200
M106 S255
G4 P20
G1 X48.3 Y25.4 F480
M106 S0
G4 P100
G0 X48.9 Y25.4 F1200
M106 S255
G4 P20
G1 X49.3 Y25.4 F480
M106 S0
G4 P100
G0 X49.3 Y25.5 F1200
M106 S255
G4 P20
G1 X48.9 Y25.5 F480
M106 S0
G4 P100
G0 X48.3 Y25.5 F1200
M106 S255
G4 P20
G1 X48.2 Y25.5 F480
M106 S0
G4 P100
G0 X47.6 Y25.5 F1200
M106 S255
G4 P20
G1 X37.9 Y25.5 F480
M106 S0
G4 P100
G0 X31.4 Y25.5 F1200
M106 S255
G4 P20
G1 X21.4 Y25.5 F480
M106 S0
G4 P100
G0 X21.6 Y25.6 F1200
M106 S255
G4 P20
G1 X31.6 Y25.6 F480
M106 S0
G4 P100
G0 X37.8 Y25.6 F1200
M106 S255
G4 P20
G1 X47.6 Y25.6 F480
M106 S0
G4 P100
G0 X48.2 Y25.6 F1200
M106 S255
G4 P20
G1 X48.3 Y25.6 F480
M106 S0
G4 P100
G0 X48.9 Y25.6 F1200
M106 S255
G4 P20
G1 X49.3 Y25.6 F480
M106 S0
G4 P100
G0 X49.2 Y25.7 F1200
M106 S255
G4 P20
G1 X48.9 Y25.7 F480
M106 S0
G4 P100
G0 X48.3 Y25.7 F1200
M106 S255
G4 P20
G1 X48.2 Y25.7 F480
M106 S0
G4 P100
G0 X47.6 Y25.7 F1200
M106 S255
G4 P20
G1 X37.7 Y25.7 F480
M106 S0
G4 P100
G0 X31.3 Y25.7 F1200
M106 S255
G4 P20
G1 X21.8 Y25.7 F480
M106 S0
G4 P100
G0 X22.0 Y25.8 F1200
M106 S255
G4 P20
G1 X31.1 Y25.8 F480
M106 S0
G4 P100
G0 X37.7 Y25.8 F1200
M106 S255
G4 P20
G1 X47.6 Y25.8 F480
M106 S0
G4 P100
G0 X48.2 Y25.8 F1200
M106 S255
G4 P20
G1 X48.3 Y25.8 F480
M106 S0
G4 P100
G0 X48.9 Y25.8 F1200
M106 S255
G4 P20
G1 X49.2 Y25.8 F480
M106 S0
G4 P100
G0 X49.2 Y25.9 F1200
M106 S255
G4 P20
G1 X48.9 Y25.9 F480
M106 S0
G4 P100
G0 X48.3 Y25.9 F1200
M106 S255
G4 P20
G1 X48.2 Y25.9 F480
M106 S0
G4 P100
G0 X47.6 Y25.9 F1200
M106 S255
G4 P20
G1 X37.6 Y25.9 F480
M106 S0
G4 P100
G0 X30.8 Y25.9 F1200
M106 S255
G4 P20
G1 X22.1 Y25.9 F480
M106 S0
G4 P100
G0 X18.0 Y25.9 F1200
M106 S255
G4 P20
G1 X17.6 Y25.9 F480
M106 S0
G4 P100
G0 X17.5 Y26.0 F1200
M106 S255
G4 P20
G1 X18.2 Y26.0 F480
M106 S0
G4 P100
G0 X22.5 Y26.0 F1200
M106 S255
G4 P20
G1 X30.5 Y26.0 F480
M106 S0
G4 P100
G0 X37.5 Y26.0 F1200
M106 S255
G4 P20
G1 X47.6 Y26.0 F480
M106 S0
G4 P100
G0 X48.2 Y26.0 F1200
M106 S255
G4 P20
G1 X48.3 Y26.0 F480
M106 S0
G4 P100
G0 X48.9 Y26.0 F1200
M106 S255
G4 P20
G1 X49.2 Y26.0 F480
M106 S0
G4 P100
G0 X49.2 Y26.1 F1200
M106 S255
G4 P20
G1 X48.9 Y26.1 F480
M106 S0
G4 P100
G0 X48.4 Y26.1 F1200
M106 S255
G4 P20
G1 X48.2 Y26.1 F480
M106 S0
G4 P100
G0 X47.6 Y26.1 F1200
M106 S255
G4 P20
G1 X37.5 Y26.1 F480
M106 S0
G4 P100
G0 X30.3 Y26.1 F1200
M106 S255
G4 P20
G1 X22.6 Y26.1 F480
M106 S0
G4 P100
G0 X18.3 Y26.1 F1200
M106 S255
G4 P20
G1 X17.4 Y26.1 F480
M106 S0
G4 P100
G0 X17.3 Y26.2 F1200
M106 S255
G4 P20
G1 X18.4 Y26.2 F480
M106 S0
G4 P100
G0 X22.8 Y26.2 F1200
M106 S255
G4 P20
G1 X29.3 Y26.2 F480
M106 S0
G4 P100
G0 X37.5 Y26.2 F1200
M106 S255
G4 P20
G1 X47.6 Y26.2 F480
M106 S0
G4 P100
G0 X48.2 Y26.2 F1200
M106 S255
G4 P20
G1 X48.4 Y26.2 F480
M106 S0
G4 P100
G0 X48.9 Y26.2 F1200
M106 S255
G4 P20
G1 X49.2 Y26.2 F480
M106 S0
G4 P100
G0 X49.2 Y26.3 F1200
M106 S255
G4 P20
G1 X48.9 Y26.3 F480
M106 S0
G4 P100
G0 X48.4 Y26.3 F1200
M106 S255
G4 P20
G1 X48.2 Y26.3 F480
M106 S0
G4 P100
G0 X47.6 Y26.3 F1200
M106 S255
G4 P20
G1 X37.4 Y26.3 F480
M106 S0
G4 P100
G0 X27.9 Y26.3 F1200
M106 S255
G4 P20
G1 X24.2 Y26.3 F480
M106 S0
G4 P100
G0 X23.4 Y26.3 F1200
M106 S255
G4 P20
G1 X23.0 Y26.3 F480
M106 S0
G4 P100
G0 X18.5 Y26.3 F1200
M106 S255
G4 P20
G1 X17.2 Y26.3 F480
M106 S0
G4 P100
G0 X17.2 Y26.4 F1200
M106 S255
G4 P20
G1 X18.6 Y26.4 F480
M106 S0
G4 P100
G0 X25.1 Y26.4 F1200
M106 S255
G4 P20
G1 X27.0 Y26.4 F480
M106 S0
G4 P100
G0 X37.3 Y26.4 F1200
M106 S255
G4 P20
G1 X47.6 Y26.4 F480
M106 S0
G4 P100
G0 X48.2 Y26.4 F1200
M106 S255
G4 P20
G1 X48.4 Y26.4 F480
M106 S0
G4 P100
G0 X48.8 Y26.4 F1200
M106 S255
G4 P20
G1 X49.2 Y26.4 F480
M106 S0
G4 P100
G0 X49.2 Y26.5 F1200
M106 S255
G4 P20
G1 X48.8 Y26.5 F480
M106 S0
G4 P100
G0 X48.4 Y26.5 F1200
M106 S255
G4 P20
G1 X48.2 Y26.5 F480
M106 S0
G4 P100
G0 X47.6 Y26.5 F1200
M106 S255
G4 P20
G1 X37.2 Y26.5 F480
M106 S0
G4 P100
G0 X31.5 Y26.5 F1200
M106 S255
G4 P20
G1 X31.5 Y26.5 F480
M106 S0
G4 P100
G0 X18.7 Y26.5 F1200
M106 S255
G4 P20
G1 X17.1 Y26.5 F480
M106 S0
G4 P100
G0 X17.0 Y26.6 F1200
M106 S255
G4 P20
G1 X18.8 Y26.6 F480
M106 S0
G4 P100
G0 X31.5 Y26.6 F1200
M106 S255
G4 P20
G1 X31.5 Y26.6 F480
M106 S0
G4 P100
G0 X37.2 Y26.6 F1200
M106 S255
G4 P20
G1 X47.6 Y26.6 F480
M106 S0
G4 P100
G0 X48.2 Y26.6 F1200
M106 S255
G4 P20
G1 X48.4 Y26.6 F480
M106 S0
G4 P100
G0 X48.8 Y26.6 F1200
M106 S255
G4 P20
G1 X49.2 Y26.6 F480
M106 S0
G4 P100
G0 X49.2 Y26.7 F1200
M106 S255
G4 P20
G1 X48.8 Y26.7 F480
M106 S0
G4 P100
G0 X48.4 Y26.7 F1200
M106 S255
G4 P20
G1 X48.2 Y26.7 F480
M106 S0
G4 P100
G0 X47.6 Y26.7 F1200
M106 S255
G4 P20
G1 X37.0 Y26.7 F480
M106 S0
G4 P100
G0 X18.9 Y26.7 F1200
M106 S255
G4 P20
G1 X16.9 Y26.7 F480
M106 S0
G4 P100
G0 X17.0 Y26.8 F1200
M106 S255
G4 P20
G1 X19.0 Y26.8 F480
M106 S0
G4 P100
G0 X37.0 Y26.8 F1200
M106 S255
G4 P20
G1 X45.2 Y26.8 F480
M106 S0
G4 P100
G0 X45.4 Y26.8 F1200
M106 S255
G4 P20
G1 X47.6 Y26.8 F480
M106 S0
G4 P100
G0 X48.3 Y26.8 F1200
M106 S255
G4 P20
G1 X48.4 Y26.8 F480
M106 S0
G4 P100
G0 X48.8 Y26.8 F1200
M106 S255
G4 P20
G1 X49.2 Y26.8 F480
M106 S0
G4 P100
G0 X49.2 Y26.9 F1200
M106 S255
G4 P20
G1 X48.8 Y26.9 F480
M106 S0
G4 P100
G0 X48.4 Y26.9 F1200
M106 S255
G4 P20
G1 X48.3 Y26.9 F480
M106 S0
G4 P100
G0 X47.6 Y26.9 F1200
M106 S255
G4 P20
G1 X45.4 Y26.9 F480
M106 S0
G4 P100
G0 X45.2 Y26.9 F1200
M106 S255
G4 P20
G1 X36.9 Y26.9 F480
M106 S0
G4 P100
G0 X19.2 Y26.9 F1200
M106 S255
G4 P20
G1 X17.0 Y26.9 F480
M106 S0
G4 P100
G0 X16.8 Y26.9 F1200
M106 S255
G4 P20
G1 X16.8 Y26.9 F480
M106 S0
G4 P100
G0 X16.8 Y27.0 F1200
M106 S255
G4 P20
G1 X16.8 Y27.0 F480
M106 S0
G4 P100
G0 X17.1 Y27.0 F1200
M106 S255
G4 P20
G1 X19.3 Y27.0 F480
M106 S0
G4 P100
G0 X36.8 Y27.0 F1200
M106 S255
G4 P20
G1 X45.2 Y27.0 F480
M106 S0
G4 P100
G0 X45.4 Y27.0 F1200
M106 S255
G4 P20
G1 X47.6 Y27.0 F480
M106 S0
G4 P100
G0 X48.2 Y27.0 F1200
M106 S255
G4 P20
G1 X48.4 Y27.0 F480
M106 S0
G4 P100
G0 X48.8 Y27.0 F1200
M106 S255
G4 P20
G1 X49.2 Y27.0 F480
M106 S0
G4 P100
G0 X49.1 Y27.1 F1200
M106 S255
G4 P20
G1 X48.8 Y27.1 F480
M106 S0
G4 P100
G0 X48.4 Y27.1 F1200
M106 S255
G4 P20
G1 X48.2 Y27.1 F480
M106 S0
G4 P100
G0 X47.6 Y27.1 F1200
M106 S255
G4 P20
G1 X36.8 Y27.1 F480
M106 S0
G4 P100
G0 X19.4 Y27.1 F1200
M106 S255
G4 P20
G1 X17.1 Y27.1 F480
M106 S0
G4 P100
G0 X16.8 Y27.1 F1200
M106 S255
G4 P20
G1 X16.8 Y27.1 F480
M106 S0
G4 P100
G0 X17.1 Y27.2 F1200
M106 S255
G4 P20
G1 X19.5 Y27.2 F480
M106 S0
G4 P100
G0 X36.6 Y27.2 F1200
M106 S255
G4 P20
G1 X47.6 Y27.2 F480
M106 S0
G4 P100
G0 X48.2 Y27.2 F1200
M106 S255
G4 P20
G1 X48.4 Y27.2 F480
M106 S0
G4 P100
G0 X48.8 Y27.2 F1200
M106 S255
G4 P20
G1 X49.1 Y27.2 F480
M106 S0
G4 P100
G0 X49.1 Y27.3 F1200
M106 S255
G4 P20
G1 X48.8 Y27.3 F480
M106 S0
G4 P100
G0 X48.3 Y27.3 F1200
M106 S255
G4 P20
G1 X48.2 Y27.3 F480
M106 S0
G4 P100
G0 X47.6 Y27.3 F1200
M106 S255
G4 P20
G1 X36.5 Y27.3 F480
M106 S0
G4 P100
G0 X19.6 Y27.3 F1200
M106 S255
G4 P20
G1 X17.1 Y27.3 F480
M106 S0
G4 P100
G0 X16.9 Y27.3 F1200
M106 S255
G4 P20
G1 X16.9 Y27.3 F480
M106 S0
G4 P100
G0 X16.9 Y27.4 F1200
M106 S255
G4 P20
G1 X19.8 Y27.4 F480
M106 S0
G4 P100
G0 X36.5 Y27.4 F1200
M106 S255
G4 P20
G1 X47.6 Y27.4 F480
M106 S0
G4 P100
G0 X48.2 Y27.4 F1200
M106 S255
G4 P20
G1 X48.3 Y27.4 F480
M106 S0
G4 P100
G0 X48.7 Y27.4 F1200
M106 S255
G4 P20
G1 X49.1 Y27.4 F480
M106 S0
G4 P100
G0 X49.1 Y27.5 F1200
M106 S255
G4 P20
G1 X48.7 Y27.5 F480
M106 S0
G4 P100
G0 X48.4 Y27.5 F1200
M106 S255
G4 P20
G1 X48.2 Y27.5 F480
M106 S0
G4 P100
G0 X47.6 Y27.5 F1200
M106 S255
G4 P20
G1 X36.4 Y27.5 F480
M106 S0
G4 P100
G0 X19.9 Y27.5 F1200
M106 S255
G4 P20
G1 X17.0 Y27.5 F480
M106 S0
G4 P100
G0 X16.9 Y27.6 F1200
M106 S255
G4 P20
G1 X20.0 Y27.6 F480
M106 S0
G4 P100
G0 X36.3 Y27.6 F1200
M106 S255
G4 P20
G1 X47.6 Y27.6 F480
M106 S0
G4 P100
G0 X48.2 Y27.6 F1200
M106 S255
G4 P20
G1 X48.4 Y27.6 F480
M106 S0
G4 P100
G0 X48.7 Y27.6 F1200
M106 S255
G4 P20
G1 X49.1 Y27.6 F480
M106 S0
G4 P100
G0 X49.1 Y27.7 F1200
M106 S255
G4 P20
G1 X48.7 Y27.7 F480
M106 S0
G4 P100
G0 X48.3 Y27.7 F1200
M106 S255
G4 P20
G1 X48.2 Y27.7 F480
M106 S0
G4 P100
G0 X47.6 Y27.7 F1200
M106 S255
G4 P20
G1 X36.2 Y27.7 F480
M106 S0
G4 P100
G0 X20.2 Y27.7 F1200
M106 S255
G4 P20
G1 X16.9 Y27.7 F480
M106 S0
G4 P100
G0 X16.9 Y27.8 F1200
M106 S255
G4 P20
G1 X20.3 Y27.8 F480
M106 S0
G4 P100
G0 X36.2 Y27.8 F1200
M106 S255
G4 P20
G1 X47.7 Y27.8 F480
M106 S0
G4 P100
G0 X48.2 Y27.8 F1200
M106 S255
G4 P20
G1 X48.3 Y27.8 F480
M106 S0
G4 P100
G0 X48.7 Y27.8 F1200
M106 S255
G4 P20
G1 X49.0 Y27.8 F480
M106 S0
G4 P100
G0 X49.0 Y27.9 F1200
M106 S255
G4 P20
G1 X48.7 Y27.9 F480
M106 S0
G4 P100
G0 X48.3 Y27.9 F1200
M106 S255
G4 P20
G1 X48.2 Y27.9 F480
M106 S0
G4 P100
G0 X47.7 Y27.9 F1200
M106 S255
G4 P20
G1 X36.1 Y27.9 F480
M106 S0
G4 P100
G0 X20.5 Y27.9 F1200
M106 S255
G4 P20
G1 X16.8 Y27.9 F480
M106 S0
G4 P100
G0 X16.7 Y28.0 F1200
M106 S255
G4 P20
G1 X20.6 Y28.0 F480
M106 S0
G4 P100
G0 X36.0 Y28.0 F1200
M106 S255
G4 P20
G1 X47.7 Y28.0 F480
M106 S0
G4 P100
G0 X48.2 Y28.0 F1200
M106 S255
G4 P20
G1 X48.3 Y28.0 F480
M106 S0
G4 P100
G0 X48.7 Y28.0 F1200
M106 S255
G4 P20
G1 X49.0 Y28.0 F480
M106 S0
G4 P100
G0 X49.0 Y28.1 F1200
M106 S255
G4 P20
G1 X48.7 Y28.1 F480
M106 S0
G4 P100
G0 X48.3 Y28.1 F1200
M106 S255
G4 P20
G1 X48.2 Y28.1 F480
M106 S0
G4 P100
G0 X47.7 Y28.1 F1200
M106 S255
G4 P20
G1 X36.0 Y28.1 F480
M106 S0
G4 P100
G0 X20.8 Y28.1 F1200
M106 S255
G4 P20
G1 X16.7 Y28.1 F480
M106 S0
G4 P100
G0 X16.6 Y28.2 F1200
M106 S255
G4 P20
G1 X21.0 Y28.2 F480
M106 S0
G4 P100
G0 X35.9 Y28.2 F1200
M106 S255
G4 P20
G1 X47.7 Y28.2 F480
M106 S0
G4 P100
G0 X48.2 Y28.2 F1200
M106 S255
G4 P20
G1 X48.3 Y28.2 F480
M106 S0
G4 P100
G0 X48.6 Y28.2 F1200
M106 S255
G4 P20
G1 X49.0 Y28.2 F480
M106 S0
G4 P100
G0 X48.9 Y28.3 F1200
M106 S255
G4 P20
G1 X48.6 Y28.3 F480
M106 S0
G4 P100
G0 X48.3 Y28.3 F1200
M106 S255
G4 P20
G1 X48.2 Y28.3 F480
M106 S0
G4 P100
G0 X47.7 Y28.3 F1200
M106 S255
G4 P20
G1 X35.8 Y28.3 F480
M106 S0
G4 P100
G0 X21.2 Y28.3 F1200
M106 S255
G4 P20
G1 X16.5 Y28.3 F480
M106 S0
G4 P100
G0 X16.4 Y28.4 F1200
M106 S255
G4 P20
G1 X21.4 Y28.4 F480
M106 S0
G4 P100
G0 X35.7 Y28.4 F1200
M106 S255
G4 P20
G1 X47.7 Y28.4 F480
M106 S0
G4 P100
G0 X48.2 Y28.4 F1200
M106 S255
G4 P20
G1 X48.3 Y28.4 F480
M106 S0
G4 P100
G0 X48.6 Y28.4 F1200
M106 S255
G4 P20
G1 X48.9 Y28.4 F480
M106 S0
G4 P100
G0 X48.9 Y28.5 F1200
M106 S255
G4 P20
G1 X48.6 Y28.5 F480
M106 S0
G4 P100
G0 X48.3 Y28.5 F1200
M106 S255
G4 P20
G1 X48.2 Y28.5 F480
M106 S0
G4 P100
G0 X47.7 Y28.5 F1200
M106 S255
G4 P20
G1 X35.6 Y28.5 F480
M106 S0
G4 P100
G0 X21.5 Y28.5 F1200
M106 S255
G4 P20
G1 X16.4 Y28.5 F480
M106 S0
G4 P100
G0 X16.3 Y28.6 F1200
M106 S255
G4 P20
G1 X21.7 Y28.6 F480
M106 S0
G4 P100
G0 X35.5 Y28.6 F1200
M106 S255
G4 P20
G1 X47.7 Y28.6 F480
M106 S0
G4 P100
G0 X48.2 Y28.6 F1200
M106 S255
G4 P20
G1 X48.4 Y28.6 F480
M106 S0
G4 P100
G0 X48.6 Y28.6 F1200
M106 S255
G4 P20
G1 X48.9 Y28.6 F480
M106 S0
G4 P100
G0 X48.9 Y28.7 F1200
M106 S255
G4 P20
G1 X48.2 Y28.7 F480
M106 S0
G4 P100
G0 X47.7 Y28.7 F1200
M106 S255
G4 P20
G1 X35.4 Y28.7 F480
M106 S0
G4 P100
G0 X21.9 Y28.7 F1200
M106 S255
G4 P20
G1 X16.2 Y28.7 F480
M106 S0
G4 P100
G0 X15.8 Y28.8 F1200
M106 S255
G4 P20
G1 X15.9 Y28.8 F480
M106 S0
G4 P100
G0 X16.1 Y28.8 F1200
M106 S255
G4 P20
G1 X22.0 Y28.8 F480
M106 S0
G4 P100
G0 X35.4 Y28.8 F1200
M106 S255
G4 P20
G1 X47.7 Y28.8 F480
M106 S0
G4 P100
G0 X48.1 Y28.8 F1200
M106 S255
G4 P20
G1 X48.9 Y28.8 F480
M106 S0
G4 P100
G0 X48.8 Y28.9 F1200
M106 S255
G4 P20
G1 X48.1 Y28.9 F480
M106 S0
G4 P100
G0 X47.7 Y28.9 F1200
M106 S255
G4 P20
G1 X35.3 Y28.9 F480
M106 S0
G4 P100
G0 X22.2 Y28.9 F1200
M106 S255
G4 P20
G1 X15.7 Y28.9 F480
M106 S0
G4 P100
G0 X15.5 Y29.0 F1200
M106 S255
G4 P20
G1 X22.4 Y29.0 F480
M106 S0
G4 P100
G0 X35.2 Y29.0 F1200
M106 S255
G4 P20
G1 X47.7 Y29.0 F480
M106 S0
G4 P100
G0 X48.1 Y29.0 F1200
M106 S255
G4 P20
G1 X48.8 Y29.0 F480
M106 S0
G4 P100
G0 X48.8 Y29.1 F1200
M106 S255
G4 P20
G1 X48.1 Y29.1 F480
M106 S0
G4 P100
G0 X47.7 Y29.1 F1200
M106 S255
G4 P20
G1 X35.1 Y29.1 F480
M106 S0
G4 P100
G0 X22.6 Y29.1 F1200
M106 S255
G4 P20
G1 X15.4 Y29.1 F480
M106 S0
G4 P100
G0 X15.1 Y29.2 F1200
M106 S255
G4 P20
G1 X22.8 Y29.2 F480
M106 S0
G4 P100
G0 X35.0 Y29.2 F1200
M106 S255
G4 P20
G1 X47.7 Y29.2 F480
M106 S0
G4 P100
G0 X48.1 Y29.2 F1200
M106 S255
G4 P20
G1 X48.8 Y29.2 F480
M106 S0
G4 P100
G0 X48.8 Y29.3 F1200
M106 S255
G4 P20
G1 X48.1 Y29.3 F480
M106 S0
G4 P100
G0 X47.7 Y29.3 F1200
M106 S255
G4 P20
G1 X34.9 Y29.3 F480
M106 S0
G4 P100
G0 X23.0 Y29.3 F1200
M106 S255
G4 P20
G1 X15.1 Y29.3 F480
M106 S0
G4 P100
G0 X14.6 Y29.3 F1200
M106 S255
G4 P20
G1 X14.6 Y29.3 F480
M106 S0
G4 P100
G0 X14.5 Y29.4 F1200
M106 S255
G4 P20
G1 X14.6 Y29.4 F480
M106 S0
G4 P100
G0 X14.9 Y29.4 F1200
M106 S255
G4 P20
G1 X23.4 Y29.4 F480
M106 S0
G4 P100
G0 X34.8 Y29.4 F1200
M106 S255
G4 P20
G1 X47.7 Y29.4 F480
M106 S0
G4 P100
G0 X48.1 Y29.4 F1200
M106 S255
G4 P20
G1 X48.7 Y29.4 F480
M106 S0
G4 P100
G0 X48.7 Y29.5 F1200
M106 S255
G4 P20
G1 X48.1 Y29.5 F480
M106 S0
G4 P100
G0 X47.7 Y29.5 F1200
M106 S255
G4 P20
G1 X34.6 Y29.5 F480
M106 S0
G4 P100
G0 X23.7 Y29.5 F1200
M106 S255
G4 P20
G1 X14.8 Y29.5 F480
M106 S0
G4 P100
G0 X14.4 Y29.5 F1200
M106 S255
G4 P20
G1 X14.4 Y29.5 F480
M106 S0
G4 P100
G0 X14.7 Y29.6 F1200
M106 S255
G4 P20
G1 X24.1 Y29.6 F480
M106 S0
G4 P100
G0 X34.3 Y29.6 F1200
M106 S255
G4 P20
G1 X47.7 Y29.6 F480
M106 S0
G4 P100
G0 X48.1 Y29.6 F1200
M106 S255
G4 P20
G1 X48.7 Y29.6 F480
M106 S0
G4 P100
G0 X48.7 Y29.7 F1200
M106 S255
G4 P20
G1 X48.1 Y29.7 F480
M106 S0
G4 P100
G0 X47.7 Y29.7 F1200
M106 S255
G4 P20
G1 X33.7 Y29.7 F480
M106 S0
G4 P100
G0 X24.4 Y29.7 F1200
M106 S255
G4 P20
G1 X14.6 Y29.7 F480
M106 S0
G4 P100
G0 X14.2 Y29.7 F1200
M106 S255
G4 P20
G1 X14.2 Y29.7 F480
M106 S0
G4 P100
G0 X14.1 Y29.8 F1200
M106 S255
G4 P20
G1 X14.3 Y29.8 F480
M106 S0
G4 P100
G0 X14.5 Y29.8 F1200
M106 S255
G4 P20
G1 X24.7 Y29.8 F480
M106 S0
G4 P100
G0 X33.2 Y29.8 F1200
M106 S255
G4 P20
G1 X47.7 Y29.8 F480
M106 S0
G4 P100
G0 X48.1 Y29.8 F1200
M106 S255
G4 P20
G1 X48.6 Y29.8 F480
M106 S0
G4 P100
G0 X48.6 Y29.9 F1200
M106 S255
G4 P20
G1 X48.1 Y29.9 F480
M106 S0
G4 P100
G0 X47.7 Y29.9 F1200
M106 S255
G4 P20
G1 X32.1 Y29.9 F480
M106 S0
G4 P100
G0 X26.0 Y29.9 F1200
M106 S255
G4 P20
G1 X25.4 Y29.9 F480
M106 S0
G4 P100
G0 X25.0 Y29.9 F1200
M106 S255
G4 P20
G1 X14.5 Y29.9 F480
M106 S0
G4 P100
G0 X14.2 Y29.9 F1200
M106 S255
G4 P20
G1 X14.2 Y29.9 F480
M106 S0
G4 P100
G0 X14.0 Y29.9 F1200
M106 S255
G4 P20
G1 X14.0 Y29.9 F480
M106 S0
G4 P100
G0 X13.9 Y30.0 F1200
M106 S255
G4 P20
G1 X14.1 Y30.0 F480
M106 S0
G4 P100
G0 X14.3 Y30.0 F1200
M106 S255
G4 P20
G1 X45.1 Y30.0 F480
M106 S0
G4 P100
G0 X45.3 Y30.0 F1200
M106 S255
G4 P20
G1 X47.7 Y30.0 F480
M106 S0
G4 P100
G0 X48.1 Y30.0 F1200
M106 S255
G4 P20
G1 X48.6 Y30.0 F480
M106 S0
G4 P100
G0 X48.6 Y30.1 F1200
M106 S255
G4 P20
G1 X48.1 Y30.1 F480
M106 S0
G4 P100
G0 X47.7 Y30.1 F1200
M106 S255
G4 P20
G1 X45.3 Y30.1 F480
M106 S0
G4 P100
G0 X45.1 Y30.1 F1200
M106 S255
G4 P20
G1 X30.9 Y30.1 F480
M106 S0
G4 P100
G0 X29.8 Y30.1 F1200
M106 S255
G4 P20
G1 X29.8 Y30.1 F480
M106 S0
G4 P100
G0 X28.2 Y30.1 F1200
M106 S255
G4 P20
G1 X13.7 Y30.1 F480
M106 S0
G4 P100
G0 X13.6 Y30.2 F1200
M106 S255
G4 P20
G1 X28.5 Y30.2 F480
M106 S0
G4 P100
G0 X30.7 Y30.2 F1200
M106 S255
G4 P20
G1 X47.7 Y30.2 F480
M106 S0
G4 P100
G0 X48.0 Y30.2 F1200
M106 S255
G4 P20
G1 X48.6 Y30.2 F480
M106 S0
G4 P100
G0 X48.5 Y30.3 F1200
M106 S255
G4 P20
G1 X48.0 Y30.3 F480
M106 S0
G4 P100
G0 X47.7 Y30.3 F1200
M106 S255
G4 P20
G1 X30.2 Y30.3 F480
M106 S0
G4 P100
G0 X29.8 Y30.3 F1200
M106 S255
G4 P20
G1 X29.8 Y30.3 F480
M106 S0
G4 P100
G0 X29.3 Y30.3 F1200
M106 S255
G4 P20
G1 X13.6 Y30.3 F480
M106 S0
G4 P100
G0 X13.5 Y30.4 F1200
M106 S255
G4 P20
G1 X47.7 Y30.4 F480
M106 S0
G4 P100
G0 X48.0 Y30.4 F1200
M106 S255
G4 P20
G1 X48.5 Y30.4 F480
M106 S0
G4 P100
G0 X48.5 Y30.5 F1200
M106 S255
G4 P20
G1 X48.0 Y30.5 F480
M106 S0
G4 P100
G0 X47.7 Y30.5 F1200
M106 S255
G4 P20
G1 X13.4 Y30.5 F480
M106 S0
G4 P100
G0 X13.3 Y30.6 F1200
M106 S255
G4 P20
G1 X47.7 Y30.6 F480
M106 S0
G4 P100
G0 X48.0 Y30.6 F1200
M106 S255
G4 P20
G1 X48.0 Y30.6 F480
M106 S0
G4 P100
G0 X48.2 Y30.6 F1200
M106 S255
G4 P20
G1 X48.5 Y30.6 F480
M106 S0
G4 P100
G0 X48.4 Y30.7 F1200
M106 S255
G4 P20
G1 X48.2 Y30.7 F480
M106 S0
G4 P100
G0 X48.0 Y30.7 F1200
M106 S255
G4 P20
G1 X45.2 Y30.7 F480
M106 S0
G4 P100
G0 X45.0 Y30.7 F1200
M106 S255
G4 P20
G1 X13.2 Y30.7 F480
M106 S0
G4 P100
G0 X13.1 Y30.8 F1200
M106 S255
G4 P20
G1 X45.0 Y30.8 F480
M106 S0
G4 P100
G0 X45.2 Y30.8 F1200
M106 S255
G4 P20
G1 X48.0 Y30.8 F480
M106 S0
G4 P100
G0 X48.2 Y30.8 F1200
M106 S255
G4 P20
G1 X48.4 Y30.8 F480
M106 S0
G4 P100
G0 X48.4 Y30.9 F1200
M106 S255
G4 P20
G1 X48.2 Y30.9 F480
M106 S0
G4 P100
G0 X48.0 Y30.9 F1200
M106 S255
G4 P20
G1 X45.2 Y30.9 F480
M106 S0
G4 P100
G0 X45.0 Y30.9 F1200
M106 S255
G4 P20
G1 X13.1 Y30.9 F480
M106 S0
G4 P100
G0 X13.0 Y31.0 F1200
M106 S255
G4 P20
G1 X44.9 Y31.0 F480
M106 S0
G4 P100
G0 X45.2 Y31.0 F1200
M106 S255
G4 P20
G1 X48.0 Y31.0 F480
M106 S0
G4 P100
G0 X48.2 Y31.0 F1200
M106 S255
G4 P20
G1 X48.4 Y31.0 F480
M106 S0
G4 P100
G0 X48.4 Y31.1 F1200
M106 S255
G4 P20
G1 X48.2 Y31.1 F480
M106 S0
G4 P100
G0 X48.0 Y31.1 F1200
M106 S255
G4 P20
G1 X45.2 Y31.1 F480
M106 S0
G4 P100
G0 X44.9 Y31.1 F1200
M106 S255
G4 P20
G1 X18.9 Y31.1 F480
M106 S0
G4 P100
G0 X18.5 Y31.1 F1200
M106 S255
G4 P20
G1 X13.2 Y31.1 F480
M106 S0
G4 P100
G0 X12.9 Y31.1 F1200
M106 S255
G4 P20
G1 X12.9 Y31.1 F480
M106 S0
G4 P100
G0 X12.9 Y31.2 F1200
M106 S255
G4 P20
G1 X12.9 Y31.2 F480
M106 S0
G4 P100
G0 X13.2 Y31.2 F1200
M106 S255
G4 P20
G1 X18.7 Y31.2 F480
M106 S0
G4 P100
G0 X19.0 Y31.2 F1200
M106 S255
G4 P20
G1 X44.9 Y31.2 F480
M106 S0
G4 P100
G0 X45.1 Y31.2 F1200
M106 S255
G4 P20
G1 X47.8 Y31.2 F480
M106 S0
G4 P100
G0 X48.0 Y31.2 F1200
M106 S255
G4 P20
G1 X48.3 Y31.2 F480
M106 S0
G4 P100
G0 X48.3 Y31.3 F1200
M106 S255
G4 P20
G1 X48.0 Y31.3 F480
M106 S0
G4 P100
G0 X47.8 Y31.3 F1200
M106 S255
G4 P20
G1 X45.1 Y31.3 F480
M106 S0
G4 P100
G0 X44.9 Y31.3 F1200
M106 S255
G4 P20
G1 X19.2 Y31.3 F480
M106 S0
G4 P100
G0 X19.0 Y31.3 F1200
M106 S255
G4 P20
G1 X13.2 Y31.3 F480
M106 S0
G4 P100
G0 X13.2 Y31.4 F1200
M106 S255
G4 P20
G1 X44.8 Y31.4 F480
M106 S0
G4 P100
G0 X45.1 Y31.4 F1200
M106 S255
G4 P20
G1 X48.3 Y31.4 F480
M106 S0
G4 P100
G0 X48.2 Y31.5 F1200
M106 S255
G4 P20
