; Generated with "ZONESTAR Laser Engraving Gcode generator V3"
;
M106 S0 ; turn off laser
G21; Set units to millimeters
G90; Use absolute coordinates
G28; home all axes
G92 X-5 Y0 Z0; Coordinate Offset
M0 turn on laser power and press knob ;Wait for laser turn on
;
G1 Z20 F400 ;Move up Z axis before engraving
;
G0 X28.3 Y35.5 F1200
M106 S255
G4 P20
G1 X27.3 Y35.5 F480
M106 S0
G4 P100
G0 X26.5 Y35.6 F1200
M106 S255
G4 P20
G1 X29.0 Y35.6 F480
M106 S0
G4 P100
G0 X29.4 Y35.7 F1200
M106 S255
G4 P20
G1 X26.0 Y35.7 F480
M106 S0
G4 P100
G0 X25.6 Y35.8 F1200
M106 S255
G4 P20
G1 X29.8 Y35.8 F480
M106 S0
G4 P100
G0 X30.1 Y35.9 F1200
M106 S255
G4 P20
G1 X25.3 Y35.9 F480
M106 S0
G4 P100
G0 X25.0 Y36.0 F1200
M106 S255
G4 P20
G1 X30.3 Y36.0 F480
M106 S0
G4 P100
G0 X30.4 Y36.1 F1200
M106 S255
G4 P20
G1 X27.9 Y36.1 F480
M106 S0
G4 P100
G0 X26.8 Y36.1 F1200
M106 S255
G4 P20
G1 X24.8 Y36.1 F480
M106 S0
G4 P100
G0 X24.5 Y36.2 F1200
M106 S255
G4 P20
G1 X26.1 Y36.2 F480
M106 S0
G4 P100
G0 X28.4 Y36.2 F1200
M106 S255
G4 P20
G1 X29.2 Y36.2 F480
M106 S0
G4 P100
G0 X29.7 Y36.2 F1200
M106 S255
G4 P20
G1 X30.6 Y36.2 F480
M106 S0
G4 P100
G0 X30.8 Y36.3 F1200
M106 S255
G4 P20
G1 X29.8 Y36.3 F480
M106 S0
G4 P100
G0 X29.1 Y36.3 F1200
M106 S255
G4 P20
G1 X28.6 Y36.3 F480
M106 S0
G4 P100
G0 X25.8 Y36.3 F1200
M106 S255
G4 P20
G1 X24.3 Y36.3 F480
M106 S0
G4 P100
G0 X24.1 Y36.4 F1200
M106 S255
G4 P20
G1 X25.5 Y36.4 F480
M106 S0
G4 P100
G0 X28.7 Y36.4 F1200
M106 S255
G4 P20
G1 X29.2 Y36.4 F480
M106 S0
G4 P100
G0 X30.1 Y36.4 F1200
M106 S255
G4 P20
G1 X30.9 Y36.4 F480
M106 S0
G4 P100
G0 X31.1 Y36.5 F1200
M106 S255
G4 P20
G1 X30.4 Y36.5 F480
M106 S0
G4 P100
G0 X29.3 Y36.5 F1200
M106 S255
G4 P20
G1 X28.9 Y36.5 F480
M106 S0
G4 P100
G0 X25.1 Y36.5 F1200
M106 S255
G4 P20
G1 X23.9 Y36.5 F480
M106 S0
G4 P100
G0 X23.7 Y36.6 F1200
M106 S255
G4 P20
G1 X24.9 Y36.6 F480
M106 S0
G4 P100
G0 X29.0 Y36.6 F1200
M106 S255
G4 P20
G1 X29.3 Y36.6 F480
M106 S0
G4 P100
G0 X30.5 Y36.6 F1200
M106 S255
G4 P20
G1 X31.2 Y36.6 F480
M106 S0
G4 P100
G0 X31.3 Y36.7 F1200
M106 S255
G4 P20
G1 X30.7 Y36.7 F480
M106 S0
G4 P100
G0 X29.4 Y36.7 F1200
M106 S255
G4 P20
G1 X29.1 Y36.7 F480
M106 S0
G4 P100
G0 X24.7 Y36.7 F1200
M106 S255
G4 P20
G1 X23.6 Y36.7 F480
M106 S0
G4 P100
G0 X23.4 Y36.8 F1200
M106 S255
G4 P20
G1 X24.4 Y36.8 F480
M106 S0
G4 P100
G0 X29.1 Y36.8 F1200
M106 S255
G4 P20
G1 X29.5 Y36.8 F480
M106 S0
G4 P100
G0 X30.8 Y36.8 F1200
M106 S255
G4 P20
G1 X31.4 Y36.8 F480
M106 S0
G4 P100
G0 X31.5 Y36.9 F1200
M106 S255
G4 P20
G1 X31.0 Y36.9 F480
M106 S0
G4 P100
G0 X29.6 Y36.9 F1200
M106 S255
G4 P20
G1 X29.2 Y36.9 F480
M106 S0
G4 P100
G0 X24.2 Y36.9 F1200
M106 S255
G4 P20
G1 X23.2 Y36.9 F480
M106 S0
G4 P100
G0 X23.0 Y37.0 F1200
M106 S255
G4 P20
G1 X24.0 Y37.0 F480
M106 S0
G4 P100
G0 X29.3 Y37.0 F1200
M106 S255
G4 P20
G1 X29.6 Y37.0 F480
M106 S0
G4 P100
G0 X31.1 Y37.0 F1200
M106 S255
G4 P20
G1 X31.7 Y37.0 F480
M106 S0
G4 P100
G0 X31.7 Y37.1 F1200
M106 S255
G4 P20
G1 X31.2 Y37.1 F480
M106 S0
G4 P100
G0 X29.6 Y37.1 F1200
M106 S255
G4 P20
G1 X29.4 Y37.1 F480
M106 S0
G4 P100
G0 X23.8 Y37.1 F1200
M106 S255
G4 P20
G1 X22.8 Y37.1 F480
M106 S0
G4 P100
G0 X22.7 Y37.2 F1200
M106 S255
G4 P20
G1 X23.6 Y37.2 F480
M106 S0
G4 P100
G0 X29.4 Y37.2 F1200
M106 S255
G4 P20
G1 X29.7 Y37.2 F480
M106 S0
G4 P100
G0 X31.3 Y37.2 F1200
M106 S255
G4 P20
G1 X31.8 Y37.2 F480
M106 S0
G4 P100
G0 X31.9 Y37.3 F1200
M106 S255
G4 P20
G1 X31.4 Y37.3 F480
M106 S0
G4 P100
G0 X29.7 Y37.3 F1200
M106 S255
G4 P20
G1 X29.4 Y37.3 F480
M106 S0
G4 P100
G0 X23.5 Y37.3 F1200
M106 S255
G4 P20
G1 X22.5 Y37.3 F480
M106 S0
G4 P100
G0 X22.4 Y37.4 F1200
M106 S255
G4 P20
G1 X23.3 Y37.4 F480
M106 S0
G4 P100
G0 X29.4 Y37.4 F1200
M106 S255
G4 P20
G1 X29.8 Y37.4 F480
M106 S0
G4 P100
G0 X31.5 Y37.4 F1200
M106 S255
G4 P20
G1 X32.0 Y37.4 F480
M106 S0
G4 P100
G0 X32.0 Y37.5 F1200
M106 S255
G4 P20
G1 X31.5 Y37.5 F480
M106 S0
G4 P100
G0 X29.8 Y37.5 F1200
M106 S255
G4 P20
G1 X29.5 Y37.5 F480
M106 S0
G4 P100
G0 X23.1 Y37.5 F1200
M106 S255
G4 P20
G1 X22.2 Y37.5 F480
M106 S0
G4 P100
G0 X22.1 Y37.6 F1200
M106 S255
G4 P20
G1 X23.0 Y37.6 F480
M106 S0
G4 P100
G0 X29.5 Y37.6 F1200
M106 S255
G4 P20
G1 X29.8 Y37.6 F480
M106 S0
G4 P100
G0 X31.6 Y37.6 F1200
M106 S255
G4 P20
G1 X32.1 Y37.6 F480
M106 S0
G4 P100
G0 X32.2 Y37.7 F1200
M106 S255
G4 P20
G1 X31.7 Y37.7 F480
M106 S0
G4 P100
G0 X29.8 Y37.7 F1200
M106 S255
G4 P20
G1 X29.5 Y37.7 F480
M106 S0
G4 P100
G0 X22.8 Y37.7 F1200
M106 S255
G4 P20
G1 X22.0 Y37.7 F480
M106 S0
G4 P100
G0 X21.9 Y37.8 F1200
M106 S255
G4 P20
G1 X22.7 Y37.8 F480
M106 S0
G4 P100
G0 X29.5 Y37.8 F1200
M106 S255
G4 P20
G1 X29.8 Y37.8 F480
M106 S0
G4 P100
G0 X31.8 Y37.8 F1200
M106 S255
G4 P20
G1 X32.2 Y37.8 F480
M106 S0
G4 P100
G0 X32.3 Y37.9 F1200
M106 S255
G4 P20
G1 X31.8 Y37.9 F480
M106 S0
G4 P100
G0 X29.8 Y37.9 F1200
M106 S255
G4 P20
G1 X29.5 Y37.9 F480
M106 S0
G4 P100
G0 X22.5 Y37.9 F1200
M106 S255
G4 P20
G1 X21.7 Y37.9 F480
M106 S0
G4 P100
G0 X21.6 Y38.0 F1200
M106 S255
G4 P20
G1 X22.4 Y38.0 F480
M106 S0
G4 P100
G0 X29.5 Y38.0 F1200
M106 S255
G4 P20
G1 X29.8 Y38.0 F480
M106 S0
G4 P100
G0 X31.9 Y38.0 F1200
M106 S255
G4 P20
G1 X32.3 Y38.0 F480
M106 S0
G4 P100
G0 X32.4 Y38.1 F1200
M106 S255
G4 P20
G1 X32.0 Y38.1 F480
M106 S0
G4 P100
G0 X29.8 Y38.1 F1200
M106 S255
G4 P20
G1 X29.5 Y38.1 F480
M106 S0
G4 P100
G0 X22.2 Y38.1 F1200
M106 S255
G4 P20
G1 X21.5 Y38.1 F480
M106 S0
G4 P100
G0 X21.4 Y38.2 F1200
M106 S255
G4 P20
G1 X22.1 Y38.2 F480
M106 S0
G4 P100
G0 X29.5 Y38.2 F1200
M106 S255
G4 P20
G1 X29.8 Y38.2 F480
M106 S0
G4 P100
G0 X32.1 Y38.2 F1200
M106 S255
G4 P20
G1 X32.5 Y38.2 F480
M106 S0
G4 P100
G0 X32.5 Y38.3 F1200
M106 S255
G4 P20
G1 X32.1 Y38.3 F480
M106 S0
G4 P100
G0 X29.8 Y38.3 F1200
M106 S255
G4 P20
G1 X29.5 Y38.3 F480
M106 S0
G4 P100
G0 X22.0 Y38.3 F1200
M106 S255
G4 P20
G1 X21.3 Y38.3 F480
M106 S0
G4 P100
G0 X21.2 Y38.4 F1200
M106 S255
G4 P20
G1 X21.9 Y38.4 F480
M106 S0
G4 P100
G0 X29.5 Y38.4 F1200
M106 S255
G4 P20
G1 X29.8 Y38.4 F480
M106 S0
G4 P100
G0 X32.2 Y38.4 F1200
M106 S255
G4 P20
G1 X32.5 Y38.4 F480
M106 S0
G4 P100
G0 X32.6 Y38.5 F1200
M106 S255
G4 P20
G1 X32.2 Y38.5 F480
M106 S0
G4 P100
G0 X29.8 Y38.5 F1200
M106 S255
G4 P20
G1 X29.5 Y38.5 F480
M106 S0
G4 P100
G0 X21.8 Y38.5 F1200
M106 S255
G4 P20
G1 X21.1 Y38.5 F480
M106 S0
G4 P100
G0 X20.9 Y38.6 F1200
M106 S255
G4 P20
G1 X21.6 Y38.6 F480
M106 S0
G4 P100
G0 X29.5 Y38.6 F1200
M106 S255
G4 P20
G1 X29.8 Y38.6 F480
M106 S0
G4 P100
G0 X32.3 Y38.6 F1200
M106 S255
G4 P20
G1 X32.6 Y38.6 F480
M106 S0
G4 P100
G0 X32.7 Y38.7 F1200
M106 S255
G4 P20
G1 X32.3 Y38.7 F480
M106 S0
G4 P100
G0 X29.8 Y38.7 F1200
M106 S255
G4 P20
G1 X29.5 Y38.7 F480
M106 S0
G4 P100
G0 X21.5 Y38.7 F1200
M106 S255
G4 P20
G1 X20.8 Y38.7 F480
M106 S0
G4 P100
G0 X20.7 Y38.8 F1200
M106 S255
G4 P20
G1 X21.4 Y38.8 F480
M106 S0
G4 P100
G0 X29.4 Y38.8 F1200
M106 S255
G4 P20
G1 X29.8 Y38.8 F480
M106 S0
G4 P100
G0 X32.4 Y38.8 F1200
M106 S255
G4 P20
G1 X32.7 Y38.8 F480
M106 S0
G4 P100
G0 X32.7 Y38.9 F1200
M106 S255
G4 P20
G1 X32.4 Y38.9 F480
M106 S0
G4 P100
G0 X29.7 Y38.9 F1200
M106 S255
G4 P20
G1 X29.4 Y38.9 F480
M106 S0
G4 P100
G0 X21.2 Y38.9 F1200
M106 S255
G4 P20
G1 X20.6 Y38.9 F480
M106 S0
G4 P100
G0 X20.5 Y39.0 F1200
M106 S255
G4 P20
G1 X21.1 Y39.0 F480
M106 S0
G4 P100
G0 X29.4 Y39.0 F1200
M106 S255
G4 P20
G1 X29.7 Y39.0 F480
M106 S0
G4 P100
G0 X32.5 Y39.0 F1200
M106 S255
G4 P20
G1 X32.8 Y39.0 F480
M106 S0
G4 P100
G0 X32.8 Y39.1 F1200
M106 S255
G4 P20
G1 X32.5 Y39.1 F480
M106 S0
G4 P100
G0 X29.6 Y39.1 F1200
M106 S255
G4 P20
G1 X29.4 Y39.1 F480
M106 S0
G4 P100
G0 X21.1 Y39.1 F1200
M106 S255
G4 P20
G1 X20.4 Y39.1 F480
M106 S0
G4 P100
G0 X20.3 Y39.2 F1200
M106 S255
G4 P20
G1 X20.9 Y39.2 F480
M106 S0
G4 P100
G0 X29.3 Y39.2 F1200
M106 S255
G4 P20
G1 X29.6 Y39.2 F480
M106 S0
G4 P100
G0 X32.6 Y39.2 F1200
M106 S255
G4 P20
G1 X32.9 Y39.2 F480
M106 S0
G4 P100
G0 X32.9 Y39.3 F1200
M106 S255
G4 P20
G1 X32.6 Y39.3 F480
M106 S0
G4 P100
G0 X29.6 Y39.3 F1200
M106 S255
G4 P20
G1 X29.3 Y39.3 F480
M106 S0
G4 P100
G0 X20.8 Y39.3 F1200
M106 S255
G4 P20
G1 X20.2 Y39.3 F480
M106 S0
G4 P100
G0 X20.1 Y39.4 F1200
M106 S255
G4 P20
G1 X20.7 Y39.4 F480
M106 S0
G4 P100
G0 X29.2 Y39.4 F1200
M106 S255
G4 P20
G1 X29.5 Y39.4 F480
M106 S0
G4 P100
G0 X32.6 Y39.4 F1200
M106 S255
G4 P20
G1 X33.0 Y39.4 F480
M106 S0
G4 P100
G0 X33.0 Y39.5 F1200
M106 S255
G4 P20
G1 X32.7 Y39.5 F480
M106 S0
G4 P100
G0 X29.5 Y39.5 F1200
M106 S255
G4 P20
G1 X29.2 Y39.5 F480
M106 S0
G4 P100
G0 X20.6 Y39.5 F1200
M106 S255
G4 P20
G1 X20.0 Y39.5 F480
M106 S0
G4 P100
G0 X19.9 Y39.6 F1200
M106 S255
G4 P20
G1 X20.5 Y39.6 F480
M106 S0
G4 P100
G0 X29.1 Y39.6 F1200
M106 S255
G4 P20
G1 X29.4 Y39.6 F480
M106 S0
G4 P100
G0 X32.7 Y39.6 F1200
M106 S255
G4 P20
G1 X33.0 Y39.6 F480
M106 S0
G4 P100
G0 X33.1 Y39.7 F1200
M106 S255
G4 P20
G1 X32.8 Y39.7 F480
M106 S0
G4 P100
G0 X29.4 Y39.7 F1200
M106 S255
G4 P20
G1 X29.1 Y39.7 F480
M106 S0
G4 P100
G0 X20.4 Y39.7 F1200
M106 S255
G4 P20
G1 X19.8 Y39.7 F480
M106 S0
G4 P100
G0 X19.7 Y39.8 F1200
M106 S255
G4 P20
G1 X20.3 Y39.8 F480
M106 S0
G4 P100
G0 X29.1 Y39.8 F1200
M106 S255
G4 P20
G1 X29.4 Y39.8 F480
M106 S0
G4 P100
G0 X32.9 Y39.8 F1200
M106 S255
G4 P20
G1 X33.1 Y39.8 F480
M106 S0
G4 P100
G0 X33.2 Y39.9 F1200
M106 S255
G4 P20
G1 X32.9 Y39.9 F480
M106 S0
G4 P100
G0 X29.3 Y39.9 F1200
M106 S255
G4 P20
G1 X29.0 Y39.9 F480
M106 S0
G4 P100
G0 X20.2 Y39.9 F1200
M106 S255
G4 P20
G1 X19.6 Y39.9 F480
M106 S0
G4 P100
G0 X19.5 Y40.0 F1200
M106 S255
G4 P20
G1 X20.1 Y40.0 F480
M106 S0
G4 P100
G0 X28.9 Y40.0 F1200
M106 S255
G4 P20
G1 X29.3 Y40.0 F480
M106 S0
G4 P100
G0 X32.9 Y40.0 F1200
M106 S255
G4 P20
G1 X33.2 Y40.0 F480
M106 S0
G4 P100
G0 X33.4 Y40.1 F1200
M106 S255
G4 P20
G1 X33.0 Y40.1 F480
M106 S0
G4 P100
G0 X29.3 Y40.1 F1200
M106 S255
G4 P20
G1 X28.9 Y40.1 F480
M106 S0
G4 P100
G0 X20.0 Y40.1 F1200
M106 S255
G4 P20
G1 X19.4 Y40.1 F480
M106 S0
G4 P100
G0 X19.3 Y40.2 F1200
M106 S255
G4 P20
G1 X19.9 Y40.2 F480
M106 S0
G4 P100
G0 X28.9 Y40.2 F1200
M106 S255
G4 P20
G1 X29.2 Y40.2 F480
M106 S0
G4 P100
G0 X33.0 Y40.2 F1200
M106 S255
G4 P20
G1 X33.6 Y40.2 F480
M106 S0
G4 P100
G0 X33.7 Y40.3 F1200
M106 S255
G4 P20
G1 X33.1 Y40.3 F480
M106 S0
G4 P100
G0 X29.1 Y40.3 F1200
M106 S255
G4 P20
G1 X28.8 Y40.3 F480
M106 S0
G4 P100
G0 X19.8 Y40.3 F1200
M106 S255
G4 P20
G1 X19.2 Y40.3 F480
M106 S0
G4 P100
G0 X19.1 Y40.4 F1200
M106 S255
G4 P20
G1 X19.8 Y40.4 F480
M106 S0
G4 P100
G0 X28.7 Y40.4 F1200
M106 S255
G4 P20
G1 X29.1 Y40.4 F480
M106 S0
G4 P100
G0 X33.1 Y40.4 F1200
M106 S255
G4 P20
G1 X33.8 Y40.4 F480
M106 S0
G4 P100
G0 X34.0 Y40.5 F1200
M106 S255
G4 P20
G1 X33.1 Y40.5 F480
M106 S0
G4 P100
G0 X29.0 Y40.5 F1200
M106 S255
G4 P20
G1 X28.7 Y40.5 F480
M106 S0
G4 P100
G0 X19.7 Y40.5 F1200
M106 S255
G4 P20
G1 X19.1 Y40.5 F480
M106 S0
G4 P100
G0 X19.0 Y40.6 F1200
M106 S255
G4 P20
G1 X19.6 Y40.6 F480
M106 S0
G4 P100
G0 X28.7 Y40.6 F1200
M106 S255
G4 P20
G1 X29.0 Y40.6 F480
M106 S0
G4 P100
G0 X33.1 Y40.6 F1200
M106 S255
G4 P20
G1 X34.1 Y40.6 F480
M106 S0
G4 P100
G0 X34.2 Y40.7 F1200
M106 S255
G4 P20
G1 X33.2 Y40.7 F480
M106 S0
G4 P100
G0 X29.0 Y40.7 F1200
M106 S255
G4 P20
G1 X28.6 Y40.7 F480
M106 S0
G4 P100
G0 X19.5 Y40.7 F1200
M106 S255
G4 P20
G1 X18.9 Y40.7 F480
M106 S0
G4 P100
G0 X18.8 Y40.8 F1200
M106 S255
G4 P20
G1 X19.4 Y40.8 F480
M106 S0
G4 P100
G0 X28.6 Y40.8 F1200
M106 S255
G4 P20
G1 X28.9 Y40.8 F480
M106 S0
G4 P100
G0 X33.2 Y40.8 F1200
M106 S255
G4 P20
G1 X33.6 Y40.8 F480
M106 S0
G4 P100
G0 X33.9 Y40.8 F1200
M106 S255
G4 P20
G1 X34.3 Y40.8 F480
M106 S0
G4 P100
G0 X34.4 Y40.9 F1200
M106 S255
G4 P20
G1 X34.0 Y40.9 F480
M106 S0
G4 P100
G0 X33.6 Y40.9 F1200
M106 S255
G4 P20
G1 X33.2 Y40.9 F480
M106 S0
G4 P100
G0 X28.8 Y40.9 F1200
M106 S255
G4 P20
G1 X28.6 Y40.9 F480
M106 S0
G4 P100
G0 X19.3 Y40.9 F1200
M106 S255
G4 P20
G1 X18.8 Y40.9 F480
M106 S0
G4 P100
G0 X18.7 Y41.0 F1200
M106 S255
G4 P20
G1 X19.2 Y41.0 F480
M106 S0
G4 P100
G0 X28.5 Y41.0 F1200
M106 S255
G4 P20
G1 X28.8 Y41.0 F480
M106 S0
G4 P100
G0 X33.2 Y41.0 F1200
M106 S255
G4 P20
G1 X33.5 Y41.0 F480
M106 S0
G4 P100
G0 X34.1 Y41.0 F1200
M106 S255
G4 P20
G1 X34.5 Y41.0 F480
M106 S0
G4 P100
G0 X34.6 Y41.1 F1200
M106 S255
G4 P20
G1 X34.2 Y41.1 F480
M106 S0
G4 P100
G0 X33.6 Y41.1 F1200
M106 S255
G4 P20
G1 X33.3 Y41.1 F480
M106 S0
G4 P100
G0 X28.8 Y41.1 F1200
M106 S255
G4 P20
G1 X28.4 Y41.1 F480
M106 S0
G4 P100
G0 X19.2 Y41.1 F1200
M106 S255
G4 P20
G1 X18.6 Y41.1 F480
M106 S0
G4 P100
G0 X18.5 Y41.2 F1200
M106 S255
G4 P20
G1 X19.1 Y41.2 F480
M106 S0
G4 P100
G0 X23.6 Y41.2 F1200
M106 S255
G4 P20
G1 X25.6 Y41.2 F480
M106 S0
G4 P100
G0 X28.4 Y41.2 F1200
M106 S255
G4 P20
G1 X28.7 Y41.2 F480
M106 S0
G4 P100
G0 X33.3 Y41.2 F1200
M106 S255
G4 P20
G1 X33.6 Y41.2 F480
M106 S0
G4 P100
G0 X34.3 Y41.2 F1200
M106 S255
G4 P20
G1 X34.7 Y41.2 F480
M106 S0
G4 P100
G0 X34.8 Y41.3 F1200
M106 S255
G4 P20
G1 X34.4 Y41.3 F480
M106 S0
G4 P100
G0 X33.6 Y41.3 F1200
M106 S255
G4 P20
G1 X33.4 Y41.3 F480
M106 S0
G4 P100
G0 X28.6 Y41.3 F1200
M106 S255
G4 P20
G1 X28.3 Y41.3 F480
M106 S0
G4 P100
G0 X26.4 Y41.3 F1200
M106 S255
G4 P20
G1 X22.8 Y41.3 F480
M106 S0
G4 P100
G0 X19.0 Y41.3 F1200
M106 S255
G4 P20
G1 X18.4 Y41.3 F480
M106 S0
G4 P100
G0 X18.3 Y41.4 F1200
M106 S255
G4 P20
G1 X19.0 Y41.4 F480
M106 S0
G4 P100
G0 X22.4 Y41.4 F1200
M106 S255
G4 P20
G1 X26.6 Y41.4 F480
M106 S0
G4 P100
G0 X28.3 Y41.4 F1200
M106 S255
G4 P20
G1 X28.6 Y41.4 F480
M106 S0
G4 P100
G0 X33.4 Y41.4 F1200
M106 S255
G4 P20
G1 X33.6 Y41.4 F480
M106 S0
G4 P100
G0 X34.4 Y41.4 F1200
M106 S255
G4 P20
G1 X34.8 Y41.4 F480
M106 S0
G4 P100
G0 X34.9 Y41.5 F1200
M106 S255
G4 P20
G1 X34.5 Y41.5 F480
M106 S0
G4 P100
G0 X33.6 Y41.5 F1200
M106 S255
G4 P20
G1 X33.4 Y41.5 F480
M106 S0
G4 P100
G0 X28.5 Y41.5 F1200
M106 S255
G4 P20
G1 X28.2 Y41.5 F480
M106 S0
G4 P100
G0 X27.0 Y41.5 F1200
M106 S255
G4 P20
G1 X21.8 Y41.5 F480
M106 S0
G4 P100
G0 X18.9 Y41.5 F1200
M106 S255
G4 P20
G1 X18.3 Y41.5 F480
M106 S0
G4 P100
G0 X18.2 Y41.6 F1200
M106 S255
G4 P20
G1 X18.8 Y41.6 F480
M106 S0
G4 P100
G0 X21.5 Y41.6 F1200
M106 S255
G4 P20
G1 X23.8 Y41.6 F480
M106 S0
G4 P100
G0 X26.2 Y41.6 F1200
M106 S255
G4 P20
G1 X27.2 Y41.6 F480
M106 S0
G4 P100
G0 X28.2 Y41.6 F1200
M106 S255
G4 P20
G1 X28.5 Y41.6 F480
M106 S0
G4 P100
G0 X33.4 Y41.6 F1200
M106 S255
G4 P20
G1 X33.6 Y41.6 F480
M106 S0
G4 P100
G0 X34.5 Y41.6 F1200
M106 S255
G4 P20
G1 X34.9 Y41.6 F480
M106 S0
G4 P100
G0 X35.0 Y41.7 F1200
M106 S255
G4 P20
G1 X34.6 Y41.7 F480
M106 S0
G4 P100
G0 X33.6 Y41.7 F1200
M106 S255
G4 P20
G1 X33.4 Y41.7 F480
M106 S0
G4 P100
G0 X28.5 Y41.7 F1200
M106 S255
G4 P20
G1 X28.1 Y41.7 F480
M106 S0
G4 P100
G0 X27.4 Y41.7 F1200
M106 S255
G4 P20
G1 X26.7 Y41.7 F480
M106 S0
G4 P100
G0 X23.0 Y41.7 F1200
M106 S255
G4 P20
G1 X21.1 Y41.7 F480
M106 S0
G4 P100
G0 X18.7 Y41.7 F1200
M106 S255
G4 P20
G1 X18.1 Y41.7 F480
M106 S0
G4 P100
G0 X18.1 Y41.8 F1200
M106 S255
G4 P20
G1 X18.7 Y41.8 F480
M106 S0
G4 P100
G0 X20.7 Y41.8 F1200
M106 S255
G4 P20
G1 X22.4 Y41.8 F480
M106 S0
G4 P100
G0 X27.1 Y41.8 F1200
M106 S255
G4 P20
G1 X27.6 Y41.8 F480
M106 S0
G4 P100
G0 X28.1 Y41.8 F1200
M106 S255
G4 P20
G1 X28.5 Y41.8 F480
M106 S0
G4 P100
G0 X33.4 Y41.8 F1200
M106 S255
G4 P20
G1 X33.6 Y41.8 F480
M106 S0
G4 P100
G0 X34.6 Y41.8 F1200
M106 S255
G4 P20
G1 X35.0 Y41.8 F480
M106 S0
G4 P100
G0 X35.0 Y41.9 F1200
M106 S255
G4 P20
G1 X34.7 Y41.9 F480
M106 S0
G4 P100
G0 X33.6 Y41.9 F1200
M106 S255
G4 P20
G1 X33.4 Y41.9 F480
M106 S0
G4 P100
G0 X28.4 Y41.9 F1200
M106 S255
G4 P20
G1 X28.0 Y41.9 F480
M106 S0
G4 P100
G0 X27.7 Y41.9 F1200
M106 S255
G4 P20
G1 X27.3 Y41.9 F480
M106 S0
G4 P100
G0 X21.9 Y41.9 F1200
M106 S255
G4 P20
G1 X20.5 Y41.9 F480
M106 S0
G4 P100
G0 X18.6 Y41.9 F1200
M106 S255
G4 P20
G1 X18.0 Y41.9 F480
M106 S0
G4 P100
G0 X18.0 Y42.0 F1200
M106 S255
G4 P20
G1 X18.5 Y42.0 F480
M106 S0
G4 P100
G0 X20.0 Y42.0 F1200
M106 S255
G4 P20
G1 X21.4 Y42.0 F480
M106 S0
G4 P100
G0 X27.8 Y42.0 F1200
M106 S255
G4 P20
G1 X28.3 Y42.0 F480
M106 S0
G4 P100
G0 X33.4 Y42.0 F1200
M106 S255
G4 P20
G1 X33.6 Y42.0 F480
M106 S0
G4 P100
G0 X34.7 Y42.0 F1200
M106 S255
G4 P20
G1 X35.1 Y42.0 F480
M106 S0
G4 P100
G0 X35.1 Y42.1 F1200
M106 S255
G4 P20
G1 X34.7 Y42.1 F480
M106 S0
G4 P100
G0 X33.6 Y42.1 F1200
M106 S255
G4 P20
G1 X33.4 Y42.1 F480
M106 S0
G4 P100
G0 X28.3 Y42.1 F1200
M106 S255
G4 P20
G1 X27.8 Y42.1 F480
M106 S0
G4 P100
G0 X21.1 Y42.1 F1200
M106 S255
G4 P20
G1 X19.8 Y42.1 F480
M106 S0
G4 P100
G0 X18.4 Y42.1 F1200
M106 S255
G4 P20
G1 X17.9 Y42.1 F480
M106 S0
G4 P100
G0 X17.8 Y42.2 F1200
M106 S255
G4 P20
G1 X18.4 Y42.2 F480
M106 S0
G4 P100
G0 X19.6 Y42.2 F1200
M106 S255
G4 P20
G1 X20.8 Y42.2 F480
M106 S0
G4 P100
G0 X27.8 Y42.2 F1200
M106 S255
G4 P20
G1 X28.2 Y42.2 F480
M106 S0
G4 P100
G0 X33.4 Y42.2 F1200
M106 S255
G4 P20
G1 X33.6 Y42.2 F480
M106 S0
G4 P100
G0 X34.7 Y42.2 F1200
M106 S255
G4 P20
G1 X35.1 Y42.2 F480
M106 S0
G4 P100
G0 X35.2 Y42.3 F1200
M106 S255
G4 P20
G1 X34.8 Y42.3 F480
M106 S0
G4 P100
G0 X33.6 Y42.3 F1200
M106 S255
G4 P20
G1 X33.3 Y42.3 F480
M106 S0
G4 P100
G0 X28.2 Y42.3 F1200
M106 S255
G4 P20
G1 X27.8 Y42.3 F480
M106 S0
G4 P100
G0 X20.4 Y42.3 F1200
M106 S255
G4 P20
G1 X19.2 Y42.3 F480
M106 S0
G4 P100
G0 X18.3 Y42.3 F1200
M106 S255
G4 P20
G1 X17.7 Y42.3 F480
M106 S0
G4 P100
G0 X17.7 Y42.4 F1200
M106 S255
G4 P20
G1 X18.3 Y42.4 F480
M106 S0
G4 P100
G0 X19.1 Y42.4 F1200
M106 S255
G4 P20
G1 X20.2 Y42.4 F480
M106 S0
G4 P100
G0 X27.8 Y42.4 F1200
M106 S255
G4 P20
G1 X28.1 Y42.4 F480
M106 S0
G4 P100
G0 X33.3 Y42.4 F1200
M106 S255
G4 P20
G1 X33.5 Y42.4 F480
M106 S0
G4 P100
G0 X34.8 Y42.4 F1200
M106 S255
G4 P20
G1 X35.2 Y42.4 F480
M106 S0
G4 P100
G0 X35.2 Y42.5 F1200
M106 S255
G4 P20
G1 X34.8 Y42.5 F480
M106 S0
G4 P100
G0 X33.5 Y42.5 F1200
M106 S255
G4 P20
G1 X33.3 Y42.5 F480
M106 S0
G4 P100
G0 X28.1 Y42.5 F1200
M106 S255
G4 P20
G1 X27.8 Y42.5 F480
M106 S0
G4 P100
G0 X19.8 Y42.5 F1200
M106 S255
G4 P20
G1 X18.9 Y42.5 F480
M106 S0
G4 P100
G0 X18.2 Y42.5 F1200
M106 S255
G4 P20
G1 X17.6 Y42.5 F480
M106 S0
G4 P100
G0 X17.5 Y42.6 F1200
M106 S255
G4 P20
G1 X18.2 Y42.6 F480
M106 S0
G4 P100
G0 X18.6 Y42.6 F1200
M106 S255
G4 P20
G1 X19.5 Y42.6 F480
M106 S0
G4 P100
G0 X27.8 Y42.6 F1200
M106 S255
G4 P20
G1 X28.1 Y42.6 F480
M106 S0
G4 P100
G0 X33.2 Y42.6 F1200
M106 S255
G4 P20
G1 X33.5 Y42.6 F480
M106 S0
G4 P100
G0 X34.8 Y42.6 F1200
M106 S255
G4 P20
G1 X35.2 Y42.6 F480
M106 S0
G4 P100
G0 X35.2 Y42.7 F1200
M106 S255
G4 P20
G1 X34.8 Y42.7 F480
M106 S0
G4 P100
G0 X33.5 Y42.7 F1200
M106 S255
G4 P20
G1 X33.2 Y42.7 F480
M106 S0
G4 P100
G0 X28.0 Y42.7 F1200
M106 S255
G4 P20
G1 X27.7 Y42.7 F480
M106 S0
G4 P100
G0 X19.4 Y42.7 F1200
M106 S255
G4 P20
G1 X17.5 Y42.7 F480
M106 S0
G4 P100
G0 X17.4 Y42.8 F1200
M106 S255
G4 P20
G1 X19.1 Y42.8 F480
M106 S0
G4 P100
G0 X27.6 Y42.8 F1200
M106 S255
G4 P20
G1 X28.0 Y42.8 F480
M106 S0
G4 P100
G0 X33.2 Y42.8 F1200
M106 S255
G4 P20
G1 X33.5 Y42.8 F480
M106 S0
G4 P100
G0 X34.9 Y42.8 F1200
M106 S255
G4 P20
G1 X35.2 Y42.8 F480
M106 S0
G4 P100
G0 X35.2 Y42.9 F1200
M106 S255
G4 P20
G1 X34.9 Y42.9 F480
M106 S0
G4 P100
G0 X33.5 Y42.9 F1200
M106 S255
G4 P20
G1 X33.2 Y42.9 F480
M106 S0
G4 P100
G0 X28.0 Y42.9 F1200
M106 S255
G4 P20
G1 X27.6 Y42.9 F480
M106 S0
G4 P100
G0 X18.9 Y42.9 F1200
M106 S255
G4 P20
G1 X17.3 Y42.9 F480
M106 S0
G4 P100
G0 X17.3 Y43.0 F1200
M106 S255
G4 P20
G1 X18.7 Y43.0 F480
M106 S0
G4 P100
G0 X27.6 Y43.0 F1200
M106 S255
G4 P20
G1 X27.9 Y43.0 F480
M106 S0
G4 P100
G0 X33.2 Y43.0 F1200
M106 S255
G4 P20
G1 X33.4 Y43.0 F480
M106 S0
G4 P100
G0 X34.9 Y43.0 F1200
M106 S255
G4 P20
G1 X35.2 Y43.0 F480
M106 S0
G4 P100
G0 X35.2 Y43.1 F1200
M106 S255
G4 P20
G1 X34.9 Y43.1 F480
M106 S0
G4 P100
G0 X33.4 Y43.1 F1200
M106 S255
G4 P20
G1 X33.1 Y43.1 F480
M106 S0
G4 P100
G0 X27.8 Y43.1 F1200
M106 S255
G4 P20
G1 X27.5 Y43.1 F480
M106 S0
G4 P100
G0 X18.4 Y43.1 F1200
M106 S255
G4 P20
G1 X17.2 Y43.1 F480
M106 S0
G4 P100
G0 X17.2 Y43.2 F1200
M106 S255
G4 P20
G1 X18.2 Y43.2 F480
M106 S0
G4 P100
G0 X27.5 Y43.2 F1200
M106 S255
G4 P20
G1 X27.8 Y43.2 F480
M106 S0
G4 P100
G0 X33.1 Y43.2 F1200
M106 S255
G4 P20
G1 X33.3 Y43.2 F480
M106 S0
G4 P100
G0 X34.9 Y43.2 F1200
M106 S255
G4 P20
G1 X35.2 Y43.2 F480
M106 S0
G4 P100
G0 X35.2 Y43.3 F1200
M106 S255
G4 P20
G1 X34.9 Y43.3 F480
M106 S0
G4 P100
G0 X33.3 Y43.3 F1200
M106 S255
G4 P20
G1 X33.1 Y43.3 F480
M106 S0
G4 P100
G0 X27.8 Y43.3 F1200
M106 S255
G4 P20
G1 X27.4 Y43.3 F480
M106 S0
G4 P100
G0 X18.0 Y43.3 F1200
M106 S255
G4 P20
G1 X17.1 Y43.3 F480
M106 S0
G4 P100
G0 X17.0 Y43.4 F1200
M106 S255
G4 P20
G1 X17.8 Y43.4 F480
M106 S0
G4 P100
G0 X27.4 Y43.4 F1200
M106 S255
G4 P20
G1 X27.7 Y43.4 F480
M106 S0
G4 P100
G0 X33.1 Y43.4 F1200
M106 S255
G4 P20
G1 X33.3 Y43.4 F480
M106 S0
G4 P100
G0 X34.9 Y43.4 F1200
M106 S255
G4 P20
G1 X35.2 Y43.4 F480
M106 S0
G4 P100
G0 X35.2 Y43.5 F1200
M106 S255
G4 P20
G1 X34.9 Y43.5 F480
M106 S0
G4 P100
G0 X33.2 Y43.5 F1200
M106 S255
G4 P20
G1 X33.0 Y43.5 F480
M106 S0
G4 P100
G0 X27.7 Y43.5 F1200
M106 S255
G4 P20
G1 X27.3 Y43.5 F480
M106 S0
G4 P100
G0 X17.7 Y43.5 F1200
M106 S255
G4 P20
G1 X17.0 Y43.5 F480
M106 S0
G4 P100
G0 X16.9 Y43.6 F1200
M106 S255
G4 P20
G1 X17.5 Y43.6 F480
M106 S0
G4 P100
G0 X27.3 Y43.6 F1200
M106 S255
G4 P20
G1 X27.6 Y43.6 F480
M106 S0
G4 P100
G0 X32.9 Y43.6 F1200
M106 S255
G4 P20
G1 X33.2 Y43.6 F480
M106 S0
G4 P100
G0 X34.9 Y43.6 F1200
M106 S255
G4 P20
G1 X35.2 Y43.6 F480
M106 S0
G4 P100
G0 X35.2 Y43.7 F1200
M106 S255
G4 P20
G1 X34.8 Y43.7 F480
M106 S0
G4 P100
G0 X33.1 Y43.7 F1200
M106 S255
G4 P20
G1 X32.9 Y43.7 F480
M106 S0
G4 P100
G0 X27.6 Y43.7 F1200
M106 S255
G4 P20
G1 X27.3 Y43.7 F480
M106 S0
G4 P100
G0 X17.4 Y43.7 F1200
M106 S255
G4 P20
G1 X16.9 Y43.7 F480
M106 S0
G4 P100
G0 X16.8 Y43.8 F1200
M106 S255
G4 P20
G1 X17.4 Y43.8 F480
M106 S0
G4 P100
G0 X27.2 Y43.8 F1200
M106 S255
G4 P20
G1 X27.5 Y43.8 F480
M106 S0
G4 P100
G0 X32.9 Y43.8 F1200
M106 S255
G4 P20
G1 X33.1 Y43.8 F480
M106 S0
G4 P100
G0 X34.8 Y43.8 F1200
M106 S255
G4 P20
G1 X35.2 Y43.8 F480
M106 S0
G4 P100
G0 X35.2 Y43.9 F1200
M106 S255
G4 P20
G1 X34.8 Y43.9 F480
M106 S0
G4 P100
G0 X33.0 Y43.9 F1200
M106 S255
G4 P20
G1 X32.9 Y43.9 F480
M106 S0
G4 P100
G0 X27.5 Y43.9 F1200
M106 S255
G4 P20
G1 X27.2 Y43.9 F480
M106 S0
G4 P100
G0 X17.3 Y43.9 F1200
M106 S255
G4 P20
G1 X16.8 Y43.9 F480
M106 S0
G4 P100
G0 X16.7 Y44.0 F1200
M106 S255
G4 P20
G1 X17.2 Y44.0 F480
M106 S0
G4 P100
G0 X27.1 Y44.0 F1200
M106 S255
G4 P20
G1 X27.5 Y44.0 F480
M106 S0
G4 P100
G0 X32.9 Y44.0 F1200
M106 S255
G4 P20
G1 X33.0 Y44.0 F480
M106 S0
G4 P100
G0 X34.8 Y44.0 F1200
M106 S255
G4 P20
G1 X35.2 Y44.0 F480
M106 S0
G4 P100
G0 X35.2 Y44.1 F1200
M106 S255
G4 P20
G1 X34.8 Y44.1 F480
M106 S0
G4 P100
G0 X33.0 Y44.1 F1200
M106 S255
G4 P20
G1 X32.8 Y44.1 F480
M106 S0
G4 P100
G0 X27.4 Y44.1 F1200
M106 S255
G4 P20
G1 X27.1 Y44.1 F480
M106 S0
G4 P100
G0 X17.2 Y44.1 F1200
M106 S255
G4 P20
G1 X16.7 Y44.1 F480
M106 S0
G4 P100
G0 X16.6 Y44.2 F1200
M106 S255
G4 P20
G1 X17.1 Y44.2 F480
M106 S0
G4 P100
G0 X27.0 Y44.2 F1200
M106 S255
G4 P20
G1 X27.4 Y44.2 F480
M106 S0
G4 P100
G0 X32.7 Y44.2 F1200
M106 S255
G4 P20
G1 X33.0 Y44.2 F480
M106 S0
G4 P100
G0 X34.7 Y44.2 F1200
M106 S255
G4 P20
G1 X35.2 Y44.2 F480
M106 S0
G4 P100
G0 X35.1 Y44.3 F1200
M106 S255
G4 P20
G1 X34.7 Y44.3 F480
M106 S0
G4 P100
G0 X32.9 Y44.3 F1200
M106 S255
G4 P20
G1 X32.7 Y44.3 F480
M106 S0
G4 P100
G0 X27.3 Y44.3 F1200
M106 S255
G4 P20
G1 X27.0 Y44.3 F480
M106 S0
G4 P100
G0 X17.1 Y44.3 F1200
M106 S255
G4 P20
G1 X16.6 Y44.3 F480
M106 S0
G4 P100
G0 X16.5 Y44.4 F1200
M106 S255
G4 P20
G1 X17.0 Y44.4 F480
M106 S0
G4 P100
G0 X27.0 Y44.4 F1200
M106 S255
G4 P20
G1 X27.3 Y44.4 F480
M106 S0
G4 P100
G0 X32.6 Y44.4 F1200
M106 S255
G4 P20
G1 X32.8 Y44.4 F480
M106 S0
G4 P100
G0 X34.7 Y44.4 F1200
M106 S255
G4 P20
G1 X35.1 Y44.4 F480
M106 S0
G4 P100
G0 X35.1 Y44.5 F1200
M106 S255
G4 P20
G1 X34.7 Y44.5 F480
M106 S0
G4 P100
G0 X32.8 Y44.5 F1200
M106 S255
G4 P20
G1 X32.6 Y44.5 F480
M106 S0
G4 P100
G0 X27.3 Y44.5 F1200
M106 S255
G4 P20
G1 X27.0 Y44.5 F480
M106 S0
G4 P100
G0 X17.0 Y44.5 F1200
M106 S255
G4 P20
G1 X16.5 Y44.5 F480
M106 S0
G4 P100
G0 X16.4 Y44.6 F1200
M106 S255
G4 P20
G1 X16.9 Y44.6 F480
M106 S0
G4 P100
G0 X26.9 Y44.6 F1200
M106 S255
G4 P20
G1 X27.2 Y44.6 F480
M106 S0
G4 P100
G0 X32.6 Y44.6 F1200
M106 S255
G4 P20
G1 X32.7 Y44.6 F480
M106 S0
G4 P100
G0 X34.7 Y44.6 F1200
M106 S255
G4 P20
G1 X35.1 Y44.6 F480
M106 S0
G4 P100
G0 X35.1 Y44.7 F1200
M106 S255
G4 P20
G1 X34.6 Y44.7 F480
M106 S0
G4 P100
G0 X32.7 Y44.7 F1200
M106 S255
G4 P20
G1 X32.4 Y44.7 F480
M106 S0
G4 P100
G0 X27.2 Y44.7 F1200
M106 S255
G4 P20
G1 X26.8 Y44.7 F480
M106 S0
G4 P100
G0 X16.9 Y44.7 F1200
M106 S255
G4 P20
G1 X16.4 Y44.7 F480
M106 S0
G4 P100
G0 X16.4 Y44.8 F1200
M106 S255
G4 P20
G1 X16.8 Y44.8 F480
M106 S0
G4 P100
G0 X26.8 Y44.8 F1200
M106 S255
G4 P20
G1 X27.2 Y44.8 F480
M106 S0
G4 P100
G0 X32.4 Y44.8 F1200
M106 S255
G4 P20
G1 X32.6 Y44.8 F480
M106 S0
G4 P100
G0 X34.6 Y44.8 F1200
M106 S255
G4 P20
G1 X35.1 Y44.8 F480
M106 S0
G4 P100
G0 X35.1 Y44.9 F1200
M106 S255
G4 P20
G1 X34.5 Y44.9 F480
M106 S0
G4 P100
G0 X32.5 Y44.9 F1200
M106 S255
G4 P20
G1 X32.4 Y44.9 F480
M106 S0
G4 P100
G0 X27.2 Y44.9 F1200
M106 S255
G4 P20
G1 X26.8 Y44.9 F480
M106 S0
G4 P100
G0 X16.8 Y44.9 F1200
M106 S255
G4 P20
G1 X16.3 Y44.9 F480
M106 S0
G4 P100
G0 X16.2 Y45.0 F1200
M106 S255
G4 P20
G1 X16.7 Y45.0 F480
M106 S0
G4 P100
G0 X26.8 Y45.0 F1200
M106 S255
G4 P20
G1 X27.1 Y45.0 F480
M106 S0
G4 P100
G0 X32.3 Y45.0 F1200
M106 S255
G4 P20
G1 X32.5 Y45.0 F480
M106 S0
G4 P100
G0 X34.5 Y45.0 F1200
M106 S255
G4 P20
G1 X35.2 Y45.0 F480
M106 S0
G4 P100
G0 X35.3 Y45.1 F1200
M106 S255
G4 P20
G1 X34.5 Y45.1 F480
M106 S0
G4 P100
G0 X32.5 Y45.1 F1200
M106 S255
G4 P20
G1 X32.2 Y45.1 F480
M106 S0
G4 P100
G0 X27.1 Y45.1 F1200
M106 S255
G4 P20
G1 X26.8 Y45.1 F480
M106 S0
G4 P100
G0 X16.7 Y45.1 F1200
M106 S255
G4 P20
G1 X16.2 Y45.1 F480
M106 S0
G4 P100
G0 X16.2 Y45.2 F1200
M106 S255
G4 P20
G1 X16.6 Y45.2 F480
M106 S0
G4 P100
G0 X26.7 Y45.2 F1200
M106 S255
G4 P20
G1 X27.0 Y45.2 F480
M106 S0
G4 P100
G0 X32.1 Y45.2 F1200
M106 S255
G4 P20
G1 X32.4 Y45.2 F480
M106 S0
G4 P100
G0 X34.4 Y45.2 F1200
M106 S255
G4 P20
G1 X35.3 Y45.2 F480
M106 S0
G4 P100
G0 X35.4 Y45.3 F1200
M106 S255
G4 P20
G1 X34.4 Y45.3 F480
M106 S0
G4 P100
G0 X32.3 Y45.3 F1200
M106 S255
G4 P20
G1 X32.1 Y45.3 F480
M106 S0
G4 P100
G0 X27.0 Y45.3 F1200
M106 S255
G4 P20
G1 X26.7 Y45.3 F480
M106 S0
G4 P100
G0 X16.6 Y45.3 F1200
M106 S255
G4 P20
G1 X16.1 Y45.3 F480
M106 S0
G4 P100
G0 X16.1 Y45.4 F1200
M106 S255
G4 P20
G1 X16.6 Y45.4 F480
M106 S0
G4 P100
G0 X26.6 Y45.4 F1200
M106 S255
G4 P20
G1 X27.0 Y45.4 F480
M106 S0
G4 P100
G0 X32.0 Y45.4 F1200
M106 S255
G4 P20
G1 X32.2 Y45.4 F480
M106 S0
G4 P100
G0 X34.3 Y45.4 F1200
M106 S255
G4 P20
G1 X35.5 Y45.4 F480
M106 S0
G4 P100
G0 X35.6 Y45.5 F1200
M106 S255
G4 P20
G1 X34.2 Y45.5 F480
M106 S0
G4 P100
G0 X32.2 Y45.5 F1200
M106 S255
G4 P20
G1 X31.9 Y45.5 F480
M106 S0
G4 P100
G0 X26.9 Y45.5 F1200
M106 S255
G4 P20
G1 X26.6 Y45.5 F480
M106 S0
G4 P100
G0 X16.5 Y45.5 F1200
M106 S255
G4 P20
G1 X16.1 Y45.5 F480
M106 S0
G4 P100
G0 X16.0 Y45.6 F1200
M106 S255
G4 P20
G1 X16.5 Y45.6 F480
M106 S0
G4 P100
G0 X26.6 Y45.6 F1200
M106 S255
G4 P20
G1 X26.9 Y45.6 F480
M106 S0
G4 P100
G0 X31.9 Y45.6 F1200
M106 S255
G4 P20
G1 X32.1 Y45.6 F480
M106 S0
G4 P100
G0 X34.2 Y45.6 F1200
M106 S255
G4 P20
G1 X35.6 Y45.6 F480
M106 S0
G4 P100
G0 X35.7 Y45.7 F1200
M106 S255
G4 P20
G1 X34.2 Y45.7 F480
M106 S0
G4 P100
G0 X32.0 Y45.7 F1200
M106 S255
G4 P20
G1 X31.8 Y45.7 F480
M106 S0
G4 P100
G0 X26.9 Y45.7 F1200
M106 S255
G4 P20
G1 X26.5 Y45.7 F480
M106 S0
G4 P100
G0 X16.4 Y45.7 F1200
M106 S255
G4 P20
G1 X16.0 Y45.7 F480
M106 S0
G4 P100
G0 X15.9 Y45.8 F1200
M106 S255
G4 P20
G1 X16.4 Y45.8 F480
M106 S0
G4 P100
G0 X26.5 Y45.8 F1200
M106 S255
G4 P20
G1 X26.9 Y45.8 F480
M106 S0
G4 P100
G0 X31.7 Y45.8 F1200
M106 S255
G4 P20
G1 X31.9 Y45.8 F480
M106 S0
G4 P100
G0 X34.1 Y45.8 F1200
M106 S255
G4 P20
G1 X35.7 Y45.8 F480
M106 S0
G4 P100
G0 X35.8 Y45.9 F1200
M106 S255
G4 P20
G1 X34.0 Y45.9 F480
M106 S0
G4 P100
G0 X31.8 Y45.9 F1200
M106 S255
G4 P20
G1 X31.6 Y45.9 F480
M106 S0
G4 P100
G0 X26.8 Y45.9 F1200
M106 S255
G4 P20
G1 X26.5 Y45.9 F480
M106 S0
G4 P100
G0 X16.4 Y45.9 F1200
M106 S255
G4 P20
G1 X15.9 Y45.9 F480
M106 S0
G4 P100
G0 X15.9 Y46.0 F1200
M106 S255
G4 P20
G1 X16.3 Y46.0 F480
M106 S0
G4 P100
G0 X26.4 Y46.0 F1200
M106 S255
G4 P20
G1 X26.8 Y46.0 F480
M106 S0
G4 P100
G0 X31.5 Y46.0 F1200
M106 S255
G4 P20
G1 X31.7 Y46.0 F480
M106 S0
G4 P100
G0 X34.0 Y46.0 F1200
M106 S255
G4 P20
G1 X35.9 Y46.0 F480
M106 S0
G4 P100
G0 X35.9 Y46.1 F1200
M106 S255
G4 P20
G1 X33.9 Y46.1 F480
M106 S0
G4 P100
G0 X31.7 Y46.1 F1200
M106 S255
G4 P20
G1 X31.4 Y46.1 F480
M106 S0
G4 P100
G0 X26.7 Y46.1 F1200
M106 S255
G4 P20
G1 X26.4 Y46.1 F480
M106 S0
G4 P100
G0 X16.3 Y46.1 F1200
M106 S255
G4 P20
G1 X15.8 Y46.1 F480
M106 S0
G4 P100
G0 X15.8 Y46.2 F1200
M106 S255
G4 P20
G1 X16.3 Y46.2 F480
M106 S0
G4 P100
G0 X26.3 Y46.2 F1200
M106 S255
G4 P20
G1 X26.7 Y46.2 F480
M106 S0
G4 P100
G0 X31.3 Y46.2 F1200
M106 S255
G4 P20
G1 X31.6 Y46.2 F480
M106 S0
G4 P100
G0 X33.8 Y46.2 F1200
M106 S255
G4 P20
G1 X36.0 Y46.2 F480
M106 S0
G4 P100
G0 X36.1 Y46.3 F1200
M106 S255
G4 P20
G1 X33.7 Y46.3 F480
M106 S0
G4 P100
G0 X31.5 Y46.3 F1200
M106 S255
G4 P20
G1 X31.2 Y46.3 F480
M106 S0
G4 P100
G0 X30.6 Y46.3 F1200
M106 S255
G4 P20
G1 X30.6 Y46.3 F480
M106 S0
G4 P100
G0 X26.7 Y46.3 F1200
M106 S255
G4 P20
G1 X26.3 Y46.3 F480
M106 S0
G4 P100
G0 X16.2 Y46.3 F1200
M106 S255
G4 P20
G1 X15.7 Y46.3 F480
M106 S0
G4 P100
G0 X15.7 Y46.4 F1200
M106 S255
G4 P20
G1 X16.2 Y46.4 F480
M106 S0
G4 P100
G0 X26.3 Y46.4 F1200
M106 S255
G4 P20
G1 X26.6 Y46.4 F480
M106 S0
G4 P100
G0 X30.5 Y46.4 F1200
M106 S255
G4 P20
G1 X30.6 Y46.4 F480
M106 S0
G4 P100
G0 X31.1 Y46.4 F1200
M106 S255
G4 P20
G1 X31.4 Y46.4 F480
M106 S0
G4 P100
G0 X33.7 Y46.4 F1200
M106 S255
G4 P20
G1 X36.1 Y46.4 F480
M106 S0
G4 P100
G0 X36.2 Y46.5 F1200
M106 S255
G4 P20
G1 X33.6 Y46.5 F480
M106 S0
G4 P100
G0 X31.2 Y46.5 F1200
M106 S255
G4 P20
G1 X30.5 Y46.5 F480
M106 S0
G4 P100
G0 X26.6 Y46.5 F1200
M106 S255
G4 P20
G1 X26.3 Y46.5 F480
M106 S0
G4 P100
G0 X16.1 Y46.5 F1200
M106 S255
G4 P20
G1 X15.7 Y46.5 F480
M106 S0
G4 P100
G0 X15.6 Y46.6 F1200
M106 S255
G4 P20
G1 X16.1 Y46.6 F480
M106 S0
G4 P100
G0 X26.2 Y46.6 F1200
M106 S255
G4 P20
G1 X26.6 Y46.6 F480
M106 S0
G4 P100
G0 X30.5 Y46.6 F1200
M106 S255
G4 P20
G1 X31.1 Y46.6 F480
M106 S0
G4 P100
G0 X33.5 Y46.6 F1200
M106 S255
G4 P20
G1 X36.3 Y46.6 F480
M106 S0
G4 P100
G0 X36.4 Y46.7 F1200
M106 S255
G4 P20
G1 X33.4 Y46.7 F480
M106 S0
G4 P100
G0 X31.0 Y46.7 F1200
M106 S255
G4 P20
G1 X30.5 Y46.7 F480
M106 S0
G4 P100
G0 X26.6 Y46.7 F1200
M106 S255
G4 P20
G1 X26.2 Y46.7 F480
M106 S0
G4 P100
G0 X16.1 Y46.7 F1200
M106 S255
G4 P20
G1 X15.6 Y46.7 F480
M106 S0
G4 P100
G0 X15.6 Y46.8 F1200
M106 S255
G4 P20
G1 X16.0 Y46.8 F480
M106 S0
G4 P100
G0 X26.2 Y46.8 F1200
M106 S255
G4 P20
G1 X26.5 Y46.8 F480
M106 S0
G4 P100
G0 X30.5 Y46.8 F1200
M106 S255
G4 P20
G1 X30.8 Y46.8 F480
M106 S0
G4 P100
G0 X33.3 Y46.8 F1200
M106 S255
G4 P20
G1 X36.4 Y46.8 F480
M106 S0
G4 P100
G0 X36.5 Y46.9 F1200
M106 S255
G4 P20
G1 X33.2 Y46.9 F480
M106 S0
G4 P100
G0 X30.8 Y46.9 F1200
M106 S255
G4 P20
G1 X30.5 Y46.9 F480
M106 S0
G4 P100
G0 X26.5 Y46.9 F1200
M106 S255
G4 P20
G1 X26.1 Y46.9 F480
M106 S0
G4 P100
G0 X16.0 Y46.9 F1200
M106 S255
G4 P20
G1 X15.5 Y46.9 F480
M106 S0
G4 P100
G0 X15.5 Y47.0 F1200
M106 S255
G4 P20
G1 X16.0 Y47.0 F480
M106 S0
G4 P100
G0 X26.1 Y47.0 F1200
M106 S255
G4 P20
G1 X26.4 Y47.0 F480
M106 S0
G4 P100
G0 X30.5 Y47.0 F1200
M106 S255
G4 P20
G1 X30.7 Y47.0 F480
M106 S0
G4 P100
G0 X33.1 Y47.0 F1200
M106 S255
G4 P20
G1 X36.6 Y47.0 F480
M106 S0
G4 P100
G0 X36.7 Y47.1 F1200
M106 S255
G4 P20
G1 X33.0 Y47.1 F480
M106 S0
G4 P100
G0 X30.6 Y47.1 F1200
M106 S255
G4 P20
G1 X30.5 Y47.1 F480
M106 S0
G4 P100
G0 X26.4 Y47.1 F1200
M106 S255
G4 P20
G1 X26.1 Y47.1 F480
M106 S0
G4 P100
G0 X15.9 Y47.1 F1200
M106 S255
G4 P20
G1 X15.4 Y47.1 F480
M106 S0
G4 P100
G0 X15.4 Y47.2 F1200
M106 S255
G4 P20
G1 X15.9 Y47.2 F480
M106 S0
G4 P100
G0 X26.0 Y47.2 F1200
M106 S255
G4 P20
G1 X26.4 Y47.2 F480
M106 S0
G4 P100
G0 X30.5 Y47.2 F1200
M106 S255
G4 P20
G1 X30.6 Y47.2 F480
M106 S0
G4 P100
G0 X32.9 Y47.2 F1200
M106 S255
G4 P20
G1 X36.7 Y47.2 F480
M106 S0
G4 P100
G0 X36.8 Y47.3 F1200
M106 S255
G4 P20
G1 X32.8 Y47.3 F480
M106 S0
G4 P100
G0 X30.6 Y47.3 F1200
M106 S255
G4 P20
G1 X30.5 Y47.3 F480
M106 S0
G4 P100
G0 X26.4 Y47.3 F1200
M106 S255
G4 P20
G1 X26.0 Y47.3 F480
M106 S0
G4 P100
G0 X15.9 Y47.3 F1200
M106 S255
G4 P20
G1 X15.4 Y47.3 F480
M106 S0
G4 P100
G0 X15.4 Y47.4 F1200
M106 S255
G4 P20
G1 X15.8 Y47.4 F480
M106 S0
G4 P100
G0 X26.0 Y47.4 F1200
M106 S255
G4 P20
G1 X26.3 Y47.4 F480
M106 S0
G4 P100
G0 X30.0 Y47.4 F1200
M106 S255
G4 P20
G1 X30.1 Y47.4 F480
M106 S0
G4 P100
G0 X30.5 Y47.4 F1200
M106 S255
G4 P20
G1 X30.6 Y47.4 F480
M106 S0
G4 P100
G0 X32.7 Y47.4 F1200
M106 S255
G4 P20
G1 X36.9 Y47.4 F480
M106 S0
G4 P100
G0 X37.0 Y47.5 F1200
M106 S255
G4 P20
G1 X32.6 Y47.5 F480
M106 S0
G4 P100
G0 X30.6 Y47.5 F1200
M106 S255
G4 P20
G1 X30.5 Y47.5 F480
M106 S0
G4 P100
G0 X30.1 Y47.5 F1200
M106 S255
G4 P20
G1 X30.0 Y47.5 F480
M106 S0
G4 P100
G0 X26.3 Y47.5 F1200
M106 S255
G4 P20
G1 X26.0 Y47.5 F480
M106 S0
G4 P100
G0 X15.8 Y47.5 F1200
M106 S255
G4 P20
G1 X15.4 Y47.5 F480
M106 S0
G4 P100
G0 X15.3 Y47.6 F1200
M106 S255
G4 P20
G1 X15.8 Y47.6 F480
M106 S0
G4 P100
G0 X25.9 Y47.6 F1200
M106 S255
G4 P20
G1 X26.3 Y47.6 F480
M106 S0
G4 P100
G0 X30.0 Y47.6 F1200
M106 S255
G4 P20
G1 X30.2 Y47.6 F480
M106 S0
G4 P100
G0 X30.4 Y47.6 F1200
M106 S255
G4 P20
G1 X30.6 Y47.6 F480
M106 S0
G4 P100
G0 X32.5 Y47.6 F1200
M106 S255
G4 P20
G1 X37.1 Y47.6 F480
M106 S0
G4 P100
G0 X37.2 Y47.7 F1200
M106 S255
G4 P20
G1 X32.3 Y47.7 F480
M106 S0
G4 P100
G0 X30.6 Y47.7 F1200
M106 S255
G4 P20
G1 X30.4 Y47.7 F480
M106 S0
G4 P100
G0 X30.2 Y47.7 F1200
M106 S255
G4 P20
G1 X30.0 Y47.7 F480
M106 S0
G4 P100
G0 X26.2 Y47.7 F1200
M106 S255
G4 P20
G1 X25.9 Y47.7 F480
M106 S0
G4 P100
G0 X15.8 Y47.7 F1200
M106 S255
G4 P20
G1 X15.3 Y47.7 F480
M106 S0
G4 P100
G0 X15.2 Y47.8 F1200
M106 S255
G4 P20
G1 X15.7 Y47.8 F480
M106 S0
G4 P100
G0 X25.9 Y47.8 F1200
M106 S255
G4 P20
G1 X26.2 Y47.8 F480
M106 S0
G4 P100
G0 X30.0 Y47.8 F1200
M106 S255
G4 P20
G1 X30.6 Y47.8 F480
M106 S0
G4 P100
G0 X32.2 Y47.8 F1200
M106 S255
G4 P20
G1 X37.3 Y47.8 F480
M106 S0
G4 P100
G0 X37.4 Y47.9 F1200
M106 S255
G4 P20
G1 X32.0 Y47.9 F480
M106 S0
G4 P100
G0 X30.6 Y47.9 F1200
M106 S255
G4 P20
G1 X30.0 Y47.9 F480
M106 S0
G4 P100
G0 X26.2 Y47.9 F1200
M106 S255
G4 P20
G1 X25.8 Y47.9 F480
M106 S0
G4 P100
G0 X15.7 Y47.9 F1200
M106 S255
G4 P20
G1 X15.2 Y47.9 F480
M106 S0
G4 P100
G0 X15.2 Y48.0 F1200
M106 S255
G4 P20
G1 X15.7 Y48.0 F480
M106 S0
G4 P100
G0 X25.8 Y48.0 F1200
M106 S255
G4 P20
G1 X26.1 Y48.0 F480
M106 S0
G4 P100
G0 X30.0 Y48.0 F1200
M106 S255
G4 P20
G1 X30.6 Y48.0 F480
M106 S0
G4 P100
G0 X31.8 Y48.0 F1200
M106 S255
G4 P20
G1 X37.5 Y48.0 F480
M106 S0
G4 P100
G0 X37.5 Y48.1 F1200
M106 S255
G4 P20
G1 X31.6 Y48.1 F480
M106 S0
G4 P100
G0 X30.5 Y48.1 F1200
M106 S255
G4 P20
G1 X30.0 Y48.1 F480
M106 S0
G4 P100
G0 X26.1 Y48.1 F1200
M106 S255
G4 P20
G1 X25.8 Y48.1 F480
M106 S0
G4 P100
G0 X15.6 Y48.1 F1200
M106 S255
G4 P20
G1 X15.2 Y48.1 F480
M106 S0
G4 P100
G0 X15.2 Y48.2 F1200
M106 S255
G4 P20
G1 X15.6 Y48.2 F480
M106 S0
G4 P100
G0 X25.7 Y48.2 F1200
M106 S255
G4 P20
G1 X26.1 Y48.2 F480
M106 S0
G4 P100
G0 X30.0 Y48.2 F1200
M106 S255
G4 P20
G1 X30.5 Y48.2 F480
M106 S0
G4 P100
G0 X31.4 Y48.2 F1200
M106 S255
G4 P20
G1 X37.6 Y48.2 F480
M106 S0
G4 P100
G0 X37.7 Y48.3 F1200
M106 S255
G4 P20
G1 X31.1 Y48.3 F480
M106 S0
G4 P100
G0 X30.6 Y48.3 F1200
M106 S255
G4 P20
G1 X30.0 Y48.3 F480
M106 S0
G4 P100
G0 X26.1 Y48.3 F1200
M106 S255
G4 P20
G1 X25.7 Y48.3 F480
M106 S0
G4 P100
G0 X15.6 Y48.3 F1200
M106 S255
G4 P20
G1 X15.1 Y48.3 F480
M106 S0
G4 P100
G0 X15.1 Y48.4 F1200
M106 S255
G4 P20
G1 X15.6 Y48.4 F480
M106 S0
G4 P100
G0 X25.7 Y48.4 F1200
M106 S255
G4 P20
G1 X26.0 Y48.4 F480
M106 S0
G4 P100
G0 X30.0 Y48.4 F1200
M106 S255
G4 P20
G1 X37.8 Y48.4 F480
M106 S0
G4 P100
G0 X37.9 Y48.5 F1200
M106 S255
G4 P20
G1 X30.0 Y48.5 F480
M106 S0
G4 P100
G0 X26.0 Y48.5 F1200
M106 S255
G4 P20
G1 X25.7 Y48.5 F480
M106 S0
G4 P100
G0 X15.6 Y48.5 F1200
M106 S255
G4 P20
G1 X15.1 Y48.5 F480
M106 S0
G4 P100
G0 X15.1 Y48.6 F1200
M106 S255
G4 P20
G1 X15.6 Y48.6 F480
M106 S0
G4 P100
G0 X25.7 Y48.6 F1200
M106 S255
G4 P20
G1 X25.9 Y48.6 F480
M106 S0
G4 P100
G0 X30.1 Y48.6 F1200
M106 S255
G4 P20
G1 X38.0 Y48.6 F480
M106 S0
G4 P100
G0 X38.1 Y48.7 F1200
M106 S255
G4 P20
G1 X30.1 Y48.7 F480
M106 S0
G4 P100
G0 X25.9 Y48.7 F1200
M106 S255
G4 P20
G1 X25.6 Y48.7 F480
M106 S0
G4 P100
G0 X15.5 Y48.7 F1200
M106 S255
G4 P20
G1 X15.1 Y48.7 F480
M106 S0
G4 P100
G0 X15.1 Y48.8 F1200
M106 S255
G4 P20
G1 X15.5 Y48.8 F480
M106 S0
G4 P100
G0 X25.5 Y48.8 F1200
M106 S255
G4 P20
G1 X25.9 Y48.8 F480
M106 S0
G4 P100
G0 X30.1 Y48.8 F1200
M106 S255
G4 P20
G1 X30.5 Y48.8 F480
M106 S0
G4 P100
G0 X31.0 Y48.8 F1200
M106 S255
G4 P20
G1 X38.2 Y48.8 F480
M106 S0
G4 P100
G0 X38.3 Y48.9 F1200
M106 S255
G4 P20
G1 X31.1 Y48.9 F480
M106 S0
G4 P100
G0 X30.4 Y48.9 F1200
M106 S255
G4 P20
G1 X30.1 Y48.9 F480
M106 S0
G4 P100
G0 X25.9 Y48.9 F1200
M106 S255
G4 P20
G1 X25.5 Y48.9 F480
M106 S0
G4 P100
G0 X15.5 Y48.9 F1200
M106 S255
G4 P20
G1 X15.0 Y48.9 F480
M106 S0
G4 P100
G0 X15.0 Y49.0 F1200
M106 S255
G4 P20
G1 X15.5 Y49.0 F480
M106 S0
G4 P100
G0 X25.5 Y49.0 F1200
M106 S255
G4 P20
G1 X25.8 Y49.0 F480
M106 S0
G4 P100
G0 X30.1 Y49.0 F1200
M106 S255
G4 P20
G1 X30.4 Y49.0 F480
M106 S0
G4 P100
G0 X31.2 Y49.0 F1200
M106 S255
G4 P20
G1 X38.4 Y49.0 F480
M106 S0
G4 P100
G0 X38.5 Y49.1 F1200
M106 S255
G4 P20
G1 X31.3 Y49.1 F480
M106 S0
G4 P100
G0 X30.4 Y49.1 F1200
M106 S255
G4 P20
G1 X30.1 Y49.1 F480
M106 S0
G4 P100
G0 X25.8 Y49.1 F1200
M106 S255
G4 P20
G1 X25.5 Y49.1 F480
M106 S0
G4 P100
G0 X15.4 Y49.1 F1200
M106 S255
G4 P20
G1 X15.0 Y49.1 F480
M106 S0
G4 P100
G0 X14.9 Y49.2 F1200
M106 S255
G4 P20
G1 X15.4 Y49.2 F480
M106 S0
G4 P100
G0 X25.5 Y49.2 F1200
M106 S255
G4 P20
G1 X25.8 Y49.2 F480
M106 S0
G4 P100
G0 X30.1 Y49.2 F1200
M106 S255
G4 P20
G1 X30.4 Y49.2 F480
M106 S0
G4 P100
G0 X31.4 Y49.2 F1200
M106 S255
G4 P20
G1 X38.6 Y49.2 F480
M106 S0
G4 P100
G0 X38.6 Y49.3 F1200
M106 S255
G4 P20
G1 X31.5 Y49.3 F480
M106 S0
G4 P100
G0 X30.4 Y49.3 F1200
M106 S255
G4 P20
G1 X30.1 Y49.3 F480
M106 S0
G4 P100
G0 X25.7 Y49.3 F1200
M106 S255
G4 P20
G1 X25.4 Y49.3 F480
M106 S0
G4 P100
G0 X15.4 Y49.3 F1200
M106 S255
G4 P20
G1 X14.9 Y49.3 F480
M106 S0
G4 P100
G0 X14.9 Y49.4 F1200
M106 S255
G4 P20
G1 X15.4 Y49.4 F480
M106 S0
G4 P100
G0 X25.4 Y49.4 F1200
M106 S255
G4 P20
G1 X25.7 Y49.4 F480
M106 S0
G4 P100
G0 X30.1 Y49.4 F1200
M106 S255
G4 P20
G1 X30.4 Y49.4 F480
M106 S0
G4 P100
G0 X31.5 Y49.4 F1200
M106 S255
G4 P20
G1 X38.8 Y49.4 F480
M106 S0
G4 P100
G0 X38.9 Y49.5 F1200
M106 S255
G4 P20
G1 X31.6 Y49.5 F480
M106 S0
G4 P100
G0 X30.4 Y49.5 F1200
M106 S255
G4 P20
G1 X30.1 Y49.5 F480
M106 S0
G4 P100
G0 X25.7 Y49.5 F1200
M106 S255
G4 P20
G1 X25.4 Y49.5 F480
M106 S0
G4 P100
G0 X15.3 Y49.5 F1200
M106 S255
G4 P20
G1 X14.9 Y49.5 F480
M106 S0
G4 P100
G0 X14.9 Y49.6 F1200
M106 S255
G4 P20
G1 X15.3 Y49.6 F480
M106 S0
G4 P100
G0 X25.3 Y49.6 F1200
M106 S255
G4 P20
G1 X25.6 Y49.6 F480
M106 S0
G4 P100
G0 X30.2 Y49.6 F1200
M106 S255
G4 P20
G1 X30.4 Y49.6 F480
M106 S0
G4 P100
G0 X31.7 Y49.6 F1200
M106 S255
G4 P20
G1 X39.0 Y49.6 F480
M106 S0
G4 P100
G0 X41.6 Y49.6 F1200
M106 S255
G4 P20
G1 X42.6 Y49.6 F480
M106 S0
G4 P100
G0 X43.1 Y49.7 F1200
M106 S255
G4 P20
G1 X40.5 Y49.7 F480
M106 S0
G4 P100
G0 X39.1 Y49.7 F1200
M106 S255
G4 P20
G1 X31.8 Y49.7 F480
M106 S0
G4 P100
G0 X30.4 Y49.7 F1200
M106 S255
G4 P20
G1 X30.2 Y49.7 F480
M106 S0
G4 P100
G0 X25.6 Y49.7 F1200
M106 S255
G4 P20
G1 X25.3 Y49.7 F480
M106 S0
G4 P100
G0 X15.3 Y49.7 F1200
M106 S255
G4 P20
G1 X14.9 Y49.7 F480
M106 S0
G4 P100
G0 X14.9 Y49.8 F1200
M106 S255
G4 P20
G1 X15.3 Y49.8 F480
M106 S0
G4 P100
G0 X25.2 Y49.8 F1200
M106 S255
G4 P20
G1 X25.6 Y49.8 F480
M106 S0
G4 P100
G0 X30.2 Y49.8 F1200
M106 S255
G4 P20
G1 X30.4 Y49.8 F480
M106 S0
G4 P100
G0 X31.9 Y49.8 F1200
M106 S255
G4 P20
G1 X39.2 Y49.8 F480
M106 S0
G4 P100
G0 X40.1 Y49.8 F1200
M106 S255
G4 P20
G1 X43.3 Y49.8 F480
M106 S0
G4 P100
G0 X43.5 Y49.9 F1200
M106 S255
G4 P20
G1 X39.7 Y49.9 F480
M106 S0
G4 P100
G0 X39.4 Y49.9 F1200
M106 S255
G4 P20
G1 X32.0 Y49.9 F480
M106 S0
G4 P100
G0 X30.4 Y49.9 F1200
M106 S255
G4 P20
G1 X30.2 Y49.9 F480
M106 S0
G4 P100
G0 X25.6 Y49.9 F1200
M106 S255
G4 P20
G1 X25.2 Y49.9 F480
M106 S0
G4 P100
G0 X15.3 Y49.9 F1200
M106 S255
G4 P20
G1 X14.9 Y49.9 F480
M106 S0
G4 P100
G0 X14.8 Y50.0 F1200
M106 S255
G4 P20
G1 X15.3 Y50.0 F480
M106 S0
G4 P100
G0 X25.2 Y50.0 F1200
M106 S255
G4 P20
G1 X25.6 Y50.0 F480
M106 S0
G4 P100
G0 X30.2 Y50.0 F1200
M106 S255
G4 P20
G1 X30.4 Y50.0 F480
M106 S0
G4 P100
G0 X32.1 Y50.0 F1200
M106 S255
G4 P20
G1 X41.0 Y50.0 F480
M106 S0
G4 P100
G0 X43.1 Y50.0 F1200
M106 S255
G4 P20
G1 X43.6 Y50.0 F480
M106 S0
G4 P100
G0 X43.7 Y50.1 F1200
M106 S255
G4 P20
G1 X43.1 Y50.1 F480
M106 S0
G4 P100
G0 X40.6 Y50.1 F1200
M106 S255
G4 P20
G1 X32.1 Y50.1 F480
M106 S0
G4 P100
G0 X30.4 Y50.1 F1200
M106 S255
G4 P20
G1 X30.2 Y50.1 F480
M106 S0
G4 P100
G0 X25.5 Y50.1 F1200
M106 S255
G4 P20
G1 X25.2 Y50.1 F480
M106 S0
G4 P100
G0 X15.3 Y50.1 F1200
M106 S255
G4 P20
G1 X14.8 Y50.1 F480
M106 S0
G4 P100
G0 X14.8 Y50.2 F1200
M106 S255
G4 P20
G1 X15.3 Y50.2 F480
M106 S0
G4 P100
G0 X25.2 Y50.2 F1200
M106 S255
G4 P20
G1 X25.5 Y50.2 F480
M106 S0
G4 P100
G0 X30.2 Y50.2 F1200
M106 S255
G4 P20
G1 X30.4 Y50.2 F480
M106 S0
G4 P100
G0 X32.3 Y50.2 F1200
M106 S255
G4 P20
G1 X40.1 Y50.2 F480
M106 S0
G4 P100
G0 X43.1 Y50.2 F1200
M106 S255
G4 P20
G1 X43.8 Y50.2 F480
M106 S0
G4 P100
G0 X43.8 Y50.3 F1200
M106 S255
G4 P20
G1 X43.0 Y50.3 F480
M106 S0
G4 P100
G0 X39.9 Y50.3 F1200
M106 S255
G4 P20
G1 X32.4 Y50.3 F480
M106 S0
G4 P100
G0 X30.4 Y50.3 F1200
M106 S255
G4 P20
G1 X30.2 Y50.3 F480
M106 S0
G4 P100
G0 X25.5 Y50.3 F1200
M106 S255
G4 P20
G1 X25.2 Y50.3 F480
M106 S0
G4 P100
G0 X15.3 Y50.3 F1200
M106 S255
G4 P20
G1 X14.8 Y50.3 F480
M106 S0
G4 P100
G0 X14.8 Y50.4 F1200
M106 S255
G4 P20
G1 X15.3 Y50.4 F480
M106 S0
G4 P100
G0 X25.1 Y50.4 F1200
M106 S255
G4 P20
G1 X25.4 Y50.4 F480
M106 S0
G4 P100
G0 X30.2 Y50.4 F1200
M106 S255
G4 P20
G1 X30.4 Y50.4 F480
M106 S0
G4 P100
G0 X32.5 Y50.4 F1200
M106 S255
G4 P20
G1 X39.9 Y50.4 F480
M106 S0
G4 P100
G0 X42.7 Y50.4 F1200
M106 S255
G4 P20
G1 X43.9 Y50.4 F480
M106 S0
G4 P100
G0 X43.9 Y50.5 F1200
M106 S255
G4 P20
G1 X43.5 Y50.5 F480
M106 S0
G4 P100
G0 X43.2 Y50.5 F1200
M106 S255
G4 P20
G1 X42.2 Y50.5 F480
M106 S0
G4 P100
G0 X40.0 Y50.5 F1200
M106 S255
G4 P20
G1 X32.6 Y50.5 F480
M106 S0
G4 P100
G0 X30.4 Y50.5 F1200
M106 S255
G4 P20
G1 X30.2 Y50.5 F480
M106 S0
G4 P100
G0 X25.4 Y50.5 F1200
M106 S255
G4 P20
G1 X25.1 Y50.5 F480
M106 S0
G4 P100
G0 X15.3 Y50.5 F1200
M106 S255
G4 P20
G1 X14.8 Y50.5 F480
M106 S0
G4 P100
G0 X14.8 Y50.6 F1200
M106 S255
G4 P20
G1 X15.2 Y50.6 F480
M106 S0
G4 P100
G0 X25.1 Y50.6 F1200
M106 S255
G4 P20
G1 X25.4 Y50.6 F480
M106 S0
G4 P100
G0 X30.2 Y50.6 F1200
M106 S255
G4 P20
G1 X30.5 Y50.6 F480
M106 S0
G4 P100
G0 X32.7 Y50.6 F1200
M106 S255
G4 P20
G1 X40.1 Y50.6 F480
M106 S0
G4 P100
G0 X42.1 Y50.6 F1200
M106 S255
G4 P20
G1 X43.1 Y50.6 F480
M106 S0
G4 P100
G0 X43.7 Y50.6 F1200
M106 S255
G4 P20
G1 X44.0 Y50.6 F480
M106 S0
G4 P100
G0 X44.1 Y50.7 F1200
M106 S255
G4 P20
G1 X43.7 Y50.7 F480
M106 S0
G4 P100
G0 X42.7 Y50.7 F1200
M106 S255
G4 P20
G1 X41.7 Y50.7 F480
M106 S0
G4 P100
G0 X40.2 Y50.7 F1200
M106 S255
G4 P20
G1 X32.8 Y50.7 F480
M106 S0
G4 P100
G0 X30.5 Y50.7 F1200
M106 S255
G4 P20
G1 X30.2 Y50.7 F480
M106 S0
G4 P100
G0 X25.4 Y50.7 F1200
M106 S255
G4 P20
G1 X25.0 Y50.7 F480
M106 S0
G4 P100
G0 X15.2 Y50.7 F1200
M106 S255
G4 P20
G1 X14.8 Y50.7 F480
M106 S0
G4 P100
G0 X14.8 Y50.8 F1200
M106 S255
G4 P20
G1 X15.2 Y50.8 F480
M106 S0
G4 P100
G0 X25.0 Y50.8 F1200
M106 S255
G4 P20
G1 X25.4 Y50.8 F480
M106 S0
G4 P100
G0 X30.2 Y50.8 F1200
M106 S255
G4 P20
G1 X30.5 Y50.8 F480
M106 S0
G4 P100
G0 X32.9 Y50.8 F1200
M106 S255
G4 P20
G1 X40.3 Y50.8 F480
M106 S0
G4 P100
G0 X41.5 Y50.8 F1200
M106 S255
G4 P20
G1 X42.4 Y50.8 F480
M106 S0
G4 P100
G0 X43.8 Y50.8 F1200
M106 S255
G4 P20
G1 X44.1 Y50.8 F480
M106 S0
G4 P100
G0 X44.2 Y50.9 F1200
M106 S255
G4 P20
G1 X43.8 Y50.9 F480
M106 S0
G4 P100
G0 X42.2 Y50.9 F1200
M106 S255
G4 P20
G1 X41.3 Y50.9 F480
M106 S0
G4 P100
G0 X40.4 Y50.9 F1200
M106 S255
G4 P20
G1 X33.0 Y50.9 F480
M106 S0
G4 P100
G0 X30.4 Y50.9 F1200
M106 S255
G4 P20
G1 X30.2 Y50.9 F480
M106 S0
G4 P100
G0 X25.3 Y50.9 F1200
M106 S255
G4 P20
G1 X25.0 Y50.9 F480
M106 S0
G4 P100
G0 X15.2 Y50.9 F1200
M106 S255
G4 P20
G1 X14.8 Y50.9 F480
M106 S0
G4 P100
G0 X14.8 Y51.0 F1200
M106 S255
G4 P20
G1 X15.2 Y51.0 F480
M106 S0
G4 P100
G0 X25.0 Y51.0 F1200
M106 S255
G4 P20
G1 X25.3 Y51.0 F480
M106 S0
G4 P100
G0 X30.2 Y51.0 F1200
M106 S255
G4 P20
G1 X30.4 Y51.0 F480
M106 S0
G4 P100
G0 X33.1 Y51.0 F1200
M106 S255
G4 P20
G1 X40.7 Y51.0 F480
M106 S0
G4 P100
G0 X41.0 Y51.0 F1200
M106 S255
G4 P20
G1 X41.8 Y51.0 F480
M106 S0
G4 P100
G0 X43.9 Y51.0 F1200
M106 S255
G4 P20
G1 X44.2 Y51.0 F480
M106 S0
G4 P100
G0 X44.3 Y51.1 F1200
M106 S255
G4 P20
G1 X43.9 Y51.1 F480
M106 S0
G4 P100
G0 X41.6 Y51.1 F1200
M106 S255
G4 P20
G1 X33.2 Y51.1 F480
M106 S0
G4 P100
G0 X30.4 Y51.1 F1200
M106 S255
G4 P20
G1 X30.2 Y51.1 F480
M106 S0
G4 P100
G0 X25.3 Y51.1 F1200
M106 S255
G4 P20
G1 X24.9 Y51.1 F480
M106 S0
G4 P100
G0 X15.2 Y51.1 F1200
M106 S255
G4 P20
G1 X14.8 Y51.1 F480
M106 S0
G4 P100
G0 X14.8 Y51.2 F1200
M106 S255
G4 P20
G1 X15.2 Y51.2 F480
M106 S0
G4 P100
G0 X24.9 Y51.2 F1200
M106 S255
G4 P20
G1 X25.3 Y51.2 F480
M106 S0
G4 P100
G0 X30.2 Y51.2 F1200
M106 S255
G4 P20
G1 X30.5 Y51.2 F480
M106 S0
G4 P100
G0 X33.3 Y51.2 F1200
M106 S255
G4 P20
G1 X41.4 Y51.2 F480
M106 S0
G4 P100
G0 X44.0 Y51.2 F1200
M106 S255
G4 P20
G1 X44.4 Y51.2 F480
M106 S0
G4 P100
G0 X44.4 Y51.3 F1200
M106 S255
G4 P20
G1 X44.0 Y51.3 F480
M106 S0
G4 P100
G0 X41.0 Y51.3 F1200
M106 S255
G4 P20
G1 X33.5 Y51.3 F480
M106 S0
G4 P100
G0 X30.5 Y51.3 F1200
M106 S255
G4 P20
G1 X30.2 Y51.3 F480
M106 S0
G4 P100
G0 X25.2 Y51.3 F1200
M106 S255
G4 P20
G1 X24.9 Y51.3 F480
M106 S0
G4 P100
G0 X15.2 Y51.3 F1200
M106 S255
G4 P20
G1 X14.8 Y51.3 F480
M106 S0
G4 P100
G0 X14.8 Y51.4 F1200
M106 S255
G4 P20
G1 X15.2 Y51.4 F480
M106 S0
G4 P100
G0 X24.9 Y51.4 F1200
M106 S255
G4 P20
G1 X25.2 Y51.4 F480
M106 S0
G4 P100
G0 X30.2 Y51.4 F1200
M106 S255
G4 P20
G1 X30.5 Y51.4 F480
M106 S0
G4 P100
G0 X33.6 Y51.4 F1200
M106 S255
G4 P20
G1 X40.9 Y51.4 F480
M106 S0
G4 P100
G0 X44.1 Y51.4 F1200
M106 S255
G4 P20
G1 X44.5 Y51.4 F480
M106 S0
G4 P100
G0 X44.5 Y51.5 F1200
M106 S255
G4 P20
G1 X44.2 Y51.5 F480
M106 S0
G4 P100
G0 X40.6 Y51.5 F1200
M106 S255
G4 P20
G1 X33.7 Y51.5 F480
M106 S0
G4 P100
G0 X30.5 Y51.5 F1200
M106 S255
G4 P20
G1 X30.1 Y51.5 F480
M106 S0
G4 P100
G0 X25.2 Y51.5 F1200
M106 S255
G4 P20
G1 X24.9 Y51.5 F480
M106 S0
G4 P100
G0 X15.2 Y51.5 F1200
M106 S255
G4 P20
G1 X14.8 Y51.5 F480
M106 S0
G4 P100
G0 X14.8 Y51.6 F1200
M106 S255
G4 P20
G1 X15.2 Y51.6 F480
M106 S0
G4 P100
G0 X24.8 Y51.6 F1200
M106 S255
G4 P20
G1 X25.1 Y51.6 F480
M106 S0
G4 P100
G0 X30.1 Y51.6 F1200
M106 S255
G4 P20
G1 X30.5 Y51.6 F480
M106 S0
G4 P100
G0 X33.8 Y51.6 F1200
M106 S255
G4 P20
G1 X40.3 Y51.6 F480
M106 S0
G4 P100
G0 X44.2 Y51.6 F1200
M106 S255
G4 P20
G1 X44.6 Y51.6 F480
M106 S0
G4 P100
G0 X44.6 Y51.7 F1200
M106 S255
G4 P20
G1 X44.3 Y51.7 F480
M106 S0
G4 P100
G0 X40.1 Y51.7 F1200
M106 S255
G4 P20
G1 X33.9 Y51.7 F480
M106 S0
G4 P100
G0 X30.4 Y51.7 F1200
M106 S255
G4 P20
G1 X30.1 Y51.7 F480
M106 S0
G4 P100
G0 X25.1 Y51.7 F1200
M106 S255
G4 P20
G1 X24.8 Y51.7 F480
M106 S0
G4 P100
G0 X15.2 Y51.7 F1200
M106 S255
G4 P20
G1 X14.8 Y51.7 F480
M106 S0
G4 P100
G0 X14.8 Y51.8 F1200
M106 S255
G4 P20
G1 X15.2 Y51.8 F480
M106 S0
G4 P100
G0 X24.7 Y51.8 F1200
M106 S255
G4 P20
G1 X25.1 Y51.8 F480
M106 S0
G4 P100
G0 X30.1 Y51.8 F1200
M106 S255
G4 P20
G1 X30.4 Y51.8 F480
M106 S0
G4 P100
G0 X33.9 Y51.8 F1200
M106 S255
G4 P20
G1 X39.8 Y51.8 F480
M106 S0
G4 P100
G0 X44.3 Y51.8 F1200
M106 S255
G4 P20
G1 X44.7 Y51.8 F480
M106 S0
G4 P100
G0 X44.8 Y51.9 F1200
M106 S255
G4 P20
G1 X44.4 Y51.9 F480
M106 S0
G4 P100
G0 X39.5 Y51.9 F1200
M106 S255
G4 P20
G1 X33.9 Y51.9 F480
M106 S0
G4 P100
G0 X30.4 Y51.9 F1200
M106 S255
G4 P20
G1 X30.1 Y51.9 F480
M106 S0
G4 P100
G0 X25.1 Y51.9 F1200
M106 S255
G4 P20
G1 X24.7 Y51.9 F480
M106 S0
G4 P100
G0 X15.2 Y51.9 F1200
M106 S255
G4 P20
G1 X14.8 Y51.9 F480
M106 S0
G4 P100
G0 X14.8 Y52.0 F1200
M106 S255
G4 P20
G1 X15.2 Y52.0 F480
M106 S0
G4 P100
G0 X24.7 Y52.0 F1200
M106 S255
G4 P20
G1 X25.1 Y52.0 F480
M106 S0
G4 P100
G0 X30.1 Y52.0 F1200
M106 S255
G4 P20
G1 X30.4 Y52.0 F480
M106 S0
G4 P100
G0 X33.8 Y52.0 F1200
M106 S255
G4 P20
G1 X39.3 Y52.0 F480
M106 S0
G4 P100
G0 X44.4 Y52.0 F1200
M106 S255
G4 P20
G1 X44.8 Y52.0 F480
M106 S0
G4 P100
G0 X44.9 Y52.1 F1200
M106 S255
G4 P20
G1 X44.5 Y52.1 F480
M106 S0
G4 P100
G0 X39.0 Y52.1 F1200
M106 S255
G4 P20
G1 X34.4 Y52.1 F480
M106 S0
G4 P100
G0 X34.2 Y52.1 F1200
M106 S255
G4 P20
G1 X33.6 Y52.1 F480
M106 S0
G4 P100
G0 X30.4 Y52.1 F1200
M106 S255
G4 P20
G1 X30.1 Y52.1 F480
M106 S0
G4 P100
G0 X25.0 Y52.1 F1200
M106 S255
G4 P20
G1 X24.7 Y52.1 F480
M106 S0
G4 P100
G0 X15.2 Y52.1 F1200
M106 S255
G4 P20
G1 X14.8 Y52.1 F480
M106 S0
G4 P100
G0 X14.8 Y52.2 F1200
M106 S255
G4 P20
G1 X15.2 Y52.2 F480
M106 S0
G4 P100
G0 X24.7 Y52.2 F1200
M106 S255
G4 P20
G1 X25.0 Y52.2 F480
M106 S0
G4 P100
G0 X30.0 Y52.2 F1200
M106 S255
G4 P20
G1 X30.4 Y52.2 F480
M106 S0
G4 P100
G0 X33.5 Y52.2 F1200
M106 S255
G4 P20
G1 X34.0 Y52.2 F480
M106 S0
G4 P100
G0 X34.5 Y52.2 F1200
M106 S255
G4 P20
G1 X38.8 Y52.2 F480
M106 S0
G4 P100
G0 X44.5 Y52.2 F1200
M106 S255
G4 P20
G1 X44.9 Y52.2 F480
M106 S0
G4 P100
G0 X45.0 Y52.3 F1200
M106 S255
G4 P20
G1 X44.5 Y52.3 F480
M106 S0
G4 P100
G0 X38.5 Y52.3 F1200
M106 S255
G4 P20
G1 X34.7 Y52.3 F480
M106 S0
G4 P100
G0 X33.8 Y52.3 F1200
M106 S255
G4 P20
G1 X33.3 Y52.3 F480
M106 S0
G4 P100
G0 X30.4 Y52.3 F1200
M106 S255
G4 P20
G1 X30.0 Y52.3 F480
M106 S0
G4 P100
G0 X25.0 Y52.3 F1200
M106 S255
G4 P20
G1 X24.6 Y52.3 F480
M106 S0
G4 P100
G0 X15.2 Y52.3 F1200
M106 S255
G4 P20
G1 X14.8 Y52.3 F480
M106 S0
G4 P100
G0 X14.8 Y52.4 F1200
M106 S255
G4 P20
G1 X15.3 Y52.4 F480
M106 S0
G4 P100
G0 X24.6 Y52.4 F1200
M106 S255
G4 P20
G1 X25.0 Y52.4 F480
M106 S0
G4 P100
G0 X30.0 Y52.4 F1200
M106 S255
G4 P20
G1 X30.4 Y52.4 F480
M106 S0
G4 P100
G0 X33.1 Y52.4 F1200
M106 S255
G4 P20
G1 X33.6 Y52.4 F480
M106 S0
G4 P100
G0 X34.9 Y52.4 F1200
M106 S255
G4 P20
G1 X38.3 Y52.4 F480
M106 S0
G4 P100
G0 X44.6 Y52.4 F1200
M106 S255
G4 P20
G1 X45.0 Y52.4 F480
M106 S0
G4 P100
G0 X45.1 Y52.5 F1200
M106 S255
G4 P20
G1 X44.7 Y52.5 F480
M106 S0
G4 P100
G0 X38.1 Y52.5 F1200
M106 S255
G4 P20
G1 X35.0 Y52.5 F480
M106 S0
G4 P100
G0 X33.5 Y52.5 F1200
M106 S255
G4 P20
G1 X33.1 Y52.5 F480
M106 S0
G4 P100
G0 X30.4 Y52.5 F1200
M106 S255
G4 P20
G1 X30.0 Y52.5 F480
M106 S0
G4 P100
G0 X24.9 Y52.5 F1200
M106 S255
G4 P20
G1 X24.6 Y52.5 F480
M106 S0
G4 P100
G0 X15.3 Y52.5 F1200
M106 S255
G4 P20
G1 X14.8 Y52.5 F480
M106 S0
G4 P100
G0 X14.8 Y52.6 F1200
M106 S255
G4 P20
G1 X15.3 Y52.6 F480
M106 S0
G4 P100
G0 X24.6 Y52.6 F1200
M106 S255
G4 P20
G1 X24.9 Y52.6 F480
M106 S0
G4 P100
G0 X30.0 Y52.6 F1200
M106 S255
G4 P20
G1 X30.4 Y52.6 F480
M106 S0
G4 P100
G0 X32.9 Y52.6 F1200
M106 S255
G4 P20
G1 X33.3 Y52.6 F480
M106 S0
G4 P100
G0 X35.2 Y52.6 F1200
M106 S255
G4 P20
G1 X37.8 Y52.6 F480
M106 S0
G4 P100
G0 X44.7 Y52.6 F1200
M106 S255
G4 P20
G1 X45.2 Y52.6 F480
M106 S0
G4 P100
G0 X45.3 Y52.7 F1200
M106 S255
G4 P20
G1 X44.8 Y52.7 F480
M106 S0
G4 P100
G0 X37.6 Y52.7 F1200
M106 S255
G4 P20
G1 X35.3 Y52.7 F480
M106 S0
G4 P100
G0 X33.2 Y52.7 F1200
M106 S255
G4 P20
G1 X32.8 Y52.7 F480
M106 S0
G4 P100
G0 X30.4 Y52.7 F1200
M106 S255
G4 P20
G1 X30.0 Y52.7 F480
M106 S0
G4 P100
G0 X24.9 Y52.7 F1200
M106 S255
G4 P20
G1 X24.5 Y52.7 F480
M106 S0
G4 P100
G0 X15.3 Y52.7 F1200
M106 S255
G4 P20
G1 X14.8 Y52.7 F480
M106 S0
G4 P100
G0 X14.9 Y52.8 F1200
M106 S255
G4 P20
G1 X15.3 Y52.8 F480
M106 S0
G4 P100
G0 X24.5 Y52.8 F1200
M106 S255
G4 P20
G1 X24.8 Y52.8 F480
M106 S0
G4 P100
G0 X30.0 Y52.8 F1200
M106 S255
G4 P20
G1 X30.4 Y52.8 F480
M106 S0
G4 P100
G0 X32.7 Y52.8 F1200
M106 S255
G4 P20
G1 X33.0 Y52.8 F480
M106 S0
G4 P100
G0 X35.5 Y52.8 F1200
M106 S255
G4 P20
G1 X37.3 Y52.8 F480
M106 S0
G4 P100
G0 X44.9 Y52.8 F1200
M106 S255
G4 P20
G1 X45.3 Y52.8 F480
M106 S0
G4 P100
G0 X45.4 Y52.9 F1200
M106 S255
G4 P20
G1 X44.9 Y52.9 F480
M106 S0
G4 P100
G0 X37.0 Y52.9 F1200
M106 S255
G4 P20
G1 X35.6 Y52.9 F480
M106 S0
G4 P100
G0 X32.8 Y52.9 F1200
M106 S255
G4 P20
G1 X32.5 Y52.9 F480
M106 S0
G4 P100
G0 X30.4 Y52.9 F1200
M106 S255
G4 P20
G1 X30.0 Y52.9 F480
M106 S0
G4 P100
G0 X24.8 Y52.9 F1200
M106 S255
G4 P20
G1 X24.5 Y52.9 F480
M106 S0
G4 P100
G0 X15.3 Y52.9 F1200
M106 S255
G4 P20
G1 X14.9 Y52.9 F480
M106 S0
G4 P100
G0 X14.9 Y53.0 F1200
M106 S255
G4 P20
G1 X15.3 Y53.0 F480
M106 S0
G4 P100
G0 X24.4 Y53.0 F1200
M106 S255
G4 P20
G1 X24.8 Y53.0 F480
M106 S0
G4 P100
G0 X30.0 Y53.0 F1200
M106 S255
G4 P20
G1 X30.4 Y53.0 F480
M106 S0
G4 P100
G0 X32.4 Y53.0 F1200
M106 S255
G4 P20
G1 X32.8 Y53.0 F480
M106 S0
G4 P100
G0 X35.6 Y53.0 F1200
M106 S255
G4 P20
G1 X36.8 Y53.0 F480
M106 S0
G4 P100
G0 X45.0 Y53.0 F1200
M106 S255
G4 P20
G1 X45.5 Y53.0 F480
M106 S0
G4 P100
G0 X45.6 Y53.1 F1200
M106 S255
G4 P20
G1 X45.1 Y53.1 F480
M106 S0
G4 P100
G0 X36.5 Y53.1 F1200
M106 S255
G4 P20
G1 X35.5 Y53.1 F480
M106 S0
G4 P100
G0 X32.7 Y53.1 F1200
M106 S255
G4 P20
G1 X32.4 Y53.1 F480
M106 S0
G4 P100
G0 X30.4 Y53.1 F1200
M106 S255
G4 P20
G1 X29.9 Y53.1 F480
M106 S0
G4 P100
G0 X24.8 Y53.1 F1200
M106 S255
G4 P20
G1 X24.4 Y53.1 F480
M106 S0
G4 P100
G0 X15.3 Y53.1 F1200
M106 S255
G4 P20
G1 X14.9 Y53.1 F480
M106 S0
G4 P100
G0 X14.9 Y53.2 F1200
M106 S255
G4 P20
G1 X15.3 Y53.2 F480
M106 S0
G4 P100
G0 X24.4 Y53.2 F1200
M106 S255
G4 P20
G1 X24.8 Y53.2 F480
M106 S0
G4 P100
G0 X29.9 Y53.2 F1200
M106 S255
G4 P20
G1 X30.3 Y53.2 F480
M106 S0
G4 P100
G0 X32.3 Y53.2 F1200
M106 S255
G4 P20
G1 X32.5 Y53.2 F480
M106 S0
G4 P100
G0 X35.2 Y53.2 F1200
M106 S255
G4 P20
G1 X36.2 Y53.2 F480
M106 S0
G4 P100
G0 X43.2 Y53.2 F1200
M106 S255
G4 P20
G1 X43.8 Y53.2 F480
M106 S0
G4 P100
G0 X45.2 Y53.2 F1200
M106 S255
G4 P20
G1 X45.7 Y53.2 F480
M106 S0
G4 P100
G0 X45.7 Y53.3 F1200
M106 S255
G4 P20
G1 X45.2 Y53.3 F480
M106 S0
G4 P100
G0 X43.9 Y53.3 F1200
M106 S255
G4 P20
G1 X43.4 Y53.3 F480
M106 S0
G4 P100
G0 X36.0 Y53.3 F1200
M106 S255
G4 P20
G1 X35.1 Y53.3 F480
M106 S0
G4 P100
G0 X32.5 Y53.3 F1200
M106 S255
G4 P20
G1 X32.2 Y53.3 F480
M106 S0
G4 P100
G0 X30.3 Y53.3 F1200
M106 S255
G4 P20
G1 X29.9 Y53.3 F480
M106 S0
G4 P100
G0 X24.7 Y53.3 F1200
M106 S255
G4 P20
G1 X24.4 Y53.3 F480
M106 S0
G4 P100
G0 X15.4 Y53.3 F1200
M106 S255
G4 P20
G1 X14.9 Y53.3 F480
M106 S0
G4 P100
G0 X14.9 Y53.4 F1200
M106 S255
G4 P20
G1 X15.4 Y53.4 F480
M106 S0
G4 P100
G0 X24.3 Y53.4 F1200
M106 S255
G4 P20
G1 X24.7 Y53.4 F480
M106 S0
G4 P100
G0 X29.9 Y53.4 F1200
M106 S255
G4 P20
G1 X30.3 Y53.4 F480
M106 S0
G4 P100
G0 X32.1 Y53.4 F1200
M106 S255
G4 P20
G1 X32.4 Y53.4 F480
M106 S0
G4 P100
G0 X34.7 Y53.4 F1200
M106 S255
G4 P20
G1 X35.6 Y53.4 F480
M106 S0
G4 P100
G0 X43.6 Y53.4 F1200
M106 S255
G4 P20
G1 X44.6 Y53.4 F480
M106 S0
G4 P100
G0 X45.3 Y53.4 F1200
M106 S255
G4 P20
G1 X45.8 Y53.4 F480
M106 S0
G4 P100
G0 X45.9 Y53.5 F1200
M106 S255
G4 P20
G1 X45.4 Y53.5 F480
M106 S0
G4 P100
G0 X44.7 Y53.5 F1200
M106 S255
G4 P20
G1 X43.7 Y53.5 F480
M106 S0
G4 P100
G0 X35.4 Y53.5 F1200
M106 S255
G4 P20
G1 X34.5 Y53.5 F480
M106 S0
G4 P100
G0 X32.4 Y53.5 F1200
M106 S255
G4 P20
G1 X32.1 Y53.5 F480
M106 S0
G4 P100
G0 X30.3 Y53.5 F1200
M106 S255
G4 P20
G1 X29.9 Y53.5 F480
M106 S0
G4 P100
G0 X24.6 Y53.5 F1200
M106 S255
G4 P20
G1 X24.3 Y53.5 F480
M106 S0
G4 P100
G0 X15.4 Y53.5 F1200
M106 S255
G4 P20
G1 X15.0 Y53.5 F480
M106 S0
G4 P100
G0 X15.0 Y53.6 F1200
M106 S255
G4 P20
G1 X15.4 Y53.6 F480
M106 S0
G4 P100
G0 X24.2 Y53.6 F1200
M106 S255
G4 P20
G1 X24.6 Y53.6 F480
M106 S0
G4 P100
G0 X29.9 Y53.6 F1200
M106 S255
G4 P20
G1 X30.3 Y53.6 F480
M106 S0
G4 P100
G0 X32.1 Y53.6 F1200
M106 S255
G4 P20
G1 X32.4 Y53.6 F480
M106 S0
G4 P100
G0 X34.2 Y53.6 F1200
M106 S255
G4 P20
G1 X35.1 Y53.6 F480
M106 S0
G4 P100
G0 X44.1 Y53.6 F1200
M106 S255
G4 P20
G1 X46.0 Y53.6 F480
M106 S0
G4 P100
G0 X46.1 Y53.7 F1200
M106 S255
G4 P20
G1 X44.4 Y53.7 F480
M106 S0
G4 P100
G0 X34.8 Y53.7 F1200
M106 S255
G4 P20
G1 X33.8 Y53.7 F480
M106 S0
G4 P100
G0 X32.3 Y53.7 F1200
M106 S255
G4 P20
G1 X32.1 Y53.7 F480
M106 S0
G4 P100
G0 X30.2 Y53.7 F1200
M106 S255
G4 P20
G1 X29.8 Y53.7 F480
M106 S0
G4 P100
G0 X24.6 Y53.7 F1200
M106 S255
G4 P20
G1 X24.2 Y53.7 F480
M106 S0
G4 P100
G0 X15.5 Y53.7 F1200
M106 S255
G4 P20
G1 X15.0 Y53.7 F480
M106 S0
G4 P100
G0 X15.0 Y53.8 F1200
M106 S255
G4 P20
G1 X15.5 Y53.8 F480
M106 S0
G4 P100
G0 X24.2 Y53.8 F1200
M106 S255
G4 P20
G1 X24.5 Y53.8 F480
M106 S0
G4 P100
G0 X29.8 Y53.8 F1200
M106 S255
G4 P20
G1 X30.2 Y53.8 F480
M106 S0
G4 P100
G0 X32.0 Y53.8 F1200
M106 S255
G4 P20
G1 X32.3 Y53.8 F480
M106 S0
G4 P100
G0 X33.5 Y53.8 F1200
M106 S255
G4 P20
G1 X34.6 Y53.8 F480
M106 S0
G4 P100
G0 X44.6 Y53.8 F1200
M106 S255
G4 P20
G1 X46.2 Y53.8 F480
M106 S0
G4 P100
G0 X46.3 Y53.9 F1200
M106 S255
G4 P20
G1 X44.9 Y53.9 F480
M106 S0
G4 P100
G0 X34.3 Y53.9 F1200
M106 S255
G4 P20
G1 X33.1 Y53.9 F480
M106 S0
G4 P100
G0 X32.6 Y53.9 F1200
M106 S255
G4 P20
G1 X32.1 Y53.9 F480
M106 S0
G4 P100
G0 X30.2 Y53.9 F1200
M106 S255
G4 P20
G1 X29.8 Y53.9 F480
M106 S0
G4 P100
G0 X24.5 Y53.9 F1200
M106 S255
G4 P20
G1 X24.1 Y53.9 F480
M106 S0
G4 P100
G0 X15.5 Y53.9 F1200
M106 S255
G4 P20
G1 X15.1 Y53.9 F480
M106 S0
G4 P100
G0 X15.1 Y54.0 F1200
M106 S255
G4 P20
G1 X15.5 Y54.0 F480
M106 S0
G4 P100
G0 X24.1 Y54.0 F1200
M106 S255
G4 P20
G1 X24.5 Y54.0 F480
M106 S0
G4 P100
G0 X29.8 Y54.0 F1200
M106 S255
G4 P20
G1 X30.2 Y54.0 F480
M106 S0
G4 P100
G0 X32.1 Y54.0 F1200
M106 S255
G4 P20
G1 X33.9 Y54.0 F480
M106 S0
G4 P100
G0 X45.2 Y54.0 F1200
M106 S255
G4 P20
G1 X46.5 Y54.0 F480
M106 S0
G4 P100
G0 X54.6 Y54.1 F1200
M106 S255
G4 P20
G1 X53.8 Y54.1 F480
M106 S0
G4 P100
G0 X46.7 Y54.1 F1200
M106 S255
G4 P20
G1 X45.4 Y54.1 F480
M106 S0
G4 P100
G0 X33.5 Y54.1 F1200
M106 S255
G4 P20
G1 X32.1 Y54.1 F480
M106 S0
G4 P100
G0 X30.1 Y54.1 F1200
M106 S255
G4 P20
G1 X29.7 Y54.1 F480
M106 S0
G4 P100
G0 X24.4 Y54.1 F1200
M106 S255
G4 P20
G1 X24.1 Y54.1 F480
M106 S0
G4 P100
G0 X15.6 Y54.1 F1200
M106 S255
G4 P20
G1 X15.1 Y54.1 F480
M106 S0
G4 P100
G0 X15.1 Y54.2 F1200
M106 S255
G4 P20
G1 X15.6 Y54.2 F480
M106 S0
G4 P100
G0 X24.0 Y54.2 F1200
M106 S255
G4 P20
G1 X24.4 Y54.2 F480
M106 S0
G4 P100
G0 X29.7 Y54.2 F1200
M106 S255
G4 P20
G1 X30.1 Y54.2 F480
M106 S0
G4 P100
G0 X32.1 Y54.2 F1200
M106 S255
G4 P20
G1 X32.9 Y54.2 F480
M106 S0
G4 P100
G0 X45.8 Y54.2 F1200
M106 S255
G4 P20
G1 X47.2 Y54.2 F480
M106 S0
G4 P100
G0 X52.7 Y54.2 F1200
M106 S255
G4 P20
G1 X55.8 Y54.2 F480
M106 S0
G4 P100
G0 X56.0 Y54.3 F1200
M106 S255
G4 P20
G1 X52.2 Y54.3 F480
M106 S0
G4 P100
G0 X47.4 Y54.3 F1200
M106 S255
G4 P20
G1 X46.0 Y54.3 F480
M106 S0
G4 P100
G0 X32.8 Y54.3 F1200
M106 S255
G4 P20
G1 X32.2 Y54.3 F480
M106 S0
G4 P100
G0 X30.1 Y54.3 F1200
M106 S255
G4 P20
G1 X29.7 Y54.3 F480
M106 S0
G4 P100
G0 X24.3 Y54.3 F1200
M106 S255
G4 P20
G1 X24.0 Y54.3 F480
M106 S0
G4 P100
G0 X15.6 Y54.3 F1200
M106 S255
G4 P20
G1 X15.2 Y54.3 F480
M106 S0
G4 P100
G0 X15.2 Y54.4 F1200
M106 S255
G4 P20
G1 X15.6 Y54.4 F480
M106 S0
G4 P100
G0 X23.9 Y54.4 F1200
M106 S255
G4 P20
G1 X24.3 Y54.4 F480
M106 S0
G4 P100
G0 X29.6 Y54.4 F1200
M106 S255
G4 P20
G1 X30.1 Y54.4 F480
M106 S0
G4 P100
G0 X32.3 Y54.4 F1200
M106 S255
G4 P20
G1 X32.8 Y54.4 F480
M106 S0
G4 P100
G0 X46.3 Y54.4 F1200
M106 S255
G4 P20
G1 X47.9 Y54.4 F480
M106 S0
G4 P100
G0 X51.5 Y54.4 F1200
M106 S255
G4 P20
G1 X56.3 Y54.4 F480
M106 S0
G4 P100
G0 X56.4 Y54.5 F1200
M106 S255
G4 P20
G1 X50.9 Y54.5 F480
M106 S0
G4 P100
G0 X48.4 Y54.5 F1200
M106 S255
G4 P20
G1 X46.7 Y54.5 F480
M106 S0
G4 P100
G0 X32.9 Y54.5 F1200
M106 S255
G4 P20
G1 X32.4 Y54.5 F480
M106 S0
G4 P100
G0 X30.1 Y54.5 F1200
M106 S255
G4 P20
G1 X29.6 Y54.5 F480
M106 S0
G4 P100
G0 X24.3 Y54.5 F1200
M106 S255
G4 P20
G1 X23.9 Y54.5 F480
M106 S0
G4 P100
G0 X15.7 Y54.5 F1200
M106 S255
G4 P20
G1 X15.2 Y54.5 F480
M106 S0
G4 P100
G0 X15.2 Y54.6 F1200
M106 S255
G4 P20
G1 X15.7 Y54.6 F480
M106 S0
G4 P100
G0 X23.9 Y54.6 F1200
M106 S255
G4 P20
G1 X24.2 Y54.6 F480
M106 S0
G4 P100
G0 X29.6 Y54.6 F1200
M106 S255
G4 P20
G1 X30.1 Y54.6 F480
M106 S0
G4 P100
G0 X32.5 Y54.6 F1200
M106 S255
G4 P20
G1 X33.0 Y54.6 F480
M106 S0
G4 P100
G0 X47.0 Y54.6 F1200
M106 S255
G4 P20
G1 X48.7 Y54.6 F480
M106 S0
G4 P100
G0 X50.4 Y54.6 F1200
M106 S255
G4 P20
G1 X56.5 Y54.6 F480
M106 S0
G4 P100
G0 X56.7 Y54.7 F1200
M106 S255
G4 P20
G1 X55.7 Y54.7 F480
M106 S0
G4 P100
G0 X52.8 Y54.7 F1200
M106 S255
G4 P20
G1 X49.8 Y54.7 F480
M106 S0
G4 P100
G0 X49.1 Y54.7 F1200
M106 S255
G4 P20
G1 X47.5 Y54.7 F480
M106 S0
G4 P100
G0 X33.2 Y54.7 F1200
M106 S255
G4 P20
G1 X32.6 Y54.7 F480
M106 S0
G4 P100
G0 X30.0 Y54.7 F1200
M106 S255
G4 P20
G1 X29.6 Y54.7 F480
M106 S0
G4 P100
G0 X24.2 Y54.7 F1200
M106 S255
G4 P20
G1 X23.8 Y54.7 F480
M106 S0
G4 P100
G0 X15.8 Y54.7 F1200
M106 S255
G4 P20
G1 X15.3 Y54.7 F480
M106 S0
G4 P100
G0 X15.3 Y54.8 F1200
M106 S255
G4 P20
G1 X15.8 Y54.8 F480
M106 S0
G4 P100
G0 X23.8 Y54.8 F1200
M106 S255
G4 P20
G1 X24.1 Y54.8 F480
M106 S0
G4 P100
G0 X29.5 Y54.8 F1200
M106 S255
G4 P20
G1 X30.0 Y54.8 F480
M106 S0
G4 P100
G0 X32.7 Y54.8 F1200
M106 S255
G4 P20
G1 X33.4 Y54.8 F480
M106 S0
G4 P100
G0 X48.0 Y54.8 F1200
M106 S255
G4 P20
G1 X52.1 Y54.8 F480
M106 S0
G4 P100
G0 X56.0 Y54.8 F1200
M106 S255
G4 P20
G1 X56.8 Y54.8 F480
M106 S0
G4 P100
G0 X56.9 Y54.9 F1200
M106 S255
G4 P20
G1 X56.2 Y54.9 F480
M106 S0
G4 P100
G0 X51.4 Y54.9 F1200
M106 S255
G4 P20
G1 X48.0 Y54.9 F480
M106 S0
G4 P100
G0 X33.5 Y54.9 F1200
M106 S255
G4 P20
G1 X32.8 Y54.9 F480
M106 S0
G4 P100
G0 X30.0 Y54.9 F1200
M106 S255
G4 P20
G1 X29.5 Y54.9 F480
M106 S0
G4 P100
G0 X24.1 Y54.9 F1200
M106 S255
G4 P20
G1 X23.7 Y54.9 F480
M106 S0
G4 P100
G0 X15.8 Y54.9 F1200
M106 S255
G4 P20
G1 X15.4 Y54.9 F480
M106 S0
G4 P100
G0 X15.4 Y55.0 F1200
M106 S255
G4 P20
G1 X15.8 Y55.0 F480
M106 S0
G4 P100
G0 X23.7 Y55.0 F1200
M106 S255
G4 P20
G1 X24.1 Y55.0 F480
M106 S0
G4 P100
G0 X29.4 Y55.0 F1200
M106 S255
G4 P20
G1 X29.9 Y55.0 F480
M106 S0
G4 P100
G0 X33.0 Y55.0 F1200
M106 S255
G4 P20
G1 X33.7 Y55.0 F480
M106 S0
G4 P100
G0 X47.8 Y55.0 F1200
M106 S255
G4 P20
G1 X50.6 Y55.0 F480
M106 S0
G4 P100
G0 X56.4 Y55.0 F1200
M106 S255
G4 P20
G1 X57.0 Y55.0 F480
M106 S0
G4 P100
G0 X57.1 Y55.1 F1200
M106 S255
G4 P20
G1 X56.5 Y55.1 F480
M106 S0
G4 P100
G0 X50.2 Y55.1 F1200
M106 S255
G4 P20
G1 X47.7 Y55.1 F480
M106 S0
G4 P100
G0 X33.9 Y55.1 F1200
M106 S255
G4 P20
G1 X33.1 Y55.1 F480
M106 S0
G4 P100
G0 X29.9 Y55.1 F1200
M106 S255
G4 P20
G1 X29.4 Y55.1 F480
M106 S0
G4 P100
G0 X24.0 Y55.1 F1200
M106 S255
G4 P20
G1 X23.6 Y55.1 F480
M106 S0
G4 P100
G0 X15.9 Y55.1 F1200
M106 S255
G4 P20
G1 X15.4 Y55.1 F480
M106 S0
G4 P100
G0 X15.4 Y55.2 F1200
M106 S255
G4 P20
G1 X15.9 Y55.2 F480
M106 S0
G4 P100
G0 X23.6 Y55.2 F1200
M106 S255
G4 P20
G1 X24.0 Y55.2 F480
M106 S0
G4 P100
G0 X29.4 Y55.2 F1200
M106 S255
G4 P20
G1 X29.8 Y55.2 F480
M106 S0
G4 P100
G0 X33.3 Y55.2 F1200
M106 S255
G4 P20
G1 X34.1 Y55.2 F480
M106 S0
G4 P100
G0 X47.9 Y55.2 F1200
M106 S255
G4 P20
G1 X49.3 Y55.2 F480
M106 S0
G4 P100
G0 X56.6 Y55.2 F1200
M106 S255
G4 P20
G1 X57.3 Y55.2 F480
M106 S0
G4 P100
G0 X57.4 Y55.3 F1200
M106 S255
G4 P20
G1 X56.8 Y55.3 F480
M106 S0
G4 P100
G0 X34.3 Y55.3 F1200
M106 S255
G4 P20
G1 X33.4 Y55.3 F480
M106 S0
G4 P100
G0 X29.8 Y55.3 F1200
M106 S255
G4 P20
G1 X29.3 Y55.3 F480
M106 S0
G4 P100
G0 X23.9 Y55.3 F1200
M106 S255
G4 P20
G1 X23.5 Y55.3 F480
M106 S0
G4 P100
G0 X15.9 Y55.3 F1200
M106 S255
G4 P20
G1 X15.5 Y55.3 F480
M106 S0
G4 P100
G0 X15.5 Y55.4 F1200
M106 S255
G4 P20
G1 X16.0 Y55.4 F480
M106 S0
G4 P100
G0 X23.4 Y55.4 F1200
M106 S255
G4 P20
G1 X23.8 Y55.4 F480
M106 S0
G4 P100
G0 X29.2 Y55.4 F1200
M106 S255
G4 P20
G1 X29.8 Y55.4 F480
M106 S0
G4 P100
G0 X33.5 Y55.4 F1200
M106 S255
G4 P20
G1 X34.4 Y55.4 F480
M106 S0
G4 P100
G0 X56.9 Y55.4 F1200
M106 S255
G4 P20
G1 X57.4 Y55.4 F480
M106 S0
G4 P100
G0 X57.5 Y55.5 F1200
M106 S255
G4 P20
G1 X57.0 Y55.5 F480
M106 S0
G4 P100
G0 X37.2 Y55.5 F1200
M106 S255
G4 P20
G1 X37.2 Y55.5 F480
M106 S0
G4 P100
G0 X34.7 Y55.5 F1200
M106 S255
G4 P20
G1 X33.8 Y55.5 F480
M106 S0
G4 P100
G0 X29.7 Y55.5 F1200
M106 S255
G4 P20
G1 X29.2 Y55.5 F480
M106 S0
G4 P100
G0 X23.8 Y55.5 F1200
M106 S255
G4 P20
G1 X23.4 Y55.5 F480
M106 S0
G4 P100
G0 X16.0 Y55.5 F1200
M106 S255
G4 P20
G1 X15.5 Y55.5 F480
M106 S0
G4 P100
G0 X15.6 Y55.6 F1200
M106 S255
G4 P20
G1 X16.1 Y55.6 F480
M106 S0
G4 P100
G0 X23.3 Y55.6 F1200
M106 S255
G4 P20
G1 X23.7 Y55.6 F480
M106 S0
G4 P100
G0 X29.2 Y55.6 F1200
M106 S255
G4 P20
G1 X29.7 Y55.6 F480
M106 S0
G4 P100
G0 X33.9 Y55.6 F1200
M106 S255
G4 P20
G1 X34.9 Y55.6 F480
M106 S0
G4 P100
G0 X37.1 Y55.6 F1200
M106 S255
G4 P20
G1 X37.4 Y55.6 F480
M106 S0
G4 P100
G0 X57.1 Y55.6 F1200
M106 S255
G4 P20
G1 X57.6 Y55.6 F480
M106 S0
G4 P100
G0 X57.7 Y55.7 F1200
M106 S255
G4 P20
G1 X57.2 Y55.7 F480
M106 S0
G4 P100
G0 X37.2 Y55.7 F1200
M106 S255
G4 P20
G1 X36.9 Y55.7 F480
M106 S0
G4 P100
G0 X35.0 Y55.7 F1200
M106 S255
G4 P20
G1 X34.1 Y55.7 F480
M106 S0
G4 P100
G0 X29.6 Y55.7 F1200
M106 S255
G4 P20
G1 X29.1 Y55.7 F480
M106 S0
G4 P100
G0 X23.7 Y55.7 F1200
M106 S255
G4 P20
G1 X23.2 Y55.7 F480
M106 S0
G4 P100
G0 X16.1 Y55.7 F1200
M106 S255
G4 P20
G1 X15.6 Y55.7 F480
M106 S0
G4 P100
G0 X15.7 Y55.8 F1200
M106 S255
G4 P20
G1 X16.2 Y55.8 F480
M106 S0
G4 P100
G0 X23.1 Y55.8 F1200
M106 S255
G4 P20
G1 X23.6 Y55.8 F480
M106 S0
G4 P100
G0 X29.1 Y55.8 F1200
M106 S255
G4 P20
G1 X29.6 Y55.8 F480
M106 S0
G4 P100
G0 X34.3 Y55.8 F1200
M106 S255
G4 P20
G1 X35.3 Y55.8 F480
M106 S0
G4 P100
G0 X36.8 Y55.8 F1200
M106 S255
G4 P20
G1 X37.1 Y55.8 F480
M106 S0
G4 P100
G0 X57.3 Y55.8 F1200
M106 S255
G4 P20
G1 X57.8 Y55.8 F480
M106 S0
G4 P100
G0 X57.9 Y55.9 F1200
M106 S255
G4 P20
G1 X57.4 Y55.9 F480
M106 S0
G4 P100
G0 X37.0 Y55.9 F1200
M106 S255
G4 P20
G1 X36.7 Y55.9 F480
M106 S0
G4 P100
G0 X35.4 Y55.9 F1200
M106 S255
G4 P20
G1 X34.5 Y55.9 F480
M106 S0
G4 P100
G0 X29.6 Y55.9 F1200
M106 S255
G4 P20
G1 X29.0 Y55.9 F480
M106 S0
G4 P100
G0 X23.5 Y55.9 F1200
M106 S255
G4 P20
G1 X23.1 Y55.9 F480
M106 S0
G4 P100
G0 X16.2 Y55.9 F1200
M106 S255
G4 P20
G1 X15.7 Y55.9 F480
M106 S0
G4 P100
G0 X15.7 Y56.0 F1200
M106 S255
G4 P20
G1 X16.3 Y56.0 F480
M106 S0
G4 P100
G0 X23.0 Y56.0 F1200
M106 S255
G4 P20
G1 X23.4 Y56.0 F480
M106 S0
G4 P100
G0 X29.0 Y56.0 F1200
M106 S255
G4 P20
G1 X29.5 Y56.0 F480
M106 S0
G4 P100
G0 X34.7 Y56.0 F1200
M106 S255
G4 P20
G1 X35.6 Y56.0 F480
M106 S0
G4 P100
G0 X36.6 Y56.0 F1200
M106 S255
G4 P20
G1 X36.9 Y56.0 F480
M106 S0
G4 P100
G0 X57.5 Y56.0 F1200
M106 S255
G4 P20
G1 X58.0 Y56.0 F480
M106 S0
G4 P100
G0 X58.0 Y56.1 F1200
M106 S255
G4 P20
G1 X57.5 Y56.1 F480
M106 S0
G4 P100
G0 X36.8 Y56.1 F1200
M106 S255
G4 P20
G1 X36.5 Y56.1 F480
M106 S0
G4 P100
G0 X35.8 Y56.1 F1200
M106 S255
G4 P20
G1 X34.9 Y56.1 F480
M106 S0
G4 P100
G0 X29.5 Y56.1 F1200
M106 S255
G4 P20
G1 X28.9 Y56.1 F480
M106 S0
G4 P100
G0 X23.3 Y56.1 F1200
M106 S255
G4 P20
G1 X22.9 Y56.1 F480
M106 S0
G4 P100
G0 X16.3 Y56.1 F1200
M106 S255
G4 P20
G1 X15.8 Y56.1 F480
M106 S0
G4 P100
G0 X15.9 Y56.2 F1200
M106 S255
G4 P20
G1 X16.4 Y56.2 F480
M106 S0
G4 P100
G0 X22.8 Y56.2 F1200
M106 S255
G4 P20
G1 X23.3 Y56.2 F480
M106 S0
G4 P100
G0 X28.9 Y56.2 F1200
M106 S255
G4 P20
G1 X29.5 Y56.2 F480
M106 S0
G4 P100
G0 X35.1 Y56.2 F1200
M106 S255
G4 P20
G1 X36.0 Y56.2 F480
M106 S0
G4 P100
G0 X36.3 Y56.2 F1200
M106 S255
G4 P20
G1 X36.8 Y56.2 F480
M106 S0
G4 P100
G0 X57.6 Y56.2 F1200
M106 S255
G4 P20
G1 X58.1 Y56.2 F480
M106 S0
G4 P100
G0 X58.2 Y56.3 F1200
M106 S255
G4 P20
G1 X57.7 Y56.3 F480
M106 S0
G4 P100
G0 X37.5 Y56.3 F1200
M106 S255
G4 P20
G1 X35.3 Y56.3 F480
M106 S0
G4 P100
G0 X29.4 Y56.3 F1200
M106 S255
G4 P20
G1 X28.9 Y56.3 F480
M106 S0
G4 P100
G0 X23.2 Y56.3 F1200
M106 S255
G4 P20
G1 X22.8 Y56.3 F480
M106 S0
G4 P100
G0 X16.4 Y56.3 F1200
M106 S255
G4 P20
G1 X15.9 Y56.3 F480
M106 S0
G4 P100
G0 X15.9 Y56.4 F1200
M106 S255
G4 P20
G1 X16.5 Y56.4 F480
M106 S0
G4 P100
G0 X22.7 Y56.4 F1200
M106 S255
G4 P20
G1 X23.1 Y56.4 F480
M106 S0
G4 P100
G0 X28.8 Y56.4 F1200
M106 S255
G4 P20
G1 X29.4 Y56.4 F480
M106 S0
G4 P100
G0 X35.6 Y56.4 F1200
M106 S255
G4 P20
G1 X37.7 Y56.4 F480
M106 S0
G4 P100
G0 X57.8 Y56.4 F1200
M106 S255
G4 P20
G1 X58.2 Y56.4 F480
M106 S0
G4 P100
G0 X58.3 Y56.5 F1200
M106 S255
G4 P20
G1 X57.8 Y56.5 F480
M106 S0
G4 P100
G0 X43.9 Y56.5 F1200
M106 S255
G4 P20
G1 X43.2 Y56.5 F480
M106 S0
G4 P100
G0 X37.7 Y56.5 F1200
M106 S255
G4 P20
G1 X35.7 Y56.5 F480
M106 S0
G4 P100
G0 X29.3 Y56.5 F1200
M106 S255
G4 P20
G1 X28.7 Y56.5 F480
M106 S0
G4 P100
G0 X23.0 Y56.5 F1200
M106 S255
G4 P20
G1 X22.5 Y56.5 F480
M106 S0
G4 P100
G0 X16.6 Y56.5 F1200
M106 S255
G4 P20
G1 X16.0 Y56.5 F480
M106 S0
G4 P100
G0 X16.0 Y56.6 F1200
M106 S255
G4 P20
G1 X16.7 Y56.6 F480
M106 S0
G4 P100
G0 X22.4 Y56.6 F1200
M106 S255
G4 P20
G1 X22.9 Y56.6 F480
M106 S0
G4 P100
G0 X28.7 Y56.6 F1200
M106 S255
G4 P20
G1 X29.3 Y56.6 F480
M106 S0
G4 P100
G0 X35.8 Y56.6 F1200
M106 S255
G4 P20
G1 X36.9 Y56.6 F480
M106 S0
G4 P100
G0 X37.6 Y56.6 F1200
M106 S255
G4 P20
G1 X37.8 Y56.6 F480
M106 S0
G4 P100
G0 X42.7 Y56.6 F1200
M106 S255
G4 P20
G1 X44.2 Y56.6 F480
M106 S0
G4 P100
G0 X57.9 Y56.6 F1200
M106 S255
G4 P20
G1 X58.4 Y56.6 F480
M106 S0
G4 P100
G0 X58.4 Y56.7 F1200
M106 S255
G4 P20
G1 X57.9 Y56.7 F480
M106 S0
G4 P100
G0 X44.3 Y56.7 F1200
M106 S255
G4 P20
G1 X42.5 Y56.7 F480
M106 S0
G4 P100
G0 X37.8 Y56.7 F1200
M106 S255
G4 P20
G1 X37.6 Y56.7 F480
M106 S0
G4 P100
G0 X36.8 Y56.7 F1200
M106 S255
G4 P20
G1 X35.8 Y56.7 F480
M106 S0
G4 P100
G0 X29.2 Y56.7 F1200
M106 S255
G4 P20
G1 X28.6 Y56.7 F480
M106 S0
G4 P100
G0 X22.8 Y56.7 F1200
M106 S255
G4 P20
G1 X22.3 Y56.7 F480
M106 S0
G4 P100
G0 X16.7 Y56.7 F1200
M106 S255
G4 P20
G1 X16.1 Y56.7 F480
M106 S0
G4 P100
G0 X16.2 Y56.8 F1200
M106 S255
G4 P20
G1 X16.9 Y56.8 F480
M106 S0
G4 P100
G0 X22.2 Y56.8 F1200
M106 S255
G4 P20
G1 X22.7 Y56.8 F480
M106 S0
G4 P100
G0 X28.6 Y56.8 F1200
M106 S255
G4 P20
G1 X29.1 Y56.8 F480
M106 S0
G4 P100
G0 X35.7 Y56.8 F1200
M106 S255
G4 P20
G1 X36.6 Y56.8 F480
M106 S0
G4 P100
G0 X37.7 Y56.8 F1200
M106 S255
G4 P20
G1 X37.8 Y56.8 F480
M106 S0
G4 P100
G0 X42.2 Y56.8 F1200
M106 S255
G4 P20
G1 X43.3 Y56.8 F480
M106 S0
G4 P100
G0 X44.0 Y56.8 F1200
M106 S255
G4 P20
G1 X44.4 Y56.8 F480
M106 S0
G4 P100
G0 X58.0 Y56.8 F1200
M106 S255
G4 P20
G1 X58.5 Y56.8 F480
M106 S0
G4 P100
G0 X58.5 Y56.9 F1200
M106 S255
G4 P20
G1 X58.1 Y56.9 F480
M106 S0
G4 P100
G0 X44.5 Y56.9 F1200
M106 S255
G4 P20
G1 X44.2 Y56.9 F480
M106 S0
G4 P100
G0 X42.9 Y56.9 F1200
M106 S255
G4 P20
G1 X42.0 Y56.9 F480
M106 S0
G4 P100
G0 X37.8 Y56.9 F1200
M106 S255
G4 P20
G1 X37.7 Y56.9 F480
M106 S0
G4 P100
G0 X36.4 Y56.9 F1200
M106 S255
G4 P20
G1 X35.6 Y56.9 F480
M106 S0
G4 P100
G0 X29.1 Y56.9 F1200
M106 S255
G4 P20
G1 X28.5 Y56.9 F480
M106 S0
G4 P100
G0 X22.6 Y56.9 F1200
M106 S255
G4 P20
G1 X22.1 Y56.9 F480
M106 S0
G4 P100
G0 X17.0 Y56.9 F1200
M106 S255
G4 P20
G1 X16.2 Y56.9 F480
M106 S0
G4 P100
G0 X16.2 Y57.0 F1200
M106 S255
G4 P20
G1 X17.1 Y57.0 F480
M106 S0
G4 P100
G0 X22.0 Y57.0 F1200
M106 S255
G4 P20
G1 X22.5 Y57.0 F480
M106 S0
G4 P100
G0 X28.4 Y57.0 F1200
M106 S255
G4 P20
G1 X29.0 Y57.0 F480
M106 S0
G4 P100
G0 X35.6 Y57.0 F1200
M106 S255
G4 P20
G1 X36.3 Y57.0 F480
M106 S0
G4 P100
G0 X37.7 Y57.0 F1200
M106 S255
G4 P20
G1 X37.8 Y57.0 F480
M106 S0
G4 P100
G0 X41.9 Y57.0 F1200
M106 S255
G4 P20
G1 X42.7 Y57.0 F480
M106 S0
G4 P100
G0 X44.2 Y57.0 F1200
M106 S255
G4 P20
G1 X44.6 Y57.0 F480
M106 S0
G4 P100
G0 X58.1 Y57.0 F1200
M106 S255
G4 P20
G1 X58.5 Y57.0 F480
M106 S0
G4 P100
G0 X58.6 Y57.1 F1200
M106 S255
G4 P20
G1 X58.2 Y57.1 F480
M106 S0
G4 P100
G0 X44.6 Y57.1 F1200
M106 S255
G4 P20
G1 X44.3 Y57.1 F480
M106 S0
G4 P100
G0 X42.4 Y57.1 F1200
M106 S255
G4 P20
G1 X41.7 Y57.1 F480
M106 S0
G4 P100
G0 X37.8 Y57.1 F1200
M106 S255
G4 P20
G1 X37.6 Y57.1 F480
M106 S0
G4 P100
G0 X36.2 Y57.1 F1200
M106 S255
G4 P20
G1 X35.5 Y57.1 F480
M106 S0
G4 P100
G0 X29.0 Y57.1 F1200
M106 S255
G4 P20
G1 X28.4 Y57.1 F480
M106 S0
G4 P100
G0 X22.4 Y57.1 F1200
M106 S255
G4 P20
G1 X21.8 Y57.1 F480
M106 S0
G4 P100
G0 X17.2 Y57.1 F1200
M106 S255
G4 P20
G1 X16.3 Y57.1 F480
M106 S0
G4 P100
G0 X16.4 Y57.2 F1200
M106 S255
G4 P20
G1 X17.4 Y57.2 F480
M106 S0
G4 P100
G0 X21.6 Y57.2 F1200
M106 S255
G4 P20
G1 X22.3 Y57.2 F480
M106 S0
G4 P100
G0 X28.3 Y57.2 F1200
M106 S255
G4 P20
G1 X28.9 Y57.2 F480
M106 S0
G4 P100
G0 X35.4 Y57.2 F1200
M106 S255
G4 P20
G1 X36.1 Y57.2 F480
M106 S0
G4 P100
G0 X37.6 Y57.2 F1200
M106 S255
G4 P20
G1 X37.8 Y57.2 F480
M106 S0
G4 P100
G0 X41.6 Y57.2 F1200
M106 S255
G4 P20
G1 X42.2 Y57.2 F480
M106 S0
G4 P100
G0 X44.3 Y57.2 F1200
M106 S255
G4 P20
G1 X44.6 Y57.2 F480
M106 S0
G4 P100
G0 X58.2 Y57.2 F1200
M106 S255
G4 P20
G1 X58.7 Y57.2 F480
M106 S0
G4 P100
G0 X58.7 Y57.3 F1200
M106 S255
G4 P20
G1 X58.3 Y57.3 F480
M106 S0
G4 P100
G0 X44.7 Y57.3 F1200
M106 S255
G4 P20
G1 X44.3 Y57.3 F480
M106 S0
G4 P100
G0 X42.1 Y57.3 F1200
M106 S255
G4 P20
G1 X41.4 Y57.3 F480
M106 S0
G4 P100
G0 X37.7 Y57.3 F1200
M106 S255
G4 P20
G1 X37.5 Y57.3 F480
M106 S0
G4 P100
G0 X36.0 Y57.3 F1200
M106 S255
G4 P20
G1 X35.3 Y57.3 F480
M106 S0
G4 P100
G0 X28.8 Y57.3 F1200
M106 S255
G4 P20
G1 X28.2 Y57.3 F480
M106 S0
G4 P100
G0 X22.2 Y57.3 F1200
M106 S255
G4 P20
G1 X21.5 Y57.3 F480
M106 S0
G4 P100
G0 X17.5 Y57.3 F1200
M106 S255
G4 P20
G1 X16.4 Y57.3 F480
M106 S0
G4 P100
G0 X16.5 Y57.4 F1200
M106 S255
G4 P20
G1 X17.8 Y57.4 F480
M106 S0
G4 P100
G0 X21.2 Y57.4 F1200
M106 S255
G4 P20
G1 X22.0 Y57.4 F480
M106 S0
G4 P100
G0 X28.2 Y57.4 F1200
M106 S255
G4 P20
G1 X28.8 Y57.4 F480
M106 S0
G4 P100
G0 X35.2 Y57.4 F1200
M106 S255
G4 P20
G1 X35.9 Y57.4 F480
M106 S0
G4 P100
G0 X37.4 Y57.4 F1200
M106 S255
G4 P20
G1 X37.7 Y57.4 F480
M106 S0
G4 P100
G0 X41.3 Y57.4 F1200
M106 S255
G4 P20
G1 X41.8 Y57.4 F480
M106 S0
G4 P100
G0 X44.4 Y57.4 F1200
M106 S255
G4 P20
G1 X44.7 Y57.4 F480
M106 S0
G4 P100
G0 X58.3 Y57.4 F1200
M106 S255
G4 P20
G1 X58.7 Y57.4 F480
M106 S0
G4 P100
G0 X58.8 Y57.5 F1200
M106 S255
G4 P20
G1 X58.3 Y57.5 F480
M106 S0
G4 P100
G0 X44.7 Y57.5 F1200
M106 S255
G4 P20
G1 X44.4 Y57.5 F480
M106 S0
G4 P100
G0 X41.7 Y57.5 F1200
M106 S255
G4 P20
G1 X41.2 Y57.5 F480
M106 S0
G4 P100
G0 X37.6 Y57.5 F1200
M106 S255
G4 P20
G1 X37.4 Y57.5 F480
M106 S0
G4 P100
G0 X35.8 Y57.5 F1200
M106 S255
G4 P20
G1 X35.1 Y57.5 F480
M106 S0
G4 P100
G0 X28.7 Y57.5 F1200
M106 S255
G4 P20
G1 X28.1 Y57.5 F480
M106 S0
G4 P100
G0 X21.9 Y57.5 F1200
M106 S255
G4 P20
G1 X21.0 Y57.5 F480
M106 S0
G4 P100
G0 X17.9 Y57.5 F1200
M106 S255
G4 P20
G1 X16.5 Y57.5 F480
M106 S0
G4 P100
G0 X16.6 Y57.6 F1200
M106 S255
G4 P20
G1 X18.2 Y57.6 F480
M106 S0
G4 P100
G0 X20.5 Y57.6 F1200
M106 S255
G4 P20
G1 X21.7 Y57.6 F480
M106 S0
G4 P100
G0 X28.0 Y57.6 F1200
M106 S255
G4 P20
G1 X28.7 Y57.6 F480
M106 S0
G4 P100
G0 X35.1 Y57.6 F1200
M106 S255
G4 P20
G1 X35.7 Y57.6 F480
M106 S0
G4 P100
G0 X37.3 Y57.6 F1200
M106 S255
G4 P20
G1 X37.5 Y57.6 F480
M106 S0
G4 P100
G0 X41.0 Y57.6 F1200
M106 S255
G4 P20
G1 X41.6 Y57.6 F480
M106 S0
G4 P100
G0 X44.4 Y57.6 F1200
M106 S255
G4 P20
G1 X44.7 Y57.6 F480
M106 S0
G4 P100
G0 X58.4 Y57.6 F1200
M106 S255
G4 P20
G1 X59.3 Y57.6 F480
M106 S0
G4 P100
G0 X59.7 Y57.7 F1200
M106 S255
G4 P20
G1 X58.4 Y57.7 F480
M106 S0
G4 P100
G0 X44.7 Y57.7 F1200
M106 S255
G4 P20
G1 X44.4 Y57.7 F480
M106 S0
G4 P100
G0 X41.5 Y57.7 F1200
M106 S255
G4 P20
G1 X40.9 Y57.7 F480
M106 S0
G4 P100
G0 X37.5 Y57.7 F1200
M106 S255
G4 P20
G1 X37.3 Y57.7 F480
M106 S0
G4 P100
G0 X35.6 Y57.7 F1200
M106 S255
G4 P20
G1 X35.0 Y57.7 F480
M106 S0
G4 P100
G0 X28.6 Y57.7 F1200
M106 S255
G4 P20
G1 X27.9 Y57.7 F480
M106 S0
G4 P100
G0 X21.5 Y57.7 F1200
M106 S255
G4 P20
G1 X19.9 Y57.7 F480
M106 S0
G4 P100
G0 X18.9 Y57.7 F1200
M106 S255
G4 P20
G1 X17.5 Y57.7 F480
M106 S0
G4 P100
G0 X17.3 Y57.7 F1200
M106 S255
G4 P20
G1 X16.7 Y57.7 F480
M106 S0
G4 P100
G0 X16.7 Y57.8 F1200
M106 S255
G4 P20
G1 X17.4 Y57.8 F480
M106 S0
G4 P100
G0 X17.8 Y57.8 F1200
M106 S255
G4 P20
G1 X21.3 Y57.8 F480
M106 S0
G4 P100
G0 X27.9 Y57.8 F1200
M106 S255
G4 P20
G1 X28.5 Y57.8 F480
M106 S0
G4 P100
G0 X34.9 Y57.8 F1200
M106 S255
G4 P20
G1 X35.5 Y57.8 F480
M106 S0
G4 P100
G0 X37.2 Y57.8 F1200
M106 S255
G4 P20
G1 X37.4 Y57.8 F480
M106 S0
G4 P100
G0 X40.8 Y57.8 F1200
M106 S255
G4 P20
G1 X41.4 Y57.8 F480
M106 S0
G4 P100
G0 X44.3 Y57.8 F1200
M106 S255
G4 P20
G1 X44.7 Y57.8 F480
M106 S0
G4 P100
G0 X58.5 Y57.8 F1200
M106 S255
G4 P20
G1 X60.2 Y57.8 F480
M106 S0
G4 P100
G0 X60.5 Y57.9 F1200
M106 S255
G4 P20
G1 X58.5 Y57.9 F480
M106 S0
G4 P100
G0 X44.7 Y57.9 F1200
M106 S255
G4 P20
G1 X44.3 Y57.9 F480
M106 S0
G4 P100
G0 X41.2 Y57.9 F1200
M106 S255
G4 P20
G1 X40.7 Y57.9 F480
M106 S0
G4 P100
G0 X37.3 Y57.9 F1200
M106 S255
G4 P20
G1 X37.1 Y57.9 F480
M106 S0
G4 P100
G0 X35.4 Y57.9 F1200
M106 S255
G4 P20
G1 X34.8 Y57.9 F480
M106 S0
G4 P100
G0 X28.4 Y57.9 F1200
M106 S255
G4 P20
G1 X27.8 Y57.9 F480
M106 S0
G4 P100
G0 X20.9 Y57.9 F1200
M106 S255
G4 P20
G1 X18.1 Y57.9 F480
M106 S0
G4 P100
G0 X17.4 Y57.9 F1200
M106 S255
G4 P20
G1 X16.8 Y57.9 F480
M106 S0
G4 P100
G0 X16.9 Y58.0 F1200
M106 S255
G4 P20
G1 X17.4 Y58.0 F480
M106 S0
G4 P100
G0 X18.2 Y58.0 F1200
M106 S255
G4 P20
G1 X20.7 Y58.0 F480
M106 S0
G4 P100
G0 X27.7 Y58.0 F1200
M106 S255
G4 P20
G1 X28.4 Y58.0 F480
M106 S0
G4 P100
G0 X34.7 Y58.0 F1200
M106 S255
G4 P20
G1 X35.4 Y58.0 F480
M106 S0
G4 P100
G0 X37.1 Y58.0 F1200
M106 S255
G4 P20
G1 X37.3 Y58.0 F480
M106 S0
G4 P100
G0 X40.6 Y58.0 F1200
M106 S255
G4 P20
G1 X41.1 Y58.0 F480
M106 S0
G4 P100
G0 X44.3 Y58.0 F1200
M106 S255
G4 P20
G1 X44.6 Y58.0 F480
M106 S0
G4 P100
G0 X58.5 Y58.0 F1200
M106 S255
G4 P20
G1 X60.7 Y58.0 F480
M106 S0
G4 P100
G0 X69.7 Y58.1 F1200
M106 S255
G4 P20
G1 X67.5 Y58.1 F480
M106 S0
G4 P100
G0 X61.0 Y58.1 F1200
M106 S255
G4 P20
G1 X58.5 Y58.1 F480
M106 S0
G4 P100
G0 X44.6 Y58.1 F1200
M106 S255
G4 P20
G1 X44.3 Y58.1 F480
M106 S0
G4 P100
G0 X41.0 Y58.1 F1200
M106 S255
G4 P20
G1 X40.5 Y58.1 F480
M106 S0
G4 P100
G0 X37.2 Y58.1 F1200
M106 S255
G4 P20
G1 X37.0 Y58.1 F480
M106 S0
G4 P100
G0 X35.3 Y58.1 F1200
M106 S255
G4 P20
G1 X34.7 Y58.1 F480
M106 S0
G4 P100
G0 X28.3 Y58.1 F1200
M106 S255
G4 P20
G1 X27.6 Y58.1 F480
M106 S0
G4 P100
G0 X20.1 Y58.1 F1200
M106 S255
G4 P20
G1 X18.9 Y58.1 F480
M106 S0
G4 P100
G0 X17.5 Y58.1 F1200
M106 S255
G4 P20
G1 X17.0 Y58.1 F480
M106 S0
G4 P100
G0 X17.0 Y58.2 F1200
M106 S255
G4 P20
G1 X17.7 Y58.2 F480
M106 S0
G4 P100
G0 X27.5 Y58.2 F1200
M106 S255
G4 P20
G1 X28.2 Y58.2 F480
M106 S0
G4 P100
G0 X34.6 Y58.2 F1200
M106 S255
G4 P20
G1 X35.2 Y58.2 F480
M106 S0
G4 P100
G0 X36.9 Y58.2 F1200
M106 S255
G4 P20
G1 X37.2 Y58.2 F480
M106 S0
G4 P100
G0 X40.3 Y58.2 F1200
M106 S255
G4 P20
G1 X40.8 Y58.2 F480
M106 S0
G4 P100
G0 X44.2 Y58.2 F1200
M106 S255
G4 P20
G1 X44.6 Y58.2 F480
M106 S0
G4 P100
G0 X58.5 Y58.2 F1200
M106 S255
G4 P20
G1 X61.2 Y58.2 F480
M106 S0
G4 P100
G0 X65.9 Y58.2 F1200
M106 S255
G4 P20
G1 X70.5 Y58.2 F480
M106 S0
G4 P100
G0 X70.8 Y58.3 F1200
M106 S255
G4 P20
G1 X65.2 Y58.3 F480
M106 S0
G4 P100
G0 X61.4 Y58.3 F1200
M106 S255
G4 P20
G1 X58.5 Y58.3 F480
M106 S0
G4 P100
G0 X44.6 Y58.3 F1200
M106 S255
G4 P20
G1 X44.2 Y58.3 F480
M106 S0
G4 P100
G0 X40.7 Y58.3 F1200
M106 S255
G4 P20
G1 X40.3 Y58.3 F480
M106 S0
G4 P100
G0 X37.1 Y58.3 F1200
M106 S255
G4 P20
G1 X36.8 Y58.3 F480
M106 S0
G4 P100
G0 X35.1 Y58.3 F1200
M106 S255
G4 P20
G1 X34.5 Y58.3 F480
M106 S0
G4 P100
G0 X28.1 Y58.3 F1200
M106 S255
G4 P20
G1 X27.4 Y58.3 F480
M106 S0
G4 P100
G0 X17.7 Y58.3 F1200
M106 S255
G4 P20
G1 X17.1 Y58.3 F480
M106 S0
G4 P100
G0 X17.2 Y58.4 F1200
M106 S255
G4 P20
G1 X17.8 Y58.4 F480
M106 S0
G4 P100
G0 X27.3 Y58.4 F1200
M106 S255
G4 P20
G1 X28.0 Y58.4 F480
M106 S0
G4 P100
G0 X34.5 Y58.4 F1200
M106 S255
G4 P20
G1 X35.0 Y58.4 F480
M106 S0
G4 P100
G0 X36.8 Y58.4 F1200
M106 S255
G4 P20
G1 X37.0 Y58.4 F480
M106 S0
G4 P100
G0 X40.1 Y58.4 F1200
M106 S255
G4 P20
G1 X40.6 Y58.4 F480
M106 S0
G4 P100
G0 X44.2 Y58.4 F1200
M106 S255
G4 P20
G1 X44.5 Y58.4 F480
M106 S0
G4 P100
G0 X58.5 Y58.4 F1200
M106 S255
G4 P20
G1 X61.6 Y58.4 F480
M106 S0
G4 P100
G0 X64.4 Y58.4 F1200
M106 S255
G4 P20
G1 X71.3 Y58.4 F480
M106 S0
G4 P100
G0 X71.6 Y58.5 F1200
M106 S255
G4 P20
G1 X63.7 Y58.5 F480
M106 S0
G4 P100
G0 X61.8 Y58.5 F1200
M106 S255
G4 P20
G1 X58.6 Y58.5 F480
M106 S0
G4 P100
G0 X44.5 Y58.5 F1200
M106 S255
G4 P20
G1 X44.1 Y58.5 F480
M106 S0
G4 P100
G0 X40.5 Y58.5 F1200
M106 S255
G4 P20
G1 X40.1 Y58.5 F480
M106 S0
G4 P100
G0 X37.0 Y58.5 F1200
M106 S255
G4 P20
G1 X36.7 Y58.5 F480
M106 S0
G4 P100
G0 X34.9 Y58.5 F1200
M106 S255
G4 P20
G1 X34.4 Y58.5 F480
M106 S0
G4 P100
G0 X28.0 Y58.5 F1200
M106 S255
G4 P20
G1 X27.3 Y58.5 F480
M106 S0
G4 P100
G0 X17.9 Y58.5 F1200
M106 S255
G4 P20
G1 X17.3 Y58.5 F480
M106 S0
G4 P100
G0 X17.3 Y58.6 F1200
M106 S255
G4 P20
G1 X18.0 Y58.6 F480
M106 S0
G4 P100
G0 X27.1 Y58.6 F1200
M106 S255
G4 P20
G1 X27.9 Y58.6 F480
M106 S0
G4 P100
G0 X34.3 Y58.6 F1200
M106 S255
G4 P20
G1 X34.9 Y58.6 F480
M106 S0
G4 P100
G0 X36.6 Y58.6 F1200
M106 S255
G4 P20
G1 X36.9 Y58.6 F480
M106 S0
G4 P100
G0 X40.0 Y58.6 F1200
M106 S255
G4 P20
G1 X40.4 Y58.6 F480
M106 S0
G4 P100
G0 X44.1 Y58.6 F1200
M106 S255
G4 P20
G1 X44.4 Y58.6 F480
M106 S0
G4 P100
G0 X58.6 Y58.6 F1200
M106 S255
G4 P20
G1 X62.0 Y58.6 F480
M106 S0
G4 P100
G0 X63.2 Y58.6 F1200
M106 S255
G4 P20
G1 X71.8 Y58.6 F480
M106 S0
G4 P100
G0 X72.1 Y58.7 F1200
M106 S255
G4 P20
G1 X69.7 Y58.7 F480
M106 S0
G4 P100
G0 X66.0 Y58.7 F1200
M106 S255
G4 P20
G1 X58.6 Y58.7 F480
M106 S0
G4 P100
G0 X44.4 Y58.7 F1200
M106 S255
G4 P20
G1 X44.0 Y58.7 F480
M106 S0
G4 P100
G0 X40.3 Y58.7 F1200
M106 S255
G4 P20
G1 X39.8 Y58.7 F480
M106 S0
G4 P100
G0 X36.8 Y58.7 F1200
M106 S255
G4 P20
G1 X36.5 Y58.7 F480
M106 S0
G4 P100
G0 X34.9 Y58.7 F1200
M106 S255
G4 P20
G1 X34.3 Y58.7 F480
M106 S0
G4 P100
G0 X27.8 Y58.7 F1200
M106 S255
G4 P20
G1 X27.0 Y58.7 F480
M106 S0
G4 P100
G0 X18.1 Y58.7 F1200
M106 S255
G4 P20
G1 X17.4 Y58.7 F480
M106 S0
G4 P100
G0 X17.5 Y58.8 F1200
M106 S255
G4 P20
G1 X18.2 Y58.8 F480
M106 S0
G4 P100
G0 X26.9 Y58.8 F1200
M106 S255
G4 P20
G1 X27.7 Y58.8 F480
M106 S0
G4 P100
G0 X34.2 Y58.8 F1200
M106 S255
G4 P20
G1 X34.8 Y58.8 F480
M106 S0
G4 P100
G0 X36.5 Y58.8 F1200
M106 S255
G4 P20
G1 X36.7 Y58.8 F480
M106 S0
G4 P100
G0 X39.8 Y58.8 F1200
M106 S255
G4 P20
G1 X40.2 Y58.8 F480
M106 S0
G4 P100
G0 X44.0 Y58.8 F1200
M106 S255
G4 P20
G1 X44.4 Y58.8 F480
M106 S0
G4 P100
G0 X58.6 Y58.8 F1200
M106 S255
G4 P20
G1 X65.2 Y58.8 F480
M106 S0
G4 P100
G0 X70.2 Y58.8 F1200
M106 S255
G4 P20
G1 X72.3 Y58.8 F480
M106 S0
G4 P100
G0 X72.5 Y58.9 F1200
M106 S255
G4 P20
G1 X70.8 Y58.9 F480
M106 S0
G4 P100
G0 X64.1 Y58.9 F1200
M106 S255
G4 P20
G1 X58.6 Y58.9 F480
M106 S0
G4 P100
G0 X44.3 Y58.9 F1200
M106 S255
G4 P20
G1 X43.9 Y58.9 F480
M106 S0
G4 P100
G0 X40.1 Y58.9 F1200
M106 S255
G4 P20
G1 X39.7 Y58.9 F480
M106 S0
G4 P100
G0 X36.7 Y58.9 F1200
M106 S255
G4 P20
G1 X36.4 Y58.9 F480
M106 S0
G4 P100
G0 X34.7 Y58.9 F1200
M106 S255
G4 P20
G1 X34.2 Y58.9 F480
M106 S0
G4 P100
G0 X27.6 Y58.9 F1200
M106 S255
G4 P20
G1 X26.8 Y58.9 F480
M106 S0
G4 P100
G0 X18.3 Y58.9 F1200
M106 S255
G4 P20
G1 X17.6 Y58.9 F480
M106 S0
G4 P100
G0 X17.7 Y59.0 F1200
M106 S255
G4 P20
G1 X18.4 Y59.0 F480
M106 S0
G4 P100
G0 X26.7 Y59.0 F1200
M106 S255
G4 P20
G1 X27.5 Y59.0 F480
M106 S0
G4 P100
G0 X34.1 Y59.0 F1200
M106 S255
G4 P20
G1 X34.7 Y59.0 F480
M106 S0
G4 P100
G0 X36.3 Y59.0 F1200
M106 S255
G4 P20
G1 X36.5 Y59.0 F480
M106 S0
G4 P100
G0 X39.6 Y59.0 F1200
M106 S255
G4 P20
G1 X40.0 Y59.0 F480
M106 S0
G4 P100
G0 X43.9 Y59.0 F1200
M106 S255
G4 P20
G1 X44.3 Y59.0 F480
M106 S0
G4 P100
G0 X58.6 Y59.0 F1200
M106 S255
G4 P20
G1 X63.2 Y59.0 F480
M106 S0
G4 P100
G0 X71.2 Y59.0 F1200
M106 S255
G4 P20
G1 X72.7 Y59.0 F480
M106 S0
G4 P100
G0 X72.9 Y59.1 F1200
M106 S255
G4 P20
G1 X71.5 Y59.1 F480
M106 S0
G4 P100
G0 X62.8 Y59.1 F1200
M106 S255
G4 P20
G1 X58.6 Y59.1 F480
M106 S0
G4 P100
G0 X44.2 Y59.1 F1200
M106 S255
G4 P20
G1 X43.8 Y59.1 F480
M106 S0
G4 P100
G0 X40.0 Y59.1 F1200
M106 S255
G4 P20
G1 X39.5 Y59.1 F480
M106 S0
G4 P100
G0 X36.5 Y59.1 F1200
M106 S255
G4 P20
G1 X36.2 Y59.1 F480
M106 S0
G4 P100
G0 X34.7 Y59.1 F1200
M106 S255
G4 P20
G1 X34.0 Y59.1 F480
M106 S0
G4 P100
G0 X27.4 Y59.1 F1200
M106 S255
G4 P20
G1 X26.6 Y59.1 F480
M106 S0
G4 P100
G0 X18.6 Y59.1 F1200
M106 S255
G4 P20
G1 X17.8 Y59.1 F480
M106 S0
G4 P100
G0 X17.9 Y59.2 F1200
M106 S255
G4 P20
G1 X18.7 Y59.2 F480
M106 S0
G4 P100
G0 X26.4 Y59.2 F1200
M106 S255
G4 P20
G1 X27.3 Y59.2 F480
M106 S0
G4 P100
G0 X34.0 Y59.2 F1200
M106 S255
G4 P20
G1 X34.6 Y59.2 F480
M106 S0
G4 P100
G0 X36.1 Y59.2 F1200
M106 S255
G4 P20
G1 X36.4 Y59.2 F480
M106 S0
G4 P100
G0 X39.5 Y59.2 F1200
M106 S255
G4 P20
G1 X39.9 Y59.2 F480
M106 S0
G4 P100
G0 X43.7 Y59.2 F1200
M106 S255
G4 P20
G1 X44.2 Y59.2 F480
M106 S0
G4 P100
G0 X58.6 Y59.2 F1200
M106 S255
G4 P20
G1 X62.8 Y59.2 F480
M106 S0
G4 P100
G0 X71.8 Y59.2 F1200
M106 S255
G4 P20
G1 X73.1 Y59.2 F480
M106 S0
G4 P100
G0 X73.3 Y59.3 F1200
M106 S255
G4 P20
G1 X72.0 Y59.3 F480
M106 S0
G4 P100
G0 X62.7 Y59.3 F1200
M106 S255
G4 P20
G1 X58.6 Y59.3 F480
M106 S0
G4 P100
G0 X44.1 Y59.3 F1200
M106 S255
G4 P20
G1 X43.7 Y59.3 F480
M106 S0
G4 P100
G0 X39.8 Y59.3 F1200
M106 S255
G4 P20
G1 X39.4 Y59.3 F480
M106 S0
G4 P100
G0 X36.4 Y59.3 F1200
M106 S255
G4 P20
G1 X36.0 Y59.3 F480
M106 S0
G4 P100
G0 X34.6 Y59.3 F1200
M106 S255
G4 P20
G1 X33.9 Y59.3 F480
M106 S0
G4 P100
G0 X27.2 Y59.3 F1200
M106 S255
G4 P20
G1 X26.3 Y59.3 F480
M106 S0
G4 P100
G0 X18.8 Y59.3 F1200
M106 S255
G4 P20
G1 X18.0 Y59.3 F480
M106 S0
G4 P100
G0 X18.1 Y59.4 F1200
M106 S255
G4 P20
G1 X18.9 Y59.4 F480
M106 S0
G4 P100
G0 X26.2 Y59.4 F1200
M106 S255
G4 P20
G1 X27.0 Y59.4 F480
M106 S0
G4 P100
G0 X33.8 Y59.4 F1200
M106 S255
G4 P20
G1 X34.6 Y59.4 F480
M106 S0
G4 P100
G0 X36.0 Y59.4 F1200
M106 S255
G4 P20
G1 X36.2 Y59.4 F480
M106 S0
G4 P100
G0 X39.3 Y59.4 F1200
M106 S255
G4 P20
G1 X39.7 Y59.4 F480
M106 S0
G4 P100
G0 X43.6 Y59.4 F1200
M106 S255
G4 P20
G1 X44.0 Y59.4 F480
M106 S0
G4 P100
G0 X58.6 Y59.4 F1200
M106 S255
G4 P20
G1 X62.8 Y59.4 F480
M106 S0
G4 P100
G0 X72.2 Y59.4 F1200
M106 S255
G4 P20
G1 X73.4 Y59.4 F480
M106 S0
G4 P100
G0 X73.5 Y59.5 F1200
M106 S255
G4 P20
G1 X72.4 Y59.5 F480
M106 S0
G4 P100
G0 X62.9 Y59.5 F1200
M106 S255
G4 P20
G1 X58.6 Y59.5 F480
M106 S0
G4 P100
G0 X44.0 Y59.5 F1200
M106 S255
G4 P20
G1 X43.5 Y59.5 F480
M106 S0
G4 P100
G0 X39.7 Y59.5 F1200
M106 S255
G4 P20
G1 X39.3 Y59.5 F480
M106 S0
G4 P100
G0 X36.1 Y59.5 F1200
M106 S255
G4 P20
G1 X35.9 Y59.5 F480
M106 S0
G4 P100
G0 X34.6 Y59.5 F1200
M106 S255
G4 P20
G1 X33.8 Y59.5 F480
M106 S0
G4 P100
G0 X26.9 Y59.5 F1200
M106 S255
G4 P20
G1 X26.0 Y59.5 F480
M106 S0
G4 P100
G0 X19.1 Y59.5 F1200
M106 S255
G4 P20
G1 X18.3 Y59.5 F480
M106 S0
G4 P100
G0 X18.4 Y59.6 F1200
M106 S255
G4 P20
G1 X19.3 Y59.6 F480
M106 S0
G4 P100
G0 X25.8 Y59.6 F1200
M106 S255
G4 P20
G1 X26.8 Y59.6 F480
M106 S0
G4 P100
G0 X33.7 Y59.6 F1200
M106 S255
G4 P20
G1 X34.5 Y59.6 F480
M106 S0
G4 P100
G0 X35.8 Y59.6 F1200
M106 S255
G4 P20
G1 X36.0 Y59.6 F480
M106 S0
G4 P100
G0 X39.2 Y59.6 F1200
M106 S255
G4 P20
G1 X39.6 Y59.6 F480
M106 S0
G4 P100
G0 X43.5 Y59.6 F1200
M106 S255
G4 P20
G1 X43.9 Y59.6 F480
M106 S0
G4 P100
G0 X58.6 Y59.6 F1200
M106 S255
G4 P20
G1 X62.9 Y59.6 F480
M106 S0
G4 P100
G0 X72.6 Y59.6 F1200
M106 S255
G4 P20
G1 X73.6 Y59.6 F480
M106 S0
G4 P100
G0 X73.8 Y59.7 F1200
M106 S255
G4 P20
G1 X72.8 Y59.7 F480
M106 S0
G4 P100
G0 X63.0 Y59.7 F1200
M106 S255
G4 P20
G1 X58.5 Y59.7 F480
M106 S0
G4 P100
G0 X43.8 Y59.7 F1200
M106 S255
G4 P20
G1 X43.4 Y59.7 F480
M106 S0
G4 P100
G0 X39.6 Y59.7 F1200
M106 S255
G4 P20
G1 X39.2 Y59.7 F480
M106 S0
G4 P100
G0 X35.9 Y59.7 F1200
M106 S255
G4 P20
G1 X35.7 Y59.7 F480
M106 S0
G4 P100
G0 X34.5 Y59.7 F1200
M106 S255
G4 P20
G1 X33.7 Y59.7 F480
M106 S0
G4 P100
G0 X26.7 Y59.7 F1200
M106 S255
G4 P20
G1 X25.6 Y59.7 F480
M106 S0
G4 P100
G0 X19.4 Y59.7 F1200
M106 S255
G4 P20
G1 X18.5 Y59.7 F480
M106 S0
G4 P100
G0 X18.6 Y59.8 F1200
M106 S255
G4 P20
G1 X19.6 Y59.8 F480
M106 S0
G4 P100
G0 X25.4 Y59.8 F1200
M106 S255
G4 P20
G1 X26.5 Y59.8 F480
M106 S0
G4 P100
G0 X33.6 Y59.8 F1200
M106 S255
G4 P20
G1 X34.4 Y59.8 F480
M106 S0
G4 P100
G0 X35.6 Y59.8 F1200
M106 S255
G4 P20
G1 X35.9 Y59.8 F480
M106 S0
G4 P100
G0 X39.1 Y59.8 F1200
M106 S255
G4 P20
G1 X39.5 Y59.8 F480
M106 S0
G4 P100
G0 X43.3 Y59.8 F1200
M106 S255
G4 P20
G1 X43.7 Y59.8 F480
M106 S0
G4 P100
G0 X58.5 Y59.8 F1200
M106 S255
G4 P20
G1 X63.1 Y59.8 F480
M106 S0
G4 P100
G0 X73.0 Y59.8 F1200
M106 S255
G4 P20
G1 X73.9 Y59.8 F480
M106 S0
G4 P100
G0 X74.0 Y59.9 F1200
M106 S255
G4 P20
G1 X73.1 Y59.9 F480
M106 S0
G4 P100
G0 X63.1 Y59.9 F1200
M106 S255
G4 P20
G1 X58.5 Y59.9 F480
M106 S0
G4 P100
G0 X43.7 Y59.9 F1200
M106 S255
G4 P20
G1 X43.2 Y59.9 F480
M106 S0
G4 P100
G0 X39.4 Y59.9 F1200
M106 S255
G4 P20
G1 X39.1 Y59.9 F480
M106 S0
G4 P100
G0 X35.7 Y59.9 F1200
M106 S255
G4 P20
G1 X35.5 Y59.9 F480
M106 S0
G4 P100
G0 X34.4 Y59.9 F1200
M106 S255
G4 P20
G1 X33.6 Y59.9 F480
M106 S0
G4 P100
G0 X26.4 Y59.9 F1200
M106 S255
G4 P20
G1 X25.2 Y59.9 F480
M106 S0
G4 P100
G0 X19.7 Y59.9 F1200
M106 S255
G4 P20
G1 X18.8 Y59.9 F480
M106 S0
G4 P100
G0 X19.0 Y60.0 F1200
M106 S255
G4 P20
G1 X20.0 Y60.0 F480
M106 S0
G4 P100
G0 X25.0 Y60.0 F1200
M106 S255
G4 P20
G1 X26.2 Y60.0 F480
M106 S0
G4 P100
G0 X33.5 Y60.0 F1200
M106 S255
G4 P20
G1 X33.9 Y60.0 F480
M106 S0
G4 P100
G0 X34.2 Y60.0 F1200
M106 S255
G4 P20
G1 X34.4 Y60.0 F480
M106 S0
G4 P100
G0 X35.3 Y60.0 F1200
M106 S255
G4 P20
G1 X35.6 Y60.0 F480
M106 S0
G4 P100
G0 X39.0 Y60.0 F1200
M106 S255
G4 P20
G1 X39.4 Y60.0 F480
M106 S0
G4 P100
G0 X43.1 Y60.0 F1200
M106 S255
G4 P20
G1 X43.6 Y60.0 F480
M106 S0
G4 P100
G0 X58.5 Y60.0 F1200
M106 S255
G4 P20
G1 X63.2 Y60.0 F480
M106 S0
G4 P100
G0 X73.2 Y60.0 F1200
M106 S255
G4 P20
G1 X74.1 Y60.0 F480
M106 S0
G4 P100
G0 X74.2 Y60.1 F1200
M106 S255
G4 P20
G1 X73.3 Y60.1 F480
M106 S0
G4 P100
G0 X63.2 Y60.1 F1200
M106 S255
G4 P20
G1 X58.5 Y60.1 F480
M106 S0
G4 P100
G0 X43.5 Y60.1 F1200
M106 S255
G4 P20
G1 X43.0 Y60.1 F480
M106 S0
G4 P100
G0 X39.3 Y60.1 F1200
M106 S255
G4 P20
G1 X39.0 Y60.1 F480
M106 S0
G4 P100
G0 X35.5 Y60.1 F1200
M106 S255
G4 P20
G1 X35.3 Y60.1 F480
M106 S0
G4 P100
G0 X34.4 Y60.1 F1200
M106 S255
G4 P20
G1 X34.2 Y60.1 F480
M106 S0
G4 P100
G0 X33.9 Y60.1 F1200
M106 S255
G4 P20
G1 X33.4 Y60.1 F480
M106 S0
G4 P100
G0 X26.0 Y60.1 F1200
M106 S255
G4 P20
G1 X24.8 Y60.1 F480
M106 S0
G4 P100
G0 X20.2 Y60.1 F1200
M106 S255
G4 P20
G1 X19.1 Y60.1 F480
M106 S0
G4 P100
G0 X19.3 Y60.2 F1200
M106 S255
G4 P20
G1 X20.4 Y60.2 F480
M106 S0
G4 P100
G0 X24.6 Y60.2 F1200
M106 S255
G4 P20
G1 X25.8 Y60.2 F480
M106 S0
G4 P100
G0 X33.4 Y60.2 F1200
M106 S255
G4 P20
G1 X33.8 Y60.2 F480
M106 S0
G4 P100
G0 X34.2 Y60.2 F1200
M106 S255
G4 P20
G1 X34.5 Y60.2 F480
M106 S0
G4 P100
G0 X35.3 Y60.2 F1200
M106 S255
G4 P20
G1 X35.3 Y60.2 F480
M106 S0
G4 P100
G0 X38.9 Y60.2 F1200
M106 S255
G4 P20
G1 X39.3 Y60.2 F480
M106 S0
G4 P100
G0 X42.9 Y60.2 F1200
M106 S255
G4 P20
G1 X43.4 Y60.2 F480
M106 S0
G4 P100
G0 X58.5 Y60.2 F1200
M106 S255
G4 P20
G1 X63.2 Y60.2 F480
M106 S0
G4 P100
G0 X73.5 Y60.2 F1200
M106 S255
G4 P20
G1 X74.3 Y60.2 F480
M106 S0
G4 P100
G0 X74.4 Y60.3 F1200
M106 S255
G4 P20
G1 X73.6 Y60.3 F480
M106 S0
G4 P100
G0 X63.3 Y60.3 F1200
M106 S255
G4 P20
G1 X58.5 Y60.3 F480
M106 S0
G4 P100
G0 X43.3 Y60.3 F1200
M106 S255
G4 P20
G1 X42.9 Y60.3 F480
M106 S0
G4 P100
G0 X39.2 Y60.3 F1200
M106 S255
G4 P20
G1 X38.9 Y60.3 F480
M106 S0
G4 P100
G0 X34.6 Y60.3 F1200
M106 S255
G4 P20
G1 X34.3 Y60.3 F480
M106 S0
G4 P100
G0 X33.8 Y60.3 F1200
M106 S255
G4 P20
G1 X33.3 Y60.3 F480
M106 S0
G4 P100
G0 X25.6 Y60.3 F1200
M106 S255
G4 P20
G1 X24.3 Y60.3 F480
M106 S0
G4 P100
G0 X20.8 Y60.3 F1200
M106 S255
G4 P20
G1 X19.4 Y60.3 F480
M106 S0
G4 P100
G0 X19.6 Y60.4 F1200
M106 S255
G4 P20
G1 X21.1 Y60.4 F480
M106 S0
G4 P100
G0 X24.1 Y60.4 F1200
M106 S255
G4 P20
G1 X25.5 Y60.4 F480
M106 S0
G4 P100
G0 X33.3 Y60.4 F1200
M106 S255
G4 P20
G1 X33.7 Y60.4 F480
M106 S0
G4 P100
G0 X34.5 Y60.4 F1200
M106 S255
G4 P20
G1 X34.6 Y60.4 F480
M106 S0
G4 P100
G0 X38.9 Y60.4 F1200
M106 S255
G4 P20
G1 X39.2 Y60.4 F480
M106 S0
G4 P100
G0 X42.8 Y60.4 F1200
M106 S255
G4 P20
G1 X43.3 Y60.4 F480
M106 S0
G4 P100
G0 X58.4 Y60.4 F1200
M106 S255
G4 P20
G1 X63.3 Y60.4 F480
M106 S0
G4 P100
G0 X73.7 Y60.4 F1200
M106 S255
G4 P20
G1 X74.5 Y60.4 F480
M106 S0
G4 P100
G0 X74.6 Y60.5 F1200
M106 S255
G4 P20
G1 X73.8 Y60.5 F480
M106 S0
G4 P100
G0 X63.3 Y60.5 F1200
M106 S255
G4 P20
G1 X58.4 Y60.5 F480
M106 S0
G4 P100
G0 X43.2 Y60.5 F1200
M106 S255
G4 P20
G1 X42.7 Y60.5 F480
M106 S0
G4 P100
G0 X39.1 Y60.5 F1200
M106 S255
G4 P20
G1 X38.9 Y60.5 F480
M106 S0
G4 P100
G0 X33.6 Y60.5 F1200
M106 S255
G4 P20
G1 X33.2 Y60.5 F480
M106 S0
G4 P100
G0 X25.2 Y60.5 F1200
M106 S255
G4 P20
G1 X23.6 Y60.5 F480
M106 S0
G4 P100
G0 X21.6 Y60.5 F1200
M106 S255
G4 P20
G1 X19.9 Y60.5 F480
M106 S0
G4 P100
G0 X20.1 Y60.6 F1200
M106 S255
G4 P20
G1 X22.3 Y60.6 F480
M106 S0
G4 P100
G0 X22.8 Y60.6 F1200
M106 S255
G4 P20
G1 X25.0 Y60.6 F480
M106 S0
G4 P100
G0 X33.2 Y60.6 F1200
M106 S255
G4 P20
G1 X33.6 Y60.6 F480
M106 S0
G4 P100
G0 X38.8 Y60.6 F1200
M106 S255
G4 P20
G1 X39.1 Y60.6 F480
M106 S0
G4 P100
G0 X42.5 Y60.6 F1200
M106 S255
G4 P20
G1 X43.1 Y60.6 F480
M106 S0
G4 P100
G0 X58.3 Y60.6 F1200
M106 S255
G4 P20
G1 X63.3 Y60.6 F480
M106 S0
G4 P100
G0 X73.9 Y60.6 F1200
M106 S255
G4 P20
G1 X74.7 Y60.6 F480
M106 S0
G4 P100
G0 X74.8 Y60.7 F1200
M106 S255
G4 P20
G1 X74.0 Y60.7 F480
M106 S0
G4 P100
G0 X63.3 Y60.7 F1200
M106 S255
G4 P20
G1 X58.3 Y60.7 F480
M106 S0
G4 P100
G0 X43.0 Y60.7 F1200
M106 S255
G4 P20
G1 X42.5 Y60.7 F480
M106 S0
G4 P100
G0 X39.1 Y60.7 F1200
M106 S255
G4 P20
G1 X38.8 Y60.7 F480
M106 S0
G4 P100
G0 X33.6 Y60.7 F1200
M106 S255
G4 P20
G1 X33.1 Y60.7 F480
M106 S0
G4 P100
G0 X24.8 Y60.7 F1200
M106 S255
G4 P20
G1 X20.3 Y60.7 F480
M106 S0
G4 P100
G0 X20.6 Y60.8 F1200
M106 S255
G4 P20
G1 X24.5 Y60.8 F480
M106 S0
G4 P100
G0 X33.1 Y60.8 F1200
M106 S255
G4 P20
G1 X33.5 Y60.8 F480
M106 S0
G4 P100
G0 X38.8 Y60.8 F1200
M106 S255
G4 P20
G1 X39.1 Y60.8 F480
M106 S0
G4 P100
G0 X42.3 Y60.8 F1200
M106 S255
G4 P20
G1 X42.8 Y60.8 F480
M106 S0
G4 P100
G0 X58.3 Y60.8 F1200
M106 S255
G4 P20
G1 X63.3 Y60.8 F480
M106 S0
G4 P100
G0 X74.1 Y60.8 F1200
M106 S255
G4 P20
G1 X74.8 Y60.8 F480
M106 S0
G4 P100
G0 X74.9 Y60.9 F1200
M106 S255
G4 P20
G1 X74.2 Y60.9 F480
M106 S0
G4 P100
G0 X63.3 Y60.9 F1200
M106 S255
G4 P20
G1 X58.2 Y60.9 F480
M106 S0
G4 P100
G0 X42.8 Y60.9 F1200
M106 S255
G4 P20
G1 X42.2 Y60.9 F480
M106 S0
G4 P100
G0 X39.1 Y60.9 F1200
M106 S255
G4 P20
G1 X38.8 Y60.9 F480
M106 S0
G4 P100
G0 X33.5 Y60.9 F1200
M106 S255
G4 P20
G1 X33.1 Y60.9 F480
M106 S0
G4 P100
G0 X24.2 Y60.9 F1200
M106 S255
G4 P20
G1 X20.9 Y60.9 F480
M106 S0
G4 P100
G0 X21.3 Y61.0 F1200
M106 S255
G4 P20
G1 X23.9 Y61.0 F480
M106 S0
G4 P100
G0 X33.0 Y61.0 F1200
M106 S255
G4 P20
G1 X33.4 Y61.0 F480
M106 S0
G4 P100
G0 X38.7 Y61.0 F1200
M106 S255
G4 P20
G1 X39.1 Y61.0 F480
M106 S0
G4 P100
G0 X42.1 Y61.0 F1200
M106 S255
G4 P20
G1 X42.6 Y61.0 F480
M106 S0
G4 P100
G0 X58.2 Y61.0 F1200
M106 S255
G4 P20
G1 X63.3 Y61.0 F480
M106 S0
G4 P100
G0 X74.3 Y61.0 F1200
M106 S255
G4 P20
G1 X75.0 Y61.0 F480
M106 S0
G4 P100
G0 X75.1 Y61.1 F1200
M106 S255
G4 P20
G1 X74.4 Y61.1 F480
M106 S0
G4 P100
G0 X63.3 Y61.1 F1200
M106 S255
G4 P20
G1 X58.1 Y61.1 F480
M106 S0
G4 P100
G0 X42.5 Y61.1 F1200
M106 S255
G4 P20
G1 X41.9 Y61.1 F480
M106 S0
G4 P100
G0 X39.1 Y61.1 F1200
M106 S255
G4 P20
G1 X38.7 Y61.1 F480
M106 S0
G4 P100
G0 X33.3 Y61.1 F1200
M106 S255
G4 P20
G1 X32.9 Y61.1 F480
M106 S0
G4 P100
G0 X23.2 Y61.1 F1200
M106 S255
G4 P20
G1 X21.9 Y61.1 F480
M106 S0
G4 P100
G0 X32.9 Y61.2 F1200
M106 S255
G4 P20
G1 X33.3 Y61.2 F480
M106 S0
G4 P100
G0 X38.7 Y61.2 F1200
M106 S255
G4 P20
G1 X39.0 Y61.2 F480
M106 S0
G4 P100
G0 X41.8 Y61.2 F1200
M106 S255
G4 P20
G1 X42.4 Y61.2 F480
M106 S0
G4 P100
G0 X58.1 Y61.2 F1200
M106 S255
G4 P20
G1 X63.3 Y61.2 F480
M106 S0
G4 P100
G0 X74.4 Y61.2 F1200
M106 S255
G4 P20
G1 X75.1 Y61.2 F480
M106 S0
G4 P100
G0 X75.2 Y61.3 F1200
M106 S255
G4 P20
G1 X74.5 Y61.3 F480
M106 S0
G4 P100
G0 X63.2 Y61.3 F1200
M106 S255
G4 P20
G1 X58.0 Y61.3 F480
M106 S0
G4 P100
G0 X42.3 Y61.3 F1200
M106 S255
G4 P20
G1 X41.7 Y61.3 F480
M106 S0
G4 P100
G0 X39.0 Y61.3 F1200
M106 S255
G4 P20
G1 X38.7 Y61.3 F480
M106 S0
G4 P100
G0 X33.3 Y61.3 F1200
M106 S255
G4 P20
G1 X32.9 Y61.3 F480
M106 S0
G4 P100
G0 X32.8 Y61.4 F1200
M106 S255
G4 P20
G1 X33.2 Y61.4 F480
M106 S0
G4 P100
G0 X38.7 Y61.4 F1200
M106 S255
G4 P20
G1 X39.0 Y61.4 F480
M106 S0
G4 P100
G0 X41.5 Y61.4 F1200
M106 S255
G4 P20
G1 X42.2 Y61.4 F480
M106 S0
G4 P100
G0 X58.0 Y61.4 F1200
M106 S255
G4 P20
G1 X63.2 Y61.4 F480
M106 S0
G4 P100
G0 X74.6 Y61.4 F1200
M106 S255
G4 P20
G1 X75.3 Y61.4 F480
M106 S0
G4 P100
G0 X75.3 Y61.5 F1200
M106 S255
G4 P20
G1 X74.6 Y61.5 F480
M106 S0
G4 P100
G0 X63.2 Y61.5 F1200
M106 S255
G4 P20
G1 X57.9 Y61.5 F480
M106 S0
G4 P100
G0 X42.0 Y61.5 F1200
M106 S255
G4 P20
G1 X41.4 Y61.5 F480
M106 S0
G4 P100
G0 X39.0 Y61.5 F1200
M106 S255
G4 P20
G1 X38.8 Y61.5 F480
M106 S0
G4 P100
G0 X33.2 Y61.5 F1200
M106 S255
G4 P20
G1 X32.8 Y61.5 F480
M106 S0
G4 P100
G0 X32.8 Y61.6 F1200
M106 S255
G4 P20
G1 X33.1 Y61.6 F480
M106 S0
G4 P100
G0 X38.8 Y61.6 F1200
M106 S255
G4 P20
G1 X39.1 Y61.6 F480
M106 S0
G4 P100
G0 X41.2 Y61.6 F1200
M106 S255
G4 P20
G1 X41.9 Y61.6 F480
M106 S0
G4 P100
G0 X57.8 Y61.6 F1200
M106 S255
G4 P20
G1 X63.2 Y61.6 F480
M106 S0
G4 P100
G0 X74.7 Y61.6 F1200
M106 S255
G4 P20
G1 X75.4 Y61.6 F480
M106 S0
G4 P100
G0 X75.4 Y61.7 F1200
M106 S255
G4 P20
G1 X74.7 Y61.7 F480
M106 S0
G4 P100
G0 X63.2 Y61.7 F1200
M106 S255
G4 P20
G1 X57.7 Y61.7 F480
M106 S0
G4 P100
G0 X41.7 Y61.7 F1200
M106 S255
G4 P20
G1 X41.0 Y61.7 F480
M106 S0
G4 P100
G0 X39.1 Y61.7 F1200
M106 S255
G4 P20
G1 X38.9 Y61.7 F480
M106 S0
G4 P100
G0 X33.1 Y61.7 F1200
M106 S255
G4 P20
G1 X32.7 Y61.7 F480
M106 S0
G4 P100
G0 X32.7 Y61.8 F1200
M106 S255
G4 P20
G1 X33.1 Y61.8 F480
M106 S0
G4 P100
G0 X38.9 Y61.8 F1200
M106 S255
G4 P20
G1 X39.1 Y61.8 F480
M106 S0
G4 P100
G0 X40.8 Y61.8 F1200
M106 S255
G4 P20
G1 X41.6 Y61.8 F480
M106 S0
G4 P100
G0 X57.6 Y61.8 F1200
M106 S255
G4 P20
G1 X63.2 Y61.8 F480
M106 S0
G4 P100
G0 X74.8 Y61.8 F1200
M106 S255
G4 P20
G1 X75.5 Y61.8 F480
M106 S0
G4 P100
G0 X75.5 Y61.9 F1200
M106 S255
G4 P20
G1 X74.9 Y61.9 F480
M106 S0
G4 P100
G0 X63.2 Y61.9 F1200
M106 S255
G4 P20
G1 X57.5 Y61.9 F480
M106 S0
G4 P100
G0 X41.3 Y61.9 F1200
M106 S255
G4 P20
G1 X40.5 Y61.9 F480
M106 S0
G4 P100
G0 X39.2 Y61.9 F1200
M106 S255
G4 P20
G1 X39.0 Y61.9 F480
M106 S0
G4 P100
G0 X33.0 Y61.9 F1200
M106 S255
G4 P20
G1 X32.6 Y61.9 F480
M106 S0
G4 P100
G0 X32.6 Y62.0 F1200
M106 S255
G4 P20
G1 X33.0 Y62.0 F480
M106 S0
G4 P100
G0 X39.0 Y62.0 F1200
M106 S255
G4 P20
G1 X39.2 Y62.0 F480
M106 S0
G4 P100
G0 X40.4 Y62.0 F1200
M106 S255
G4 P20
G1 X41.2 Y62.0 F480
M106 S0
G4 P100
G0 X57.5 Y62.0 F1200
M106 S255
G4 P20
G1 X63.2 Y62.0 F480
M106 S0
G4 P100
G0 X64.2 Y62.0 F1200
M106 S255
G4 P20
G1 X64.2 Y62.0 F480
M106 S0
G4 P100
G0 X74.9 Y62.0 F1200
M106 S255
G4 P20
G1 X75.6 Y62.0 F480
M106 S0
G4 P100
G0 X75.6 Y62.1 F1200
M106 S255
G4 P20
G1 X75.0 Y62.1 F480
M106 S0
G4 P100
G0 X64.4 Y62.1 F1200
M106 S255
G4 P20
G1 X64.4 Y62.1 F480
M106 S0
G4 P100
G0 X63.3 Y62.1 F1200
M106 S255
G4 P20
G1 X57.4 Y62.1 F480
M106 S0
G4 P100
G0 X41.0 Y62.1 F1200
M106 S255
G4 P20
G1 X39.1 Y62.1 F480
M106 S0
G4 P100
G0 X32.9 Y62.1 F1200
M106 S255
G4 P20
G1 X32.6 Y62.1 F480
M106 S0
G4 P100
G0 X32.5 Y62.2 F1200
M106 S255
G4 P20
G1 X32.9 Y62.2 F480
M106 S0
G4 P100
G0 X39.2 Y62.2 F1200
M106 S255
G4 P20
G1 X40.7 Y62.2 F480
M106 S0
G4 P100
G0 X57.2 Y62.2 F1200
M106 S255
G4 P20
G1 X63.3 Y62.2 F480
M106 S0
G4 P100
G0 X64.4 Y62.2 F1200
M106 S255
G4 P20
G1 X64.4 Y62.2 F480
M106 S0
G4 P100
G0 X75.1 Y62.2 F1200
M106 S255
G4 P20
G1 X75.7 Y62.2 F480
M106 S0
G4 P100
G0 X75.7 Y62.3 F1200
M106 S255
G4 P20
G1 X75.1 Y62.3 F480
M106 S0
G4 P100
G0 X64.4 Y62.3 F1200
M106 S255
G4 P20
G1 X64.4 Y62.3 F480
M106 S0
G4 P100
G0 X63.4 Y62.3 F1200
M106 S255
G4 P20
G1 X57.1 Y62.3 F480
M106 S0
G4 P100
G0 X40.5 Y62.3 F1200
M106 S255
G4 P20
G1 X39.4 Y62.3 F480
M106 S0
G4 P100
G0 X32.8 Y62.3 F1200
M106 S255
G4 P20
G1 X32.5 Y62.3 F480
M106 S0
G4 P100
G0 X32.4 Y62.4 F1200
M106 S255
G4 P20
G1 X32.8 Y62.4 F480
M106 S0
G4 P100
G0 X52.8 Y62.4 F1200
M106 S255
G4 P20
G1 X52.8 Y62.4 F480
M106 S0
G4 P100
G0 X53.9 Y62.4 F1200
M106 S255
G4 P20
G1 X54.7 Y62.4 F480
M106 S0
G4 P100
G0 X56.9 Y62.4 F1200
M106 S255
G4 P20
G1 X62.8 Y62.4 F480
M106 S0
G4 P100
G0 X63.0 Y62.4 F1200
M106 S255
G4 P20
G1 X63.4 Y62.4 F480
M106 S0
G4 P100
G0 X64.3 Y62.4 F1200
M106 S255
G4 P20
G1 X64.4 Y62.4 F480
M106 S0
G4 P100
G0 X75.2 Y62.4 F1200
M106 S255
G4 P20
G1 X75.8 Y62.4 F480
M106 S0
G4 P100
