;FLAVOR:Marlin
;TIME:7284
;Filament used: 3.39909m, 1.34384m, 0.916464m, 0.817524m
;Layer height: 0.2
;MINX:115.205
;MINY:114.971
;MINZ:0.36
;MAXX:174.793
;MAXY:224.794
;MAXZ:7.31
;Generated with Cura_SteamEngine 4.13.1
T0
M140 S70
M105
M190 S70
M104 S200
M105
M109 S200
M82 ;absolute extrusion mode
;Z9E4 start G-code
G28 ;Home
G21 ; set units to millimeters
G90 ; use absolute coordinates
G1 Z5 F3000 ; lift nozzle
G1 X5 Y10 F1500 ; move to prime start point
G1 Z0.3 F3000 ; get ready to prime
;===Pre-load filament start
M117 Preload Extruder #1
T0
G92 E0
G0 X5 Y50 F3000
G1 Y250 E15 F1200
G0 X5.5 F3000
G1 Y50 E30 F1200
G0 X6 F3000
G1 Y250 E45 F1200
G0 X6.5 F3000
G1 Y50 E60 F1200
G0 X7 F3000
G1 Y250 E75 F1200
G0 X7.5 F3000
G1 Y50 E90 F1200
G0 X8 F3000
G92 E0
G1 E-10 F1800
G1 E-80 F2400
M400
M117 Preload Extruder #2
T1
G92 E0
G0 X8 Y50 F3000
G1 Y250 E15 F1200
G0 X8.5 F3000
G1 Y50 E30 F1200
G0 X9 F3000
G1 Y250 E45 F1200
G0 X9.5 F3000
G1 Y50 E60 F1200
G0 X10 F3000
G1 Y250 E75 F1200
G0 X10.5 F3000
G1 Y50 E90 F1200
G0 X11 F3000
G92 E0
G1 E-10 F1800
G1 E-80 F2400
M400
M117 Preload Extruder #3
T2
G92 E0
G0 X11 Y50 F3000
G1 Y250 E15 F1200
G0 X11.5 F3000
G1 Y50 E30 F1200
G0 X12 F3000
G1 Y250 E45 F1200
G0 X12.5 F3000
G1 Y50 E60 F600
G0 X13 F3000
G1 Y250 E75 F1200
G0 X13.5 F3000
G1 Y50 E90 F1200
G0 X14 F3000
G92 E0
G1 E-10 F1800
G1 E-80 F2400
M400
M117 Preload Extruder #4
T3
G92 E0
G0 X14 Y10 F3000
G1 Y250 E15 F1200
G0 X14.5 F3000
G1 Y50 E30 F1200
G0 X15 F3000
G1 Y250 E45 F1200
G0 X15.5 F3000
G1 Y50 E60 F1200
G0 X16 F3000
G1 Y250 E75 F1200
G0 X16.5 F3000
G1 Y50 E90 F1200
G0 X17 F3000
G0 Y155 F4800
G92 E0    
G1 E-10 F1800
G1 E-80 F2400
G92 E0
;===Pre-load filament end
G92 E0
;start gcode of Extruders    
G91 
G1 Z1 F600
G90
G0 X155 Y300 F5000 
G91 
G1 Z-1 F600
G90
G92 E0
G1 E25 F2400; reload filament-1
G1 E45 F1200; reload filament-2
G1 E70 F2400; reload filament-3
G1 E79 F900; reload filament-4
G92 E0
G92 E0
G1 F1800 E-8
;LAYER_COUNT:25
;LAYER:-6
M107
G0 F6000 X119.293 Y116.771 Z0.36
;TYPE:SUPPORT-INTERFACE
G1 F1800 E0
G1 F900 X119.715 Y116.351 E0.07129
G1 X120.173 Y115.999 E0.14045
G1 X120.671 Y115.709 E0.20946
G1 X121.207 Y115.48 E0.27925
G1 X121.731 Y115.331 E0.34448
G1 X122.087 Y115.271 E0.3877
G1 X122.641 Y115.221 E0.45431
G1 X122.863 Y115.211 E0.48092
G1 X141.978 Y115.211 E2.76968
G1 X142.74 Y115.173 E2.86103
G1 X143.557 Y115.211 E2.95896
G1 X162.658 Y115.211 E5.24605
G1 X162.784 Y115.215 E5.26114
G1 X163.459 Y115.276 E5.34229
G1 X164.034 Y115.407 E5.41291
G1 X164.571 Y115.602 E5.48131
G1 X165.087 Y115.867 E5.55077
G1 X165.573 Y116.201 E5.62138
G1 X166.007 Y116.59 E5.69116
G1 X166.382 Y117.022 E5.75966
G1 X166.708 Y117.509 E5.82983
G1 X166.963 Y118.023 E5.89853
G1 X167.16 Y118.587 E5.97006
G1 X167.274 Y119.164 E6.04049
G1 X167.324 Y119.718 E6.10709
G1 X167.334 Y119.94 E6.1337
G1 X167.334 Y139.11 E8.42905
G1 X167.372 Y139.872 E8.5204
G1 X167.334 Y140.689 E8.61833
G1 X167.334 Y159.735 E10.89883
G1 X167.306 Y160.238 E10.95915
G1 X167.214 Y160.82 E11.0297
G1 X167.054 Y161.369 E11.09817
G1 X166.821 Y161.906 E11.16826
G1 X166.526 Y162.403 E11.23747
G1 X166.172 Y162.855 E11.30621
G1 X165.753 Y163.271 E11.37691
G1 X165.295 Y163.623 E11.44607
G1 X164.53 Y164.099 E11.55396
G1 X164.535 Y164.105 E11.55489
G1 X164.03 Y164.512 E11.63255
G1 X163.557 Y165.004 E11.71427
G1 X163.15 Y165.553 E11.7961
G1 X162.815 Y166.148 E11.87786
G1 X162.559 Y166.781 E11.95961
G1 X162.384 Y167.441 E12.04137
G1 X162.293 Y168.117 E12.12304
G1 X162.289 Y168.8 E12.20483
G1 X162.371 Y169.478 E12.2866
G1 X162.538 Y170.14 E12.36835
G1 X162.787 Y170.775 E12.45002
G1 X163.114 Y171.375 E12.53183
G1 X163.515 Y171.928 E12.61363
G1 X163.977 Y172.423 E12.6947
G1 X164.25 Y172.662 E12.73814
G1 X165.538 Y173.719 E12.93765
G1 X165.944 Y174.092 E13.00366
G1 X166.25 Y174.424 E13.05772
G1 X169.28 Y178.116 E13.62961
G1 X169.611 Y178.568 E13.69669
G1 X169.843 Y178.942 E13.74938
G1 X172.108 Y183.179 E14.32465
G1 X172.347 Y183.691 E14.3923
G1 X172.511 Y184.14 E14.44954
G1 X173.895 Y188.7 E15.02013
G1 X174.028 Y189.239 E15.0866
G1 X174.102 Y189.719 E15.14476
G1 X174.57 Y194.462 E15.71543
G1 X174.594 Y195.043 E15.78505
G1 X174.578 Y195.452 E15.83406
G1 X174.103 Y200.264 E16.41303
G1 X174.017 Y200.817 E16.48004
G1 X173.91 Y201.251 E16.53357
G1 X172.52 Y205.832 E17.10677
G1 X172.323 Y206.369 E17.17526
G1 X172.153 Y206.735 E17.22358
G1 X169.882 Y210.983 E17.80035
G1 X169.599 Y211.45 E17.86573
G1 X169.319 Y211.834 E17.92263
G1 X166.28 Y215.538 E18.49631
G1 X165.911 Y215.939 E18.56156
G1 X165.575 Y216.25 E18.61638
G1 X161.882 Y219.281 E19.18843
G1 X161.431 Y219.611 E19.25534
G1 X161.053 Y219.845 E19.30857
G1 X156.81 Y222.113 E19.88464
G1 X156.308 Y222.347 E19.95096
G1 X155.852 Y222.513 E20.00906
G1 X151.288 Y223.898 E20.58015
G1 X150.75 Y224.03 E20.64648
G1 X150.28 Y224.102 E20.70341
G1 X145.532 Y224.57 E21.27467
G1 X144.962 Y224.594 E21.34298
G1 X144.524 Y224.575 E21.39548
G1 X139.734 Y224.103 E21.97179
G1 X139.182 Y224.017 E22.03868
G1 X138.748 Y223.91 E22.0922
G1 X134.167 Y222.519 E22.66545
G1 X133.63 Y222.323 E22.73389
G1 X133.262 Y222.152 E22.78248
G1 X129.016 Y219.882 E23.35898
G1 X128.549 Y219.599 E23.42436
G1 X128.165 Y219.319 E23.48127
G1 X124.461 Y216.28 E24.05494
G1 X124.055 Y215.907 E24.12096
G1 X123.749 Y215.575 E24.17502
G1 X120.707 Y211.867 E24.74929
G1 X120.388 Y211.431 E24.81398
G1 X120.143 Y211.034 E24.86984
G1 X117.885 Y206.808 E25.44354
G1 X117.652 Y206.308 E25.50959
G1 X117.486 Y205.852 E25.5677
G1 X116.101 Y201.288 E26.13878
G1 X115.97 Y200.751 E26.20497
G1 X115.898 Y200.292 E26.2606
G1 X115.43 Y195.529 E26.83365
G1 X115.406 Y194.953 E26.90268
G1 X115.427 Y194.504 E26.9565
G1 X115.893 Y189.766 E27.52655
G1 X115.982 Y189.188 E27.59657
G1 X116.092 Y188.74 E27.65181
G1 X117.48 Y184.167 E28.22403
G1 X117.678 Y183.626 E28.29301
G1 X117.846 Y183.264 E28.34079
G1 X120.117 Y179.016 E28.91755
G1 X120.4 Y178.549 E28.98294
G1 X120.68 Y178.165 E29.03984
G1 X123.719 Y174.461 E29.61352
G1 X124.092 Y174.055 E29.67953
G1 X124.418 Y173.756 E29.7325
G1 X124.901 Y173.293 E29.81261
G1 X125.331 Y172.763 E29.89433
G1 X125.69 Y172.182 E29.97611
G1 X125.972 Y171.561 E30.05777
G1 X126.176 Y170.908 E30.13968
G1 X126.293 Y170.235 E30.22148
G1 X126.326 Y169.554 E30.30311
G1 X126.273 Y168.873 E30.3849
G1 X126.133 Y168.205 E30.46662
G1 X125.911 Y167.559 E30.54841
G1 X125.609 Y166.946 E30.63023
G1 X125.233 Y166.377 E30.71189
G1 X124.786 Y165.86 E30.79373
G1 X124.279 Y165.403 E30.87546
G1 X123.718 Y165.014 E30.9572
G1 X123.112 Y164.699 E31.03897
G1 X122.474 Y164.463 E31.12042
G1 X121.955 Y164.336 E31.1844
G1 X121.434 Y164.215 E31.24844
G1 X120.897 Y164.02 E31.31685
G1 X120.381 Y163.755 E31.38631
G1 X119.895 Y163.421 E31.45692
G1 X119.461 Y163.032 E31.5267
G1 X119.082 Y162.595 E31.59596
G1 X118.76 Y162.113 E31.66537
G1 X118.505 Y161.599 E31.73407
G1 X118.308 Y161.035 E31.8056
G1 X118.194 Y160.458 E31.87603
G1 X118.144 Y159.904 E31.94263
G1 X118.134 Y159.682 E31.96924
G1 X118.134 Y140.567 E34.258
G1 X118.096 Y139.806 E34.34924
G1 X118.134 Y138.988 E34.44729
G1 X118.134 Y119.887 E36.73437
G1 X118.162 Y119.384 E36.79469
G1 X118.254 Y118.802 E36.86524
G1 X118.414 Y118.253 E36.93371
G1 X118.647 Y117.716 E37.0038
G1 X118.879 Y117.325 E37.05824
G0 F810 X118.942 Y117.219
G0 X119.293 Y116.771
G0 F6000 X120 Y116.131
G1 F900 X120 Y163.493 E42.7292
G0 F6000 X121.6 Y164.253
G1 F900 X121.6 Y115.368 E48.58252
G0 F6000 X123.2 Y115.211
G1 F900 X123.2 Y164.744 E54.51343
G0 F6000 X124.8 Y165.876
G1 F900 X124.8 Y115.211 E60.57988
G0 F6000 X126.4 Y115.211
G1 F900 X126.4 Y217.87 E72.8719
G0 F6000 X124.8 Y216.558
G1 F900 X124.8 Y173.389 E78.04081
G0 F6000 X123.2 Y175.093
G1 F900 X123.2 Y214.905 E82.80776
G0 F6000 X121.6 Y212.955
G1 F900 X121.6 Y177.043 E87.10773
G0 F6000 X120 Y179.234
G1 F900 X120 Y210.766 E90.88327
G0 F6000 X118.4 Y207.771
G1 F900 X118.4 Y182.227 E93.94181
G0 F6000 X116.8 Y186.407
G1 F900 X116.8 Y203.591 E95.99937
G0 F6000 X128 Y219.183
G1 F900 X128 Y115.211 E108.44861
G0 F6000 X129.6 Y115.211
G1 F900 X129.6 Y220.194 E121.0189
G0 F6000 X131.2 Y221.049
G1 F900 X131.2 Y115.211 E133.69157
G0 F6000 X132.8 Y115.211
G1 F900 X132.8 Y221.905 E146.46674
G0 F6000 X134.4 Y222.589
G1 F900 X134.4 Y115.211 E159.3238
G0 F6000 X136 Y115.211
G1 F900 X136 Y223.075 E172.23906
G0 F6000 X137.6 Y223.561
G1 F900 X137.6 Y115.211 E185.21251
G0 F6000 X139.2 Y115.211
G1 F900 X139.2 Y224.019 E198.2408
G0 F6000 X140.8 Y224.208
G1 F900 X140.8 Y115.211 E211.29171
G0 F6000 X142.4 Y115.189
G1 F900 X142.4 Y224.365 E224.36406
G0 F6000 X144 Y224.523
G1 F900 X144 Y115.211 E237.4527
G0 F6000 X145.6 Y115.211
G1 F900 X145.6 Y224.564 E250.54624
G0 F6000 X147.2 Y224.406
G1 F900 X147.2 Y115.211 E263.62087
G0 F6000 X148.8 Y115.211
G1 F900 X148.8 Y224.248 E276.67658
G0 F6000 X150.4 Y224.084
G1 F900 X150.4 Y115.211 E289.71265
G0 F6000 X152 Y115.211
G1 F900 X152 Y223.682 E302.70058
G0 F6000 X153.6 Y223.197
G1 F900 X153.6 Y115.211 E315.63045
G0 F6000 X155.2 Y115.211
G1 F900 X155.2 Y222.711 E328.50212
G0 F6000 X156.8 Y222.118
G1 F900 X156.8 Y115.211 E341.30279
G0 F6000 X158.4 Y115.211
G1 F900 X158.4 Y221.264 E354.0012
G0 F6000 X160 Y220.408
G1 F900 X160 Y115.211 E366.59712
G0 F6000 X161.6 Y115.211
G1 F900 X161.6 Y219.488 E379.08288
G0 F6000 X163.2 Y218.2
G1 F900 X163.2 Y171.494 E384.67529
G0 F6000 X164.8 Y173.114
G1 F900 X164.8 Y216.887 E389.91652
G0 F6000 X166.4 Y215.392
G1 F900 X166.4 Y174.607 E394.79997
G0 F6000 X168 Y176.557
G1 F900 X168 Y213.442 E399.21645
G0 F6000 X169.6 Y211.449
G1 F900 X169.6 Y178.553 E403.1553
G0 F6000 X171.2 Y181.481
G1 F900 X171.2 Y208.518 E406.39262
G0 F6000 X172.8 Y204.91
G1 F900 X172.8 Y185.093 E408.76544
G0 F6000 X174.4 Y192.74
G1 F900 X174.4 Y197.256 E409.30617
G0 F6000 X162.978 Y170.003
G0 X162.75 Y168.775
G0 X163.2 Y165.486
G1 F900 X163.2 Y115.253 E415.32089
G0 F6000 X164.8 Y115.72
G1 F900 X164.8 Y163.931 E421.09351
G0 F6000 X166.4 Y162.564
G1 F900 X166.4 Y117.049 E426.54331
G0 F6000 X118.4 Y118.301
G1 F900 X118.4 Y161.298 E431.69162
G0 F600 X118.4 Y161.298 Z0.66
G0 F6000 X118.251 Y160.805
;TIME_ELAPSED:249.300331
;LAYER:-5
;TYPE:SUPPORT
G1 F900 X118.308 Y161.034 E431.71517
G1 X118.402 Y161.337 E431.74682
G1 X118.504 Y161.598 E431.77478
G1 X118.632 Y161.873 E431.80505
G1 X118.759 Y162.112 E431.83206
G1 X118.921 Y162.37 E431.86245
G1 X119.081 Y162.594 E431.88992
G1 X119.274 Y162.829 E431.92026
G1 X119.46 Y163.031 E431.94766
G1 X119.694 Y163.251 E431.97971
G1 X119.894 Y163.42 E432.00584
G1 X120.142 Y163.602 E432.03653
G1 X120.38 Y163.754 E432.06471
G1 X120.638 Y163.896 E432.09409
G1 X120.896 Y164.019 E432.12261
G1 X121.174 Y164.129 E432.15244
G1 X121.434 Y164.214 E432.17974
G1 X121.732 Y164.292 E432.21047
G1 X121.897 Y164.323 E432.22722
G1 X118.226 Y160.652 E432.74524
G1 X118.193 Y160.457 E432.76498
G1 X118.144 Y159.903 E432.82047
G1 X118.134 Y159.68 E432.84274
G1 X118.134 Y159.146 E432.89603
G1 X169.913 Y210.925 E440.2026
G1 X170.405 Y210.003 E440.30688
G1 X118.134 Y157.732 E447.68288
G1 X118.134 Y156.317 E447.82407
G1 X170.898 Y209.082 E455.26971
G1 X171.391 Y208.16 E455.37404
G1 X118.134 Y154.903 E462.88917
G1 X118.134 Y153.489 E463.03026
G1 X171.883 Y207.238 E470.61483
G1 X172.152 Y206.734 E470.67183
G1 X172.245 Y206.543 E470.69303
G1 X172.322 Y206.368 E470.71211
G1 X172.351 Y206.292 E470.72022
G1 X118.134 Y152.075 E478.37083
G1 X118.134 Y150.661 E478.51192
G1 X172.703 Y205.229 E486.21212
G1 X173.031 Y204.144 E486.32522
G1 X118.134 Y149.246 E494.07185
G1 X118.134 Y147.832 E494.21294
G1 X173.361 Y203.059 E502.00607
G1 X173.69 Y201.974 E502.1192
G1 X118.134 Y146.418 E509.95875
G1 X118.134 Y145.004 E510.09984
G1 X174.004 Y200.874 E517.9837
G1 X174.016 Y200.816 E517.98961
G1 X174.092 Y200.354 E518.03633
G1 X174.103 Y200.263 E518.04547
G1 X174.166 Y199.622 E518.10974
G1 X118.134 Y143.59 E526.01646
G1 X118.134 Y142.175 E526.15765
G1 X174.293 Y198.334 E534.08229
G1 X174.42 Y197.048 E534.21123
G1 X118.134 Y140.761 E542.15387
G1 X118.134 Y140.566 E542.17332
G1 X118.112 Y140.101 E542.21977
G1 X118.104 Y139.999 E542.22998
G1 X118.096 Y139.805 E542.24936
G1 X118.097 Y139.719 E542.25794
G1 X118.122 Y139.336 E542.29624
G1 X174.547 Y195.76 E550.25834
G1 X174.577 Y195.451 E550.28932
G1 X174.591 Y195.242 E550.31022
G1 X174.593 Y195.041 E550.33028
G1 X174.579 Y194.598 E550.3745
G1 X174.57 Y194.461 E550.3882
G1 X174.56 Y194.359 E550.39843
G1 X118.133 Y137.932 E558.36089
G1 X118.133 Y136.518 E558.50198
G1 X174.405 Y192.79 E566.44256
G1 X174.25 Y191.221 E566.59988
G1 X118.133 Y135.104 E574.5186
G1 X118.133 Y133.689 E574.65978
G1 X174.093 Y189.65 E582.55642
G1 X174.069 Y189.461 E582.57543
G1 X174.028 Y189.238 E582.59805
G1 X173.934 Y188.846 E582.63827
G1 X173.895 Y188.699 E582.65345
G1 X173.607 Y187.749 E582.7525
G1 X118.133 Y132.275 E590.58048
G1 X118.133 Y130.861 E590.72157
G1 X172.99 Y185.718 E598.46248
G1 X172.511 Y184.139 E598.62713
G1 X172.437 Y183.919 E598.65029
G1 X172.346 Y183.69 E598.67488
G1 X172.321 Y183.635 E598.6809
G1 X118.133 Y129.447 E606.32742
G1 X118.133 Y128.032 E606.46861
G1 X170.764 Y180.663 E613.89541
G1 X169.843 Y178.941 E614.09026
G1 X169.745 Y178.775 E614.1095
G1 X169.61 Y178.567 E614.13424
G1 X169.369 Y178.231 E614.1755
G1 X169.28 Y178.115 E614.19009
G1 X167.681 Y176.166 E614.44163
G1 X118.133 Y126.618 E621.43339
G1 X118.133 Y125.204 E621.57448
G1 X162.366 Y169.437 E627.81623
G1 X162.289 Y168.799 E627.88036
G1 X162.293 Y168.116 E627.94851
G1 X162.313 Y167.97 E627.96321
G1 X118.133 Y123.79 E634.19749
G1 X118.133 Y122.376 E634.33857
G1 X162.554 Y166.797 E640.60686
G1 X162.558 Y166.78 E640.6086
G1 X162.814 Y166.146 E640.67682
G1 X162.996 Y165.825 E640.71364
G1 X118.133 Y120.961 E647.04437
G1 X118.134 Y119.886 E647.15163
G1 X118.137 Y119.759 E647.16431
G1 X118.149 Y119.563 E647.1839
G1 X163.572 Y164.987 E653.59365
G1 X164.03 Y164.511 E653.65956
G1 X164.296 Y164.296 E653.69369
G1 X118.373 Y118.373 E660.17392
G1 X118.412 Y118.253 E660.18651
G1 X118.524 Y117.974 E660.21651
G1 X118.646 Y117.715 E660.24507
G1 X118.792 Y117.453 E660.275
G1 X118.821 Y117.407 E660.28043
G1 X165.135 Y163.721 E666.81583
G1 X165.294 Y163.623 E666.83447
G1 X165.522 Y163.459 E666.86249
G1 X165.752 Y163.27 E666.8922
G1 X165.931 Y163.103 E666.91662
G1 X119.44 Y116.612 E673.477
G1 X119.512 Y116.538 E673.48731
G1 X119.713 Y116.35 E673.51477
G1 X119.944 Y116.162 E673.54449
G1 X120.172 Y115.998 E673.57251
G1 X120.215 Y115.972 E673.57752
G1 X166.572 Y162.329 E680.119
G1 X166.677 Y162.164 E680.13851
G1 X166.82 Y161.906 E680.16795
G1 X166.942 Y161.647 E680.19651
G1 X167.046 Y161.389 E680.22427
G1 X121.156 Y115.499 E686.69984
G1 X121.205 Y115.479 E686.70512
G1 X121.509 Y115.384 E686.7369
G1 X121.73 Y115.331 E686.75958
G1 X122.086 Y115.271 E686.7956
G1 X122.32 Y115.249 E686.81905
G1 X167.305 Y160.234 E693.16692
G1 X167.329 Y159.86 E693.20432
G1 X167.333 Y159.734 E693.2169
G1 X167.333 Y158.848 E693.3053
G1 X123.696 Y115.211 E699.46295
G1 X125.11 Y115.211 E699.60404
G1 X167.333 Y157.433 E705.5621
G1 X167.333 Y156.019 E705.70318
G1 X126.524 Y115.211 E711.4617
G1 X127.938 Y115.211 E711.60279
G1 X167.333 Y154.605 E717.16178
G1 X167.333 Y153.191 E717.30287
G1 X129.353 Y115.211 E722.66226
G1 X130.767 Y115.211 E722.80335
G1 X167.333 Y151.776 E727.96314
G1 X167.333 Y150.362 E728.10423
G1 X132.181 Y115.211 E733.06448
G1 X133.595 Y115.211 E733.20557
G1 X167.333 Y148.948 E737.9663
G1 X167.333 Y147.534 E738.10739
G1 X135.01 Y115.211 E742.66851
G1 X136.424 Y115.211 E742.8096
G1 X167.333 Y146.12 E747.1712
G1 X167.333 Y144.705 E747.31239
G1 X137.838 Y115.211 E751.47438
G1 X139.252 Y115.211 E751.61547
G1 X167.333 Y143.291 E755.57793
G1 X167.333 Y141.877 E755.71902
G1 X140.666 Y115.211 E759.48195
G1 X141.977 Y115.211 E759.61276
G1 X142.076 Y115.206 E759.62265
G1 X167.34 Y140.47 E763.18768
G1 X167.343 Y140.359 E763.19876
G1 X167.369 Y139.957 E763.23895
G1 X167.371 Y139.872 E763.24744
G1 X167.363 Y139.681 E763.26651
G1 X167.353 Y139.575 E763.27713
G1 X167.333 Y139.109 E763.32367
G1 X167.333 Y139.049 E763.32966
G1 X143.493 Y115.209 E766.69374
G1 X143.556 Y115.211 E766.70003
G1 X144.909 Y115.211 E766.83503
G1 X167.333 Y137.634 E769.99923
