; G-Code generated by Simplify3D(R) Version 4.1.2
; Jun 28, 2021 at 6:50:08 PM
; Settings Summary
;   processName,Process1
;   applyToModels,br_zlsensor_v1(2)
;   profileName,Z6 (modified)
;   profileVersion,2021-06-24 19:33:02
;   baseProfile,Default (modified)
;   printMaterial,PLA
;   printQuality,Medium
;   printExtruders,
;   extruderName,Primary Extruder
;   extruderToolheadNumber,0
;   extruderDiameter,0.4
;   extruderAutoWidth,0
;   extruderWidth,0.4
;   extrusionMultiplier,0.9
;   extruderUseRetract,1
;   extruderRetractionDistance,10
;   extruderExtraRestartDistance,0
;   extruderRetractionZLift,0
;   extruderRetractionSpeed,2400
;   extruderUseCoasting,0
;   extruderCoastingDistance,0.2
;   extruderUseWipe,0
;   extruderWipeDistance,1.5
;   primaryExtruder,0
;   layerHeight,0.2
;   topSolidLayers,3
;   bottomSolidLayers,3
;   perimeterOutlines,3
;   printPerimetersInsideOut,1
;   startPointOption,2
;   startPointOriginX,0
;   startPointOriginY,0
;   sequentialIslands,0
;   spiralVaseMode,0
;   firstLayerHeightPercentage,150
;   firstLayerWidthPercentage,100
;   firstLayerUnderspeed,0.5
;   useRaft,0
;   raftExtruder,0
;   raftTopLayers,3
;   raftBaseLayers,2
;   raftOffset,3
;   raftSeparationDistance,0.14
;   raftTopInfill,100
;   aboveRaftSpeedMultiplier,0.5
;   useSkirt,1
;   skirtExtruder,0
;   skirtLayers,1
;   skirtOutlines,5
;   skirtOffset,0
;   usePrimePillar,0
;   primePillarExtruder,999
;   primePillarWidth,12
;   primePillarLocation,7
;   primePillarSpeedMultiplier,1
;   useOozeShield,0
;   oozeShieldExtruder,999
;   oozeShieldOffset,2
;   oozeShieldOutlines,1
;   oozeShieldSidewallShape,1
;   oozeShieldSidewallAngle,30
;   oozeShieldSpeedMultiplier,1
;   infillExtruder,0
;   internalInfillPattern,Fast Honeycomb
;   externalInfillPattern,Rectilinear
;   infillPercentage,40
;   outlineOverlapPercentage,25
;   infillExtrusionWidthPercentage,100
;   minInfillLength,5
;   infillLayerInterval,1
;   internalInfillAngles,0
;   overlapInternalInfillAngles,0
;   externalInfillAngles,45,-45
;   generateSupport,0
;   supportExtruder,0
;   supportInfillPercentage,30
;   supportExtraInflation,0
;   supportBaseLayers,0
;   denseSupportExtruder,0
;   denseSupportLayers,0
;   denseSupportInfillPercentage,70
;   supportLayerInterval,1
;   supportHorizontalPartOffset,0.3
;   supportUpperSeparationLayers,1
;   supportLowerSeparationLayers,1
;   supportType,0
;   supportGridSpacing,4
;   maxOverhangAngle,50
;   supportAngles,0
;   temperatureName,Primary Extruder,bed
;   temperatureNumber,0,0
;   temperatureSetpointCount,1,1
;   temperatureSetpointLayers,1,1
;   temperatureSetpointTemperatures,195,50
;   temperatureStabilizeAtStartup,1,1
;   temperatureHeatedBed,0,1
;   fanLayers,1,2
;   fanSpeeds,0,100
;   blipFanToFullPower,0
;   adjustSpeedForCooling,1
;   minSpeedLayerTime,15
;   minCoolingSpeedSlowdown,20
;   increaseFanForCooling,0
;   minFanLayerTime,45
;   maxCoolingFanSpeed,100
;   increaseFanForBridging,0
;   bridgingFanSpeed,100
;   use5D,1
;   relativeEdistances,0
;   allowEaxisZeroing,1
;   independentExtruderAxes,0
;   includeM10123,0
;   stickySupport,1
;   applyToolheadOffsets,0
;   gcodeXoffset,0
;   gcodeYoffset,0
;   gcodeZoffset,0
;   overrideMachineDefinition,1
;   machineTypeOverride,0
;   strokeXoverride,150
;   strokeYoverride,150
;   strokeZoverride,150
;   originOffsetXoverride,0
;   originOffsetYoverride,0
;   originOffsetZoverride,0
;   homeXdirOverride,-1
;   homeYdirOverride,-1
;   homeZdirOverride,-1
;   flipXoverride,1
;   flipYoverride,-1
;   flipZoverride,1
;   toolheadOffsets,0,0|0,0|0,0|0,0|0,0|0,0
;   overrideFirmwareConfiguration,0
;   firmwareTypeOverride,RepRap (Marlin/Repetier/Sprinter)
;   GPXconfigOverride,r2
;   baudRateOverride,115200
;   overridePrinterModels,0
;   printerModelsOverride
;   startingGcode,G28 ; home all axes,G1 Z5 F3000 ; lift,G1 X5 Y10 F1500 ; move to prime,G1 Z0.2 F3000 ; get ready to prime,G92 E0 ; reset extrusion distance,G1 Y120 E10 F600 ; prime nozzle,G1 Y80 F5000 ; quick wipe,G92 E0 ; reset extrusion distance
;   layerChangeGcode,
;   retractionGcode,
;   toolChangeGcode,
;   endingGcode,G28 XY; home x&y axis,M106 S0 ; turn off cooling fan,M104 S0 ; turn off extruder,M140 S0 ; turn off bed,M84 ; disable motors
;   exportFileFormat,gcode
;   celebration,0
;   celebrationSong,Random Song
;   postProcessing,
;   defaultSpeed,2400
;   outlineUnderspeed,0.5
;   solidInfillUnderspeed,0.8
;   supportUnderspeed,0.8
;   rapidXYspeed,4800
;   rapidZspeed,720
;   minBridgingArea,50
;   bridgingExtraInflation,0
;   bridgingExtrusionMultiplier,1
;   bridgingSpeedMultiplier,1
;   useFixedBridgingAngle,0
;   fixedBridgingAngle,0
;   applyBridgingToPerimeters,0
;   filamentDiameters,1.75|1.75|1.75|1.75|1.75|1.75
;   filamentPricesPerKg,46|46|46|46|46|46
;   filamentDensities,1.25|1.25|1.25|1.25|1.25|1.25
;   useMinPrintHeight,0
;   minPrintHeight,0
;   useMaxPrintHeight,0
;   maxPrintHeight,0
;   useDiaphragm,0
;   diaphragmLayerInterval,20
;   robustSlicing,1
;   mergeAllIntoSolid,0
;   onlyRetractWhenCrossingOutline,0
;   retractBetweenLayers,1
;   useRetractionMinTravel,1
;   retractionMinTravel,3
;   retractWhileWiping,0
;   onlyWipeOutlines,1
;   avoidCrossingOutline,0
;   maxMovementDetourFactor,3
;   toolChangeRetractionDistance,12
;   toolChangeExtraRestartDistance,-0.5
;   toolChangeRetractionSpeed,600
;   externalThinWallType,0
;   internalThinWallType,2
;   thinWallAllowedOverlapPercentage,10
;   singleExtrusionMinLength,1
;   singleExtrusionMinPrintingWidthPercentage,50
;   singleExtrusionMaxPrintingWidthPercentage,200
;   singleExtrusionEndpointExtension,0.2
;   horizontalSizeCompensation,0
G90
M82
M106 S0
M140 S50
M190 S50
M104 S195 T0
M109 S195 T0
G28 ; home all axes
G1 Z5 F3000 ; lift
G1 X5 Y10 F1500 ; move to prime
G1 Z0.2 F3000 ; get ready to prime
G92 E0 ; reset extrusion distance
G1 Y120 E10 F600 ; prime nozzle
G1 Y80 F5000 ; quick wipe
G92 E0 ; reset extrusion distance
; process Process1
; layer 1, Z = 0.300
T0
G92 E0.0000
G1 E-10.0000 F2400
; feature skirt
; tool H0.300 W0.400
G1 Z0.300 F720
G1 X62.353 Y63.120 F4800
G1 E0.0000 F2400
G92 E0.0000
G1 X63.019 Y62.499 E0.0409 F1200
G1 X63.089 Y62.439 E0.0450
G1 X63.488 Y62.136 E0.0675
G1 X63.565 Y62.085 E0.0717
G1 X64.357 Y61.603 E0.1133
G1 X64.466 Y61.546 E0.1189
G1 X65.317 Y61.177 E0.1605
G1 X65.403 Y61.144 E0.1646
G1 X65.880 Y60.993 E0.1871
G1 X65.969 Y60.970 E0.1912
G1 X66.876 Y60.781 E0.2328
G1 X66.998 Y60.764 E0.2383
G1 X67.908 Y60.702 E0.2793
G1 X67.970 Y60.700 E0.2821
G1 X82.030 Y60.700 E0.9134
G1 X82.092 Y60.702 E0.9162
G1 X83.002 Y60.764 E0.9571
G1 X83.124 Y60.781 E0.9627
G1 X84.046 Y60.973 E1.0049
G1 X84.164 Y61.006 E1.0105
G1 X85.038 Y61.317 E1.0521
G1 X85.123 Y61.352 E1.0562
G1 X85.575 Y61.567 E1.0787
G1 X85.656 Y61.611 E1.0829
G1 X86.448 Y62.092 E1.1245
G1 X86.548 Y62.163 E1.1300
G1 X87.267 Y62.748 E1.1716
G1 X87.336 Y62.810 E1.1757
G1 X87.690 Y63.164 E1.1982
G1 X87.752 Y63.233 E1.2024
G1 X88.337 Y63.952 E1.2440
G1 X88.408 Y64.052 E1.2495
G1 X88.897 Y64.857 E1.2918
G1 X88.954 Y64.966 E1.2973
G1 X89.329 Y65.830 E1.3396
G1 X89.370 Y65.946 E1.3451
G1 X89.620 Y66.839 E1.3868
G1 X89.641 Y66.928 E1.3909
G1 X89.726 Y67.422 E1.4134
G1 X89.737 Y67.514 E1.4175
G1 X89.798 Y68.408 E1.4578
G1 X89.800 Y68.470 E1.4606
G1 X89.800 Y88.246 E2.3485
G1 X88.746 Y89.300 E2.4155
G1 X82.004 Y89.300 E2.7182
G1 X80.950 Y88.246 E2.7851
G1 X80.950 Y74.300 E3.4113
G1 X69.050 Y74.300 E3.9456
G1 X69.050 Y88.246 E4.5718
G1 X67.996 Y89.300 E4.6387
G1 X61.254 Y89.300 E4.9415
G1 X60.199 Y88.245 E5.0084
G1 X60.214 Y68.027 E5.9162
G1 X60.223 Y67.905 E5.9217
G1 X60.351 Y66.973 E5.9640
G1 X60.376 Y66.853 E5.9695
G1 X60.630 Y65.946 E6.0118
G1 X60.671 Y65.830 E6.0173
G1 X61.046 Y64.966 E6.0596
G1 X61.103 Y64.857 E6.0651
G1 X61.584 Y64.065 E6.1067
G1 X61.636 Y63.988 E6.1109
G1 X61.930 Y63.602 E6.1327
G1 X61.968 Y63.554 E6.1354
G1 X62.289 Y63.187 E6.1573
G1 X62.353 Y63.120 E6.1615
G1 X62.633 Y63.406 F4800
G92 E0.0000
G1 X63.284 Y62.798 E0.0400 F1200
G1 X63.339 Y62.752 E0.0432
G1 X63.722 Y62.461 E0.0648
G1 X63.781 Y62.421 E0.0680
G1 X64.553 Y61.952 E0.1086
G1 X64.638 Y61.908 E0.1129
G1 X65.467 Y61.548 E0.1534
G1 X65.534 Y61.523 E0.1566
G1 X65.992 Y61.377 E0.1782
G1 X66.061 Y61.359 E0.1814
G1 X66.944 Y61.176 E0.2219
G1 X67.039 Y61.163 E0.2262
G1 X67.929 Y61.102 E0.2663
G1 X67.976 Y61.100 E0.2684
G1 X82.024 Y61.100 E0.8991
G1 X82.071 Y61.102 E0.9013
G1 X82.961 Y61.163 E0.9413
G1 X83.056 Y61.176 E0.9456
G1 X83.951 Y61.362 E0.9867
G1 X84.043 Y61.388 E0.9910
G1 X84.894 Y61.690 E1.0315
G1 X84.960 Y61.717 E1.0347
G1 X85.394 Y61.924 E1.0563
G1 X85.457 Y61.958 E1.0595
G1 X86.228 Y62.427 E1.1001
G1 X86.307 Y62.482 E1.1044
G1 X87.007 Y63.052 E1.1449
G1 X87.060 Y63.100 E1.1481
G1 X87.400 Y63.440 E1.1697
G1 X87.448 Y63.493 E1.1729
G1 X88.018 Y64.193 E1.2135
G1 X88.073 Y64.272 E1.2178
G1 X88.548 Y65.053 E1.2588
G1 X88.593 Y65.138 E1.2631
G1 X88.957 Y65.977 E1.3042
G1 X88.989 Y66.067 E1.3085
G1 X89.232 Y66.937 E1.3490
G1 X89.248 Y67.006 E1.3523
G1 X89.330 Y67.480 E1.3738
G1 X89.338 Y67.551 E1.3771
G1 X89.398 Y68.429 E1.4165
G1 X89.400 Y68.476 E1.4187
G1 X89.400 Y88.080 E2.2989
G1 X88.580 Y88.900 E2.3510
G1 X82.170 Y88.900 E2.6388
G1 X81.350 Y88.080 E2.6909
G1 X81.350 Y73.900 E3.3276
G1 X68.650 Y73.900 E3.8978
G1 X68.650 Y88.080 E4.5345
G1 X67.830 Y88.900 E4.5866
G1 X61.420 Y88.900 E4.8744
G1 X60.600 Y88.079 E4.9265
G1 X60.614 Y68.041 E5.8263
G1 X60.621 Y67.946 E5.8305
G1 X60.745 Y67.041 E5.8715
G1 X60.764 Y66.948 E5.8758
G1 X61.011 Y66.067 E5.9169
G1 X61.043 Y65.977 E5.9212
G1 X61.408 Y65.138 E5.9622
G1 X61.452 Y65.053 E5.9665
G1 X61.921 Y64.281 E6.0071
G1 X61.961 Y64.222 E6.0103
G1 X62.244 Y63.849 E6.0313
G1 X62.275 Y63.812 E6.0335
G1 X62.584 Y63.457 E6.0546
G1 X62.633 Y63.406 E6.0578
G1 X62.914 Y63.691 F4800
G92 E0.0000
G1 X63.550 Y63.097 E0.0391 F1200
G1 X63.589 Y63.064 E0.0414
G1 X63.956 Y62.786 E0.0620
G1 X63.998 Y62.757 E0.0643
G1 X64.749 Y62.300 E0.1038
G1 X64.810 Y62.269 E0.1069
G1 X65.616 Y61.919 E0.1464
G1 X65.664 Y61.901 E0.1487
G1 X66.103 Y61.762 E0.1693
G1 X66.152 Y61.749 E0.1716
G1 X67.012 Y61.570 E0.2110
G1 X67.080 Y61.561 E0.2141
G1 X67.949 Y61.501 E0.2532
G1 X67.983 Y61.500 E0.2548
G1 X82.017 Y61.500 E0.8849
G1 X82.051 Y61.501 E0.8864
G1 X82.920 Y61.561 E0.9255
G1 X82.988 Y61.570 E0.9286
G1 X83.856 Y61.751 E0.9684
G1 X83.922 Y61.769 E0.9715
G1 X84.750 Y62.063 E1.0110
G1 X84.797 Y62.083 E1.0133
G1 X85.213 Y62.281 E1.0339
G1 X85.258 Y62.305 E1.0362
G1 X86.009 Y62.762 E1.0757
G1 X86.065 Y62.801 E1.0788
G1 X86.747 Y63.356 E1.1182
G1 X86.785 Y63.390 E1.1205
G1 X87.110 Y63.715 E1.1412
G1 X87.144 Y63.753 E1.1435
G1 X87.699 Y64.435 E1.1829
G1 X87.738 Y64.491 E1.1860
G1 X88.200 Y65.249 E1.2259
G1 X88.231 Y65.310 E1.2289
G1 X88.584 Y66.124 E1.2688
G1 X88.607 Y66.188 E1.2718
G1 X88.844 Y67.035 E1.3113
G1 X88.856 Y67.085 E1.3136
G1 X88.934 Y67.538 E1.3343
G1 X88.940 Y67.589 E1.3366
G1 X88.999 Y68.449 E1.3753
G1 X89.000 Y68.483 E1.3768
G1 X89.000 Y87.914 E2.2493
G1 X88.414 Y88.500 E2.2865
G1 X82.336 Y88.500 E2.5594
G1 X81.750 Y87.914 E2.5966
G1 X81.750 Y73.500 E3.2438
G1 X68.250 Y73.500 E3.8500
G1 X68.250 Y87.914 E4.4972
G1 X67.664 Y88.500 E4.5344
G1 X61.586 Y88.500 E4.8073
G1 X61.000 Y87.914 E4.8446
G1 X61.014 Y68.054 E5.7363
G1 X61.019 Y67.987 E5.7393
G1 X61.139 Y67.109 E5.7791
G1 X61.153 Y67.043 E5.7821
G1 X61.393 Y66.188 E5.8220
G1 X61.416 Y66.124 E5.8250
G1 X61.769 Y65.310 E5.8649
G1 X61.801 Y65.249 E5.8680
G1 X62.257 Y64.498 E5.9074
G1 X62.286 Y64.456 E5.9097
G1 X62.559 Y64.096 E5.9300
G1 X62.581 Y64.070 E5.9315
G1 X62.878 Y63.728 E5.9519
G1 X62.914 Y63.691 E5.9542
G1 X63.194 Y63.976 F4800
G92 E0.0000
G1 X63.815 Y63.397 E0.0381 F1200
G1 X63.839 Y63.377 E0.0395
G1 X64.189 Y63.111 E0.0593
G1 X64.215 Y63.094 E0.0607
G1 X64.946 Y62.649 E0.0991
G1 X64.982 Y62.630 E0.1009
G1 X65.766 Y62.290 E0.1393
G1 X65.795 Y62.279 E0.1407
G1 X66.214 Y62.146 E0.1604
G1 X66.244 Y62.138 E0.1618
G1 X67.080 Y61.964 E0.2002
G1 X67.121 Y61.959 E0.2020
G1 X67.969 Y61.901 E0.2402
G1 X67.990 Y61.900 E0.2411
G1 X82.010 Y61.900 E0.8706
G1 X82.031 Y61.901 E0.8716
G1 X82.879 Y61.959 E0.9097
G1 X82.920 Y61.964 E0.9116
G1 X83.761 Y62.139 E0.9502
G1 X83.801 Y62.150 E0.9520
G1 X84.606 Y62.437 E0.9904
G1 X84.634 Y62.448 E0.9918
G1 X85.032 Y62.637 E1.0115
G1 X85.059 Y62.652 E1.0129
G1 X85.790 Y63.096 E1.0513
G1 X85.823 Y63.120 E1.0531
G1 X86.486 Y63.660 E1.0915
G1 X86.509 Y63.680 E1.0929
G1 X86.820 Y63.991 E1.1127
G1 X86.840 Y64.014 E1.1140
G1 X87.380 Y64.677 E1.1524
G1 X87.404 Y64.710 E1.1543
G1 X87.851 Y65.446 E1.1929
G1 X87.870 Y65.482 E1.1947
G1 X88.212 Y66.271 E1.2333
G1 X88.226 Y66.309 E1.2352
G1 X88.456 Y67.133 E1.2736
G1 X88.463 Y67.163 E1.2750
G1 X88.538 Y67.596 E1.2947
G1 X88.542 Y67.626 E1.2961
G1 X88.599 Y68.469 E1.3340
G1 X88.600 Y68.490 E1.3349
G1 X88.600 Y87.749 E2.1997
G1 X88.249 Y88.100 E2.2220
G1 X82.501 Y88.100 E2.4800
G1 X82.150 Y87.749 E2.5024
G1 X82.150 Y73.100 E3.1601
G1 X67.850 Y73.100 E3.8022
G1 X67.850 Y87.749 E4.4599
G1 X67.499 Y88.100 E4.4822
G1 X61.751 Y88.100 E4.7403
G1 X61.400 Y87.748 E4.7626
G1 X61.414 Y68.068 E5.6463
G1 X61.417 Y68.028 E5.6481
G1 X61.534 Y67.178 E5.6866
G1 X61.542 Y67.137 E5.6885
G1 X61.774 Y66.309 E5.7271
G1 X61.788 Y66.271 E5.7289
G1 X62.130 Y65.482 E5.7675
G1 X62.149 Y65.445 E5.7694
G1 X62.594 Y64.715 E5.8078
G1 X62.611 Y64.689 E5.8092
G1 X62.874 Y64.343 E5.8287
G1 X62.887 Y64.327 E5.8296
G1 X63.173 Y63.999 E5.8492
G1 X63.194 Y63.976 E5.8506
G1 X63.475 Y64.262 F4800
G92 E0.0000
G1 X64.081 Y63.696 E0.0372 F1200
G1 X64.089 Y63.689 E0.0377
G1 X64.423 Y63.436 E0.0565
G1 X64.431 Y63.430 E0.0570
G1 X65.142 Y62.998 E0.0943
G1 X65.154 Y62.992 E0.0949
G1 X65.916 Y62.661 E0.1322
G1 X65.926 Y62.657 E0.1327
G1 X66.325 Y62.530 E0.1515
G1 X66.335 Y62.528 E0.1520
G1 X67.148 Y62.359 E0.1893
G1 X67.162 Y62.357 E0.1899
G1 X67.990 Y62.300 E0.2271
G1 X67.997 Y62.300 E0.2274
G1 X82.003 Y62.300 E0.8564
G1 X82.010 Y62.300 E0.8567
G1 X82.838 Y62.357 E0.8939
G1 X82.852 Y62.359 E0.8945
G1 X83.667 Y62.528 E0.9319
G1 X83.680 Y62.532 E0.9325
G1 X84.462 Y62.810 E0.9698
G1 X84.472 Y62.814 E0.9703
G1 X84.851 Y62.994 E0.9891
G1 X84.860 Y62.999 E0.9896
G1 X85.570 Y63.431 E1.0269
G1 X85.581 Y63.439 E1.0275
G1 X86.226 Y63.963 E1.0648
G1 X86.233 Y63.970 E1.0653
G1 X86.530 Y64.267 E1.0841
G1 X86.537 Y64.274 E1.0846
G1 X87.061 Y64.919 E1.1219
G1 X87.069 Y64.930 E1.1225
G1 X87.502 Y65.642 E1.1599
G1 X87.508 Y65.654 E1.1605
G1 X87.840 Y66.418 E1.1979
G1 X87.844 Y66.431 E1.1985
G1 X88.068 Y67.231 E1.2358
G1 X88.071 Y67.241 E1.2363
G1 X88.142 Y67.654 E1.2551
G1 X88.143 Y67.664 E1.2556
G1 X88.200 Y68.490 E1.2928
G1 X88.200 Y68.497 E1.2931
G1 X88.200 Y87.583 E2.1501
G1 X88.083 Y87.700 E2.1575
G1 X82.667 Y87.700 E2.4007
G1 X82.550 Y87.583 E2.4081
G1 X82.550 Y72.700 E3.0764
G1 X67.450 Y72.700 E3.7544
G1 X67.450 Y87.583 E4.4226
G1 X67.333 Y87.700 E4.4301
G1 X61.917 Y87.700 E4.6732
G1 X61.800 Y87.583 E4.6807
G1 X61.814 Y68.082 E5.5563
G1 X61.815 Y68.069 E5.5569
G1 X61.928 Y67.246 E5.5942
G1 X61.931 Y67.232 E5.5948
G1 X62.156 Y66.431 E5.6322
G1 X62.160 Y66.418 E5.6328
G1 X62.492 Y65.654 E5.6702
G1 X62.498 Y65.642 E5.6708
G1 X62.930 Y64.931 E5.7081
G1 X62.936 Y64.923 E5.7086
G1 X63.188 Y64.590 E5.7274
G1 X63.193 Y64.585 E5.7277
G1 X63.468 Y64.269 E5.7465
G1 X63.475 Y64.262 E5.7469
; feature inner perimeter
G1 X64.587 Y64.847 F4800
G92 E0.0000
G1 X64.845 Y64.622 E0.0153 F900
G1 X65.117 Y64.416 E0.0307
G1 X65.402 Y64.228 E0.0460
G1 X65.700 Y64.061 E0.0613
G1 X66.008 Y63.915 E0.0766
G1 X66.326 Y63.789 E0.0920
G1 X66.651 Y63.686 E0.1073
G1 X66.983 Y63.605 E0.1227
G1 X67.589 Y63.501 E0.1503
G1 X67.274 Y63.882 E0.1725
G1 X67.088 Y64.174 E0.1880
G1 X66.941 Y64.487 E0.2035
G1 X66.834 Y64.816 E0.2191
G1 X66.770 Y65.153 E0.2345
G1 X66.750 Y65.463 E0.2484
G1 X66.750 Y68.532 E0.3862
G1 X66.770 Y68.847 E0.4004
G1 X66.834 Y69.184 E0.4158
G1 X66.941 Y69.513 E0.4314
G1 X67.088 Y69.826 E0.4469
G1 X67.274 Y70.118 E0.4624
G1 X67.494 Y70.384 E0.4779
G1 X67.746 Y70.621 E0.4934
G1 X68.025 Y70.823 E0.5089
G1 X68.329 Y70.990 E0.5245
G1 X68.649 Y71.117 E0.5400
