; G-Code generated by Simplify3D(R) Version 4.1.2
; Dec 15, 2021 at 4:50:54 PM
; Settings Summary
;   processName,Process1
;   applyToModels,br_zlsensor_v2
;   profileName,Z6 (modified)
;   profileVersion,2021-11-11 15:28:54
;   baseProfile,Default (modified)
;   printMaterial,PLA
;   printQuality,Medium
;   printExtruders,
;   extruderName,Primary Extruder
;   extruderToolheadNumber,0
;   extruderDiameter,0.4
;   extruderAutoWidth,1
;   extruderWidth,0.48
;   extrusionMultiplier,1
;   extruderUseRetract,1
;   extruderRetractionDistance,10
;   extruderExtraRestartDistance,0
;   extruderRetractionZLift,0
;   extruderRetractionSpeed,1800
;   extruderUseCoasting,0
;   extruderCoastingDistance,0.2
;   extruderUseWipe,1
;   extruderWipeDistance,1.5
;   primaryExtruder,0
;   layerHeight,0.2
;   topSolidLayers,3
;   bottomSolidLayers,3
;   perimeterOutlines,3
;   printPerimetersInsideOut,1
;   startPointOption,2
;   startPointOriginX,0
;   startPointOriginY,0
;   sequentialIslands,0
;   spiralVaseMode,0
;   firstLayerHeightPercentage,150
;   firstLayerWidthPercentage,100
;   firstLayerUnderspeed,0.5
;   useRaft,0
;   raftExtruder,0
;   raftTopLayers,3
;   raftBaseLayers,2
;   raftOffset,3
;   raftSeparationDistance,0.14
;   raftTopInfill,100
;   aboveRaftSpeedMultiplier,0.5
;   useSkirt,0
;   skirtExtruder,0
;   skirtLayers,1
;   skirtOutlines,5
;   skirtOffset,0
;   usePrimePillar,0
;   primePillarExtruder,999
;   primePillarWidth,12
;   primePillarLocation,7
;   primePillarSpeedMultiplier,1
;   useOozeShield,0
;   oozeShieldExtruder,999
;   oozeShieldOffset,2
;   oozeShieldOutlines,1
;   oozeShieldSidewallShape,1
;   oozeShieldSidewallAngle,30
;   oozeShieldSpeedMultiplier,1
;   infillExtruder,0
;   internalInfillPattern,Fast Honeycomb
;   externalInfillPattern,Rectilinear
;   infillPercentage,50
;   outlineOverlapPercentage,25
;   infillExtrusionWidthPercentage,100
;   minInfillLength,5
;   infillLayerInterval,1
;   internalInfillAngles,0
;   overlapInternalInfillAngles,0
;   externalInfillAngles,45,-45
;   generateSupport,1
;   supportExtruder,0
;   supportInfillPercentage,10
;   supportExtraInflation,0
;   supportBaseLayers,0
;   denseSupportExtruder,0
;   denseSupportLayers,0
;   denseSupportInfillPercentage,70
;   supportLayerInterval,1
;   supportHorizontalPartOffset,0.3
;   supportUpperSeparationLayers,1
;   supportLowerSeparationLayers,1
;   supportType,1
;   supportGridSpacing,4
;   maxOverhangAngle,80
;   supportAngles,0
;   temperatureName,Primary Extruder,bed
;   temperatureNumber,0,0
;   temperatureSetpointCount,1,1
;   temperatureSetpointLayers,1,1
;   temperatureSetpointTemperatures,200,60
;   temperatureStabilizeAtStartup,1,1
;   temperatureHeatedBed,0,1
;   fanLayers,1,2
;   fanSpeeds,0,100
;   blipFanToFullPower,0
;   adjustSpeedForCooling,1
;   minSpeedLayerTime,15
;   minCoolingSpeedSlowdown,20
;   increaseFanForCooling,0
;   minFanLayerTime,45
;   maxCoolingFanSpeed,100
;   increaseFanForBridging,0
;   bridgingFanSpeed,100
;   use5D,1
;   relativeEdistances,0
;   allowEaxisZeroing,1
;   independentExtruderAxes,0
;   includeM10123,0
;   stickySupport,1
;   applyToolheadOffsets,0
;   gcodeXoffset,0
;   gcodeYoffset,0
;   gcodeZoffset,0
;   overrideMachineDefinition,1
;   machineTypeOverride,0
;   strokeXoverride,150
;   strokeYoverride,150
;   strokeZoverride,150
;   originOffsetXoverride,0
;   originOffsetYoverride,0
;   originOffsetZoverride,0
;   homeXdirOverride,-1
;   homeYdirOverride,-1
;   homeZdirOverride,-1
;   flipXoverride,1
;   flipYoverride,-1
;   flipZoverride,1
;   toolheadOffsets,0,0|0,0|0,0|0,0|0,0|0,0
;   overrideFirmwareConfiguration,0
;   firmwareTypeOverride,RepRap (Marlin/Repetier/Sprinter)
;   GPXconfigOverride,r2
;   baudRateOverride,115200
;   overridePrinterModels,0
;   printerModelsOverride
;   startingGcode,G28 ; home all axes,G1 Z5 F3000 ; lift,G1 X5 Y10 F1500 ; move to prime,G1 Z0.2 F3000 ; get ready to prime,G92 E0 ; reset extrusion distance,G1 Y120 E10 F600 ; prime nozzle,G1 Y80 F5000 ; quick wipe,G92 E0 ; reset extrusion distance
;   layerChangeGcode,
;   retractionGcode,
;   toolChangeGcode,G92 E0,G1 E-10 F1800,G92 E0
;   endingGcode,G28 XY; home x&y axis,M106 S0 ; turn off cooling fan,M104 S0 ; turn off extruder,M140 S0 ; turn off bed,M84 ; disable motors
;   exportFileFormat,gcode
;   celebration,0
;   celebrationSong,Star Wars
;   postProcessing,
;   defaultSpeed,3000
;   outlineUnderspeed,0.5
;   solidInfillUnderspeed,0.8
;   supportUnderspeed,0.8
;   rapidXYspeed,4800
;   rapidZspeed,720
;   minBridgingArea,50
;   bridgingExtraInflation,0
;   bridgingExtrusionMultiplier,1
;   bridgingSpeedMultiplier,1
;   useFixedBridgingAngle,0
;   fixedBridgingAngle,0
;   applyBridgingToPerimeters,0
;   filamentDiameters,1.75|1.75|1.75|1.75|1.75|1.75
;   filamentPricesPerKg,46|46|46|46|46|46
;   filamentDensities,1.25|1.25|1.25|1.25|1.25|1.25
;   useMinPrintHeight,0
;   minPrintHeight,0
;   useMaxPrintHeight,0
;   maxPrintHeight,1
;   useDiaphragm,0
;   diaphragmLayerInterval,20
;   robustSlicing,1
;   mergeAllIntoSolid,0
;   onlyRetractWhenCrossingOutline,0
;   retractBetweenLayers,1
;   useRetractionMinTravel,1
;   retractionMinTravel,3
;   retractWhileWiping,0
;   onlyWipeOutlines,1
;   avoidCrossingOutline,0
;   maxMovementDetourFactor,3
;   toolChangeRetractionDistance,12
;   toolChangeExtraRestartDistance,-0.5
;   toolChangeRetractionSpeed,600
;   externalThinWallType,0
;   internalThinWallType,2
;   thinWallAllowedOverlapPercentage,10
;   singleExtrusionMinLength,1
;   singleExtrusionMinPrintingWidthPercentage,50
;   singleExtrusionMaxPrintingWidthPercentage,200
;   singleExtrusionEndpointExtension,0.2
;   horizontalSizeCompensation,0
G90
M82
M106 S0
M140 S60
M190 S60
M104 S200 T0
M109 S200 T0
G28 ; home all axes
G1 Z5 F3000 ; lift
G1 X5 Y10 F1500 ; move to prime
G1 Z0.2 F3000 ; get ready to prime
G92 E0 ; reset extrusion distance
G1 Y120 E10 F600 ; prime nozzle
G1 Y80 F5000 ; quick wipe
G92 E0 ; reset extrusion distance
; process Process1
; layer 1, Z = 0.300
G92 E0
G1 E-10 F1800
G92 E0
T0
G92 E0.0000
G1 E-10.0000 F1800
; feature inner perimeter
; tool H0.300 W0.480
G1 Z0.300 F720
G1 X64.592 Y62.621 F4800
G1 E0.0000 F1800
G92 E0.0000
G1 X64.780 Y62.441 E0.0156 F1125
G1 X65.146 Y62.142 E0.0439
G1 X65.421 Y61.953 E0.0638
G1 X65.714 Y61.780 E0.0842
G1 X66.020 Y61.629 E0.1046
G1 X66.282 Y61.520 E0.1216
G1 X66.648 Y61.396 E0.1448
G1 X67.179 Y61.273 E0.1774
G1 X67.669 Y61.213 E0.2069
G1 X68.021 Y61.200 E0.2281
G1 X81.979 Y61.200 E1.0637
G1 X82.330 Y61.213 E1.0847
G1 X82.839 Y61.276 E1.1154
G1 X83.350 Y61.395 E1.1468
G1 X83.718 Y61.520 E1.1701
G1 X83.980 Y61.629 E1.1871
G1 X84.282 Y61.779 E1.2073
G1 X84.626 Y61.984 E1.2312
G1 X84.858 Y62.145 E1.2481
G1 X85.123 Y62.357 E1.2685
G1 X85.413 Y62.626 E1.2922
G1 X85.643 Y62.876 E1.3125
G1 X85.820 Y63.096 E1.3294
G1 X86.049 Y63.423 E1.3533
G1 X86.220 Y63.714 E1.3735
G1 X86.371 Y64.018 E1.3938
G1 X86.501 Y64.334 E1.4142
G1 X86.607 Y64.656 E1.4346
G1 X86.691 Y64.987 E1.4550
G1 X86.751 Y65.321 E1.4753
G1 X86.787 Y65.659 E1.4957
G1 X86.800 Y66.021 E1.5174
G1 X86.800 Y88.800 E2.8811
G1 X83.950 Y88.800 E3.0517
G1 X83.950 Y75.800 E3.8300
G1 X66.050 Y75.800 E4.9017
G1 X66.050 Y88.800 E5.6799
G1 X63.200 Y88.800 E5.8506
G1 X63.200 Y66.026 E7.2140
G1 X63.219 Y65.603 E7.2394
G1 X63.249 Y65.322 E7.2563
G1 X63.309 Y64.987 E7.2767
G1 X63.393 Y64.656 E7.2971
G1 X63.498 Y64.338 E7.3172
G1 X63.653 Y63.968 E7.3412
G1 X63.779 Y63.716 E7.3581
G1 X63.953 Y63.420 E7.3786
G1 X64.146 Y63.141 E7.3989
G1 X64.359 Y62.874 E7.4193
G1 X64.592 Y62.621 E7.4399
G1 X64.250 Y62.284 F4800
G92 E0.0000
G1 X64.462 Y62.082 E0.0176 F1125
G1 X64.858 Y61.758 E0.0482
G1 X65.162 Y61.548 E0.0703
G1 X65.485 Y61.358 E0.0928
G1 X65.821 Y61.191 E0.1152
G1 X66.113 Y61.070 E0.1341
G1 X66.517 Y60.934 E0.1597
G1 X67.096 Y60.800 E0.1952
G1 X67.631 Y60.734 E0.2275
G1 X68.013 Y60.720 E0.2504
G1 X81.987 Y60.720 E1.0870
G1 X82.369 Y60.734 E1.1099
G1 X82.924 Y60.803 E1.1433
G1 X83.482 Y60.933 E1.1777
G1 X83.887 Y61.070 E1.2033
G1 X84.179 Y61.191 E1.2222
G1 X84.513 Y61.357 E1.2445
G1 X84.886 Y61.580 E1.2705
G1 X85.145 Y61.760 E1.2894
G1 X85.437 Y61.993 E1.3118
G1 X85.753 Y62.288 E1.3376
G1 X86.007 Y62.563 E1.3600
G1 X86.205 Y62.808 E1.3789
G1 X86.453 Y63.164 E1.4049
G1 X86.642 Y63.485 E1.4272
G1 X86.808 Y63.820 E1.4496
G1 X86.951 Y64.167 E1.4720
G1 X87.068 Y64.522 E1.4944
G1 X87.160 Y64.885 E1.5169
G1 X87.226 Y65.253 E1.5393
G1 X87.266 Y65.625 E1.5616
G1 X87.280 Y66.013 E1.5849
G1 X87.280 Y89.280 E2.9778
G1 X83.470 Y89.280 E3.2059
G1 X83.470 Y76.280 E3.9842
G1 X66.530 Y76.280 E4.9984
G1 X66.530 Y89.280 E5.7767
G1 X62.720 Y89.280 E6.0048
G1 X62.720 Y66.016 E7.3975
G1 X62.740 Y65.567 E7.4245
G1 X62.773 Y65.253 E7.4433
G1 X62.840 Y64.885 E7.4657
G1 X62.932 Y64.522 E7.4882
G1 X63.048 Y64.169 E7.5104
G1 X63.217 Y63.768 E7.5365
G1 X63.357 Y63.486 E7.5553
G1 X63.548 Y63.162 E7.5778
G1 X63.760 Y62.854 E7.6002
G1 X63.994 Y62.562 E7.6226
G1 X64.250 Y62.284 E7.6452
; feature outer perimeter
G1 X63.907 Y61.948 F4800
G92 E0.0000
G1 X64.144 Y61.722 E0.0196 F750
G1 X64.569 Y61.374 E0.0525
G1 X64.904 Y61.143 E0.0768
G1 X65.257 Y60.936 E0.1013
G1 X65.622 Y60.754 E0.1257
G1 X65.944 Y60.621 E0.1466
G1 X66.386 Y60.471 E0.1745
G1 X67.012 Y60.326 E0.2130
G1 X67.592 Y60.255 E0.2480
G1 X68.004 Y60.240 E0.2727
G1 X81.996 Y60.240 E1.1103
G1 X82.407 Y60.255 E1.1350
G1 X83.008 Y60.330 E1.1712
G1 X83.614 Y60.471 E1.2085
G1 X84.056 Y60.621 E1.2364
G1 X84.378 Y60.754 E1.2573
G1 X84.743 Y60.935 E1.2817
G1 X85.146 Y61.176 E1.3098
G1 X85.432 Y61.374 E1.3306
G1 X85.751 Y61.630 E1.3551
G1 X86.094 Y61.949 E1.3831
G1 X86.371 Y62.249 E1.4076
G1 X86.589 Y62.520 E1.4284
G1 X86.857 Y62.905 E1.4565
G1 X87.064 Y63.257 E1.4809
G1 X87.246 Y63.622 E1.5053
G1 X87.401 Y64.000 E1.5298
G1 X87.529 Y64.387 E1.5543
G1 X87.630 Y64.784 E1.5787
G1 X87.702 Y65.185 E1.6032
G1 X87.745 Y65.590 E1.6276
G1 X87.760 Y66.004 E1.6524
G1 X87.760 Y89.760 E3.0746
G1 X82.990 Y89.760 E3.3601
G1 X82.990 Y76.760 E4.1384
G1 X67.010 Y76.760 E5.0951
G1 X67.010 Y89.760 E5.8734
G1 X62.240 Y89.760 E6.1590
G1 X62.240 Y66.005 E7.5811
G1 X62.261 Y65.531 E7.6096
G1 X62.298 Y65.185 E7.6304
G1 X62.370 Y64.784 E7.6548
G1 X62.471 Y64.387 E7.6793
G1 X62.598 Y64.001 E7.7037
G1 X62.780 Y63.567 E7.7318
G1 X62.936 Y63.257 E7.7526
G1 X63.143 Y62.904 E7.7771
G1 X63.375 Y62.568 E7.8015
G1 X63.630 Y62.249 E7.8260
G1 X63.907 Y61.948 E7.8505
G1 X64.144 Y61.722 F750
G1 X64.569 Y61.374
G1 X64.904 Y61.143
G1 X65.091 Y61.033
; feature inner perimeter
G1 X67.402 Y62.922 F4800
G92 E0.0000
G1 X67.156 Y63.205 E0.0224 F1125
G1 X66.983 Y63.459 E0.0408
G1 X66.774 Y63.864 E0.0681
G1 X66.647 Y64.240 E0.0919
G1 X66.573 Y64.615 E0.1148
G1 X66.550 Y64.960 E0.1355
G1 X66.550 Y70.040 E0.4396
G1 X66.573 Y70.394 E0.4608
G1 X66.660 Y70.801 E0.4858
G1 X66.770 Y71.125 E0.5062
G1 X66.938 Y71.468 E0.5291
G1 X67.151 Y71.788 E0.5521
G1 X67.402 Y72.078 E0.5751
G1 X67.696 Y72.337 E0.5985
G1 X68.046 Y72.569 E0.6237
G1 X68.349 Y72.718 E0.6439
G1 X68.671 Y72.834 E0.6644
G1 X69.134 Y72.930 E0.6926
G1 X69.522 Y72.952 E0.7160
G1 X69.874 Y72.929 E0.7371
G1 X70.344 Y72.830 E0.7658
G1 X70.653 Y72.717 E0.7855
G1 X70.950 Y72.570 E0.8053
G1 X71.268 Y72.364 E0.8281
G1 X71.591 Y72.085 E0.8536
G1 X71.821 Y71.822 E0.8745
G1 X72.058 Y71.475 E0.8997
G1 X72.230 Y71.124 E0.9231
G1 X72.353 Y70.760 E0.9461
G1 X72.427 Y70.385 E0.9690
G1 X72.450 Y70.040 E0.9897
G1 X72.450 Y64.960 E1.2938
G1 X72.427 Y64.606 E1.3150
G1 X72.340 Y64.199 E1.3399
G1 X72.230 Y63.875 E1.3604
G1 X72.062 Y63.532 E1.3833
G1 X71.845 Y63.205 E1.4068
G1 X71.566 Y62.892 E1.4319
G1 X71.307 Y62.666 E1.4524
G1 X70.992 Y62.453 E1.4752
G1 X70.657 Y62.284 E1.4977
G1 X70.350 Y62.172 E1.5173
G1 X69.912 Y62.076 E1.5441
G1 X69.478 Y62.048 E1.5701
G1 X69.084 Y62.077 E1.5938
G1 X68.666 Y62.168 E1.6194
G1 X68.349 Y62.282 E1.6396
G1 X68.046 Y62.431 E1.6598
G1 X67.696 Y62.663 E1.6849
G1 X67.402 Y62.922 E1.7084
G1 X67.744 Y63.261 F4800
G92 E0.0000
G1 X67.537 Y63.499 E0.0189 F1125
G1 X67.396 Y63.705 E0.0338
G1 X67.217 Y64.052 E0.0572
G1 X67.112 Y64.364 E0.0769
G1 X67.050 Y64.678 E0.0961
G1 X67.030 Y64.976 E0.1140
G1 X67.030 Y70.024 E0.4162
G1 X67.050 Y70.328 E0.4344
G1 X67.124 Y70.673 E0.4556
G1 X67.215 Y70.941 E0.4725
G1 X67.356 Y71.229 E0.4917
G1 X67.534 Y71.497 E0.5109
G1 X67.744 Y71.739 E0.5301
G1 X67.988 Y71.955 E0.5497
G1 X68.286 Y72.151 E0.5710
G1 X68.537 Y72.275 E0.5878
G1 X68.802 Y72.371 E0.6046
G1 X69.196 Y72.453 E0.6287
G1 X69.520 Y72.471 E0.6482
G1 X69.809 Y72.452 E0.6655
G1 X70.212 Y72.367 E0.6901
G1 X70.464 Y72.275 E0.7062
G1 X70.712 Y72.152 E0.7228
G1 X70.979 Y71.979 E0.7419
G1 X71.252 Y71.743 E0.7634
G1 X71.441 Y71.527 E0.7806
G1 X71.642 Y71.233 E0.8020
G1 X71.785 Y70.941 E0.8214
G1 X71.888 Y70.636 E0.8407
G1 X71.950 Y70.322 E0.8598
G1 X71.970 Y70.024 E0.8777
G1 X71.970 Y64.976 E1.1799
G1 X71.950 Y64.672 E1.1982
G1 X71.876 Y64.327 E1.2193
G1 X71.785 Y64.059 E1.2363
G1 X71.644 Y63.771 E1.2554
G1 X71.464 Y63.499 E1.2750
G1 X71.227 Y63.234 E1.2963
G1 X71.013 Y63.046 E1.3133
G1 X70.749 Y62.868 E1.3324
G1 X70.466 Y62.726 E1.3513
G1 X70.215 Y62.634 E1.3673
G1 X69.845 Y62.552 E1.3900
G1 X69.480 Y62.529 E1.4119
G1 X69.153 Y62.553 E1.4316
G1 X68.799 Y62.630 E1.4533
G1 X68.537 Y62.725 E1.4699
G1 X68.286 Y62.849 E1.4867
G1 X67.988 Y63.045 E1.5080
G1 X67.744 Y63.261 E1.5276
; feature outer perimeter
G1 X68.086 Y63.600 F4800
G92 E0.0000
G1 X67.917 Y63.793 E0.0154 F750
G1 X67.809 Y63.952 E0.0269
G1 X67.660 Y64.240 E0.0463
G1 X67.576 Y64.488 E0.0620
G1 X67.527 Y64.740 E0.0774
G1 X67.510 Y64.992 E0.0925
G1 X67.510 Y70.008 E0.3927
G1 X67.527 Y70.261 E0.4080
G1 X67.587 Y70.545 E0.4253
G1 X67.660 Y70.758 E0.4388
G1 X67.773 Y70.989 E0.4542
G1 X67.916 Y71.206 E0.4697
G1 X68.086 Y71.400 E0.4852
G1 X68.281 Y71.573 E0.5008
G1 X68.525 Y71.734 E0.5183
G1 X68.725 Y71.833 E0.5317
G1 X68.933 Y71.908 E0.5449
G1 X69.258 Y71.975 E0.5648
G1 X69.518 Y71.990 E0.5803
G1 X69.743 Y71.975 E0.5939
G1 X70.079 Y71.904 E0.6144
G1 X70.275 Y71.833 E0.6269
G1 X70.475 Y71.735 E0.6402
G1 X70.690 Y71.594 E0.6556
G1 X70.913 Y71.402 E0.6732
G1 X71.061 Y71.233 E0.6867
G1 X71.226 Y70.991 E0.7042
G1 X71.341 Y70.758 E0.7198
G1 X71.424 Y70.512 E0.7353
G1 X71.473 Y70.260 E0.7507
G1 X71.490 Y70.008 E0.7658
G1 X71.490 Y64.992 E1.0661
G1 X71.473 Y64.739 E1.0813
G1 X71.413 Y64.455 E1.0987
G1 X71.340 Y64.242 E1.1121
G1 X71.227 Y64.011 E1.1276
G1 X71.083 Y63.793 E1.1432
G1 X70.889 Y63.575 E1.1607
G1 X70.720 Y63.427 E1.1741
G1 X70.506 Y63.283 E1.1895
G1 X70.276 Y63.167 E1.2050
G1 X70.080 Y63.096 E1.2174
G1 X69.777 Y63.029 E1.2360
G1 X69.482 Y63.010 E1.2537
G1 X69.222 Y63.029 E1.2693
G1 X68.932 Y63.093 E1.2871
G1 X68.725 Y63.167 E1.3003
G1 X68.525 Y63.266 E1.3136
G1 X68.281 Y63.427 E1.3311
G1 X68.086 Y63.600 E1.3467
G92 E0.0000
G1 E-10.0000 F1800
G1 X67.917 Y63.793 F750
G1 X67.809 Y63.952
G1 X67.660 Y64.240
G1 X67.576 Y64.488
G1 X67.527 Y64.740
G1 X67.513 Y64.948
; feature inner perimeter
G1 X77.550 Y64.960 F4800
G1 E0.0000 F1800
G92 E0.0000
G1 X77.550 Y70.049 E0.3046 F1125
G1 X77.581 Y70.427 E0.3274
G1 X77.647 Y70.760 E0.3477
G1 X77.775 Y71.138 E0.3716
G1 X78.013 Y71.596 E0.4025
G1 X78.387 Y72.066 E0.4384
G1 X78.726 Y72.359 E0.4652
G1 X79.011 Y72.549 E0.4857
G1 X79.357 Y72.723 E0.5089
G1 X79.756 Y72.856 E0.5341
G1 X80.095 Y72.924 E0.5548
G1 X80.478 Y72.952 E0.5778
G1 X80.914 Y72.924 E0.6040
G1 X81.396 Y72.816 E0.6335
G1 X81.925 Y72.586 E0.6681
G1 X82.268 Y72.363 E0.6926
G1 X82.591 Y72.085 E0.7181
G1 X82.822 Y71.821 E0.7391
G1 X83.062 Y71.468 E0.7647
G1 X83.231 Y71.123 E0.7877
G1 X83.353 Y70.760 E0.8106
G1 X83.427 Y70.385 E0.8335
G1 X83.450 Y70.040 E0.8542
G1 X83.450 Y64.960 E1.1583
G1 X83.427 Y64.606 E1.1795
G1 X83.340 Y64.199 E1.2044
G1 X83.230 Y63.876 E1.2249
G1 X83.066 Y63.540 E1.2473
G1 X82.845 Y63.206 E1.2712
G1 X82.566 Y62.892 E1.2964
G1 X82.307 Y62.666 E1.3170
G1 X81.992 Y62.453 E1.3397
G1 X81.659 Y62.285 E1.3621
G1 X81.362 Y62.176 E1.3810
G1 X80.914 Y62.076 E1.4085
G1 X80.478 Y62.048 E1.4346
G1 X80.086 Y62.077 E1.4582
G1 X79.678 Y62.164 E1.4831
G1 X79.350 Y62.281 E1.5040
G1 X79.046 Y62.431 E1.5243
