;FLAVOR:Marlin
;TIME:2994
;Filament used: 3.97234m, 0m, 0m, 0m
;Layer height: 0.2
;MINX:140.2
;MINY:140.2
;MINZ:0.3
;MAXX:169.8
;MAXY:169.8
;MAXZ:50.1
;Generated with Cura_SteamEngine 4.12.1
T0
M140 S60
M105
M190 S60
M104 S200
M105
M109 S200
M82 ;absolute extrusion mode
G90
M182 S1 N10 Z40 T23 L350
G28
G1 Z15 F300
M107
;Prime the extruder
T0
G92 E0
G1 F200 E3
G92 E0
G1 X5 Y10 F1500 ; move to prime
G1 Z0.2 F3000 ; get ready to prime
G92 E0 ; reset extrusion distance
G1 Y250 E15 F600 ; prime nozzle
G1 X4.5 F3000
G92 E0
G1 Y10 E15 F600
G92 E0
G1 X4 F3000
G1 Y250 E15 F600 ; prime nozzle
G92 E0
G1 Y100 F6000 ; quick wipe
G1 Z0.5 F480
G1 E-10 F1800
G92 E0
;start gcode of Extruder 1 
M163 S0 P100
M163 S1 P0
M163 S2 P0
M163 S3 P0
M164 S0
G92 E0
G1 F1500 E-6.5
;LAYER_COUNT:250
;LAYER:0
M107
;MESH:Tall Box.STL
G0 F1800 X168.6 Y168.6 Z0.3
;TYPE:WALL-INNER
G1 F1500 E0
G1 F600 X141.4 Y168.6 E1.35701
G1 X141.4 Y141.4 E2.71403
G1 X168.6 Y141.4 E4.07104
G1 X168.6 Y166.935 E5.34499
G0 F720 X168.6 Y168.6
G0 F1800 X169 Y169
G1 F600 X141 Y169 E6.74191
G1 X141 Y141 E8.13884
G1 X169 Y141 E9.53576
G1 X169 Y167.335 E10.84962
G0 F720 X169 Y169
G0 F1800 X169.4 Y169.4
G1 F600 X140.6 Y169.4 E12.28646
G1 X140.6 Y140.6 E13.7233
G1 X169.4 Y140.6 E15.16014
G1 X169.4 Y167.735 E16.51391
G0 F720 X169.4 Y169.4
G0 F1800 X169.8 Y169.8
;TYPE:WALL-OUTER
G1 F600 X140.2 Y169.8 E17.99066
G1 X140.2 Y140.2 E19.46741
G1 X169.8 Y140.2 E20.94416
G1 X169.8 Y168.135 E22.33784
G0 F720 X169.8 Y169.8
G0 F1800 X169.6 Y169.8
G0 X169.33 Y169.33
G0 X168.21 Y168.21
;TYPE:SKIN
G1 F600 X141.79 Y168.21 E23.65594
G1 X141.79 Y141.79 E24.97404
G1 X168.21 Y141.79 E26.29214
G1 X168.21 Y166.545 E27.52717
G0 F720 X168.21 Y168.21
G0 F1800 X168.029 Y142.573
G1 F600 X167.425 Y141.97 E27.56975
G0 F1800 X166.86 Y141.97
G1 F600 X168.029 Y143.139 E27.65223
G0 F1800 X168.029 Y143.705
G1 F600 X166.294 Y141.97 E27.77464
G0 F1800 X165.728 Y141.97
G1 F600 X168.029 Y144.27 E27.93695
G0 F1800 X168.029 Y144.836
G1 F600 X165.163 Y141.97 E28.13917
G0 F1800 X164.597 Y141.97
G1 F600 X168.029 Y145.402 E28.38131
G0 F1800 X168.029 Y145.968
G1 F600 X164.031 Y141.97 E28.66339
G0 F1800 X163.466 Y141.97
G1 F600 X168.029 Y146.533 E28.98534
G0 F1800 X168.029 Y147.099
G1 F600 X162.9 Y141.97 E29.34722
G0 F1800 X162.334 Y141.97
G1 F600 X168.029 Y147.665 E29.74903
G0 F1800 X168.029 Y148.23
G1 F600 X161.769 Y141.97 E30.19071
G0 F1800 X161.203 Y141.97
G1 F600 X168.029 Y148.796 E30.67232
G0 F1800 X168.029 Y149.362
G1 F600 X160.637 Y141.97 E31.19386
G0 F1800 X160.072 Y141.97
G1 F600 X168.029 Y149.927 E31.75527
G0 F1800 X168.029 Y150.493
G1 F600 X159.506 Y141.97 E32.35662
G0 F1800 X158.94 Y141.97
G1 F600 X168.029 Y151.059 E32.99789
G0 F1800 X168.029 Y151.624
G1 F600 X158.374 Y141.97 E33.67907
G0 F1800 X157.809 Y141.97
G1 F600 X168.029 Y152.19 E34.40015
G0 F1800 X168.029 Y152.756
G1 F600 X157.243 Y141.97 E35.16116
G0 F1800 X156.677 Y141.97
G1 F600 X168.029 Y153.321 E35.96207
G0 F1800 X168.029 Y153.887
G1 F600 X156.112 Y141.97 E36.80288
G0 F1800 X155.546 Y141.97
G1 F600 X168.029 Y154.453 E37.68362
G0 F1800 X168.029 Y155.019
G1 F600 X154.98 Y141.97 E38.6043
G0 F1800 X154.415 Y141.97
G1 F600 X168.029 Y155.584 E39.56484
G0 F1800 X168.029 Y156.15
G1 F600 X153.849 Y141.97 E40.56531
G0 F1800 X153.283 Y141.97
G1 F600 X168.029 Y156.716 E41.60572
G0 F1800 X168.029 Y157.281
G1 F600 X152.718 Y141.97 E42.686
G0 F1800 X152.152 Y141.97
G1 F600 X168.029 Y157.847 E43.8062
G0 F1800 X168.029 Y158.413
G1 F600 X151.586 Y141.97 E44.96635
G0 F1800 X151.021 Y141.97
G1 F600 X168.029 Y158.978 E46.16635
G0 F1800 X168.029 Y159.544
G1 F600 X150.455 Y141.97 E47.40629
G0 F1800 X149.889 Y141.97
G1 F600 X168.029 Y160.11 E48.68617
G0 F1800 X168.029 Y160.675
G1 F600 X149.323 Y141.97 E50.00594
G0 F1800 X148.758 Y141.97
G1 F600 X168.029 Y161.241 E51.36562
G0 F1800 X168.029 Y161.807
G1 F600 X148.192 Y141.97 E52.76522
G0 F1800 X147.626 Y141.97
G1 F600 X168.029 Y162.372 E54.20473
G0 F1800 X168.029 Y162.938
G1 F600 X147.061 Y141.97 E55.68414
G0 F1800 X146.495 Y141.97
G1 F600 X168.029 Y163.504 E57.20348
G0 F1800 X168.029 Y164.069
G1 F600 X145.929 Y141.97 E58.76272
G0 F1800 X145.364 Y141.97
G1 F600 X168.029 Y164.635 E60.36185
G0 F1800 X168.029 Y165.201
G1 F600 X144.798 Y141.97 E62.00093
G0 F1800 X144.232 Y141.97
G1 F600 X168.029 Y165.767 E63.67993
G0 F1800 X168.029 Y166.332
G1 F600 X143.667 Y141.97 E65.3988
G0 F1800 X143.101 Y141.97
G1 F600 X168.029 Y166.898 E67.15761
G0 F1800 X168.029 Y167.464
G1 F600 X142.535 Y141.97 E68.95635
G0 F1800 X141.969 Y141.969
G1 F600 X168.029 Y168.029 E70.79502
G0 F1800 X167.464 Y168.029
G1 F600 X141.969 Y142.535 E72.5938
G0 F1800 X141.969 Y143.1
G1 F600 X166.898 Y168.029 E74.35267
G0 F1800 X166.332 Y168.029
G1 F600 X141.969 Y143.666 E76.07161
G0 F1800 X141.969 Y144.232
G1 F600 X165.767 Y168.029 E77.75066
G0 F1800 X165.201 Y168.029
G1 F600 X141.969 Y144.797 E79.3898
G0 F1800 X141.969 Y145.363
G1 F600 X164.635 Y168.029 E80.98901
G0 F1800 X164.069 Y168.029
G1 F600 X141.969 Y145.929 E82.54828
G0 F1800 X141.969 Y146.494
G1 F600 X163.504 Y168.029 E84.06769
G0 F1800 X162.938 Y168.029
G1 F600 X141.969 Y147.06 E85.54717
G0 F1800 X141.969 Y147.626
G1 F600 X162.372 Y168.029 E86.98671
G0 F1800 X161.807 Y168.029
G1 F600 X141.969 Y148.191 E88.38639
G0 F1800 X141.969 Y148.757
G1 F600 X161.241 Y168.029 E89.74613
G0 F1800 X160.675 Y168.029
G1 F600 X141.969 Y149.323 E91.06594
G0 F1800 X141.969 Y149.888
G1 F600 X160.11 Y168.029 E92.34589
G0 F1800 X159.544 Y168.029
G1 F600 X141.969 Y150.454 E93.5859
G0 F1800 X141.969 Y151.02
G1 F600 X158.978 Y168.029 E94.78597
G0 F1800 X158.413 Y168.029
G1 F600 X141.969 Y151.586 E95.94615
G0 F1800 X141.969 Y152.151
G1 F600 X157.847 Y168.029 E97.06643
G0 F1800 X157.281 Y168.029
G1 F600 X141.969 Y152.717 E98.14678
G0 F1800 X141.969 Y153.283
G1 F600 X156.716 Y168.029 E99.18722
G0 F1800 X156.15 Y168.029
G1 F600 X141.969 Y153.848 E100.18777
G0 F1800 X141.969 Y154.414
G1 F600 X155.584 Y168.029 E101.14838
G0 F1800 X155.019 Y168.029
G1 F600 X141.969 Y154.98 E102.06909
G0 F1800 X141.969 Y155.545
G1 F600 X154.453 Y168.029 E102.9499
G0 F1800 X153.887 Y168.029
G1 F600 X141.969 Y156.111 E103.79078
G0 F1800 X141.969 Y156.677
G1 F600 X153.321 Y168.029 E104.59173
G0 F1800 X152.756 Y168.029
G1 F600 X141.969 Y157.242 E105.35281
G0 F1800 X141.969 Y157.808
G1 F600 X152.19 Y168.029 E106.07396
G0 F1800 X151.624 Y168.029
G1 F600 X141.969 Y158.374 E106.75517
G0 F1800 X141.969 Y158.939
G1 F600 X151.059 Y168.029 E107.39652
G0 F1800 X150.493 Y168.029
G1 F600 X141.969 Y159.505 E107.99793
G0 F1800 X141.969 Y160.071
G1 F600 X149.927 Y168.029 E108.55941
G0 F1800 X149.362 Y168.029
G1 F600 X141.969 Y160.636 E109.08103
G0 F1800 X141.969 Y161.202
G1 F600 X148.796 Y168.029 E109.56271
G0 F1800 X148.23 Y168.029
G1 F600 X141.969 Y161.768 E110.00446
G0 F1800 X141.969 Y162.334
G1 F600 X147.665 Y168.029 E110.40631
G0 F1800 X147.099 Y168.029
G1 F600 X141.969 Y162.899 E110.76825
G0 F1800 X141.969 Y163.465
G1 F600 X146.533 Y168.029 E111.09027
G0 F1800 X145.968 Y168.029
G1 F600 X141.969 Y164.031 E111.37239
G0 F1800 X141.969 Y164.596
G1 F600 X145.402 Y168.029 E111.6146
G0 F1800 X144.836 Y168.029
G1 F600 X141.969 Y165.162 E111.81688
G0 F1800 X141.969 Y165.728
G1 F600 X144.27 Y168.029 E111.97923
G0 F1800 X143.705 Y168.029
G1 F600 X141.969 Y166.293 E112.10172
G0 F1800 X141.969 Y166.859
G1 F600 X143.139 Y168.029 E112.18427
G0 F1800 X142.573 Y168.029
G1 F600 X141.969 Y167.425 E112.22688
G1 X141.899 Y167.355
;MESH:NONMESH
G0 F600 X141.899 Y167.355 Z0.5
G0 F1800 X168.6 Y168.6
;TIME_ELAPSED:165.909536
;LAYER:1
M106 S255
;TYPE:WALL-INNER
;MESH:Tall Box.STL
G1 F2250 X141.4 Y168.6 E113.13156
G1 X141.4 Y141.4 E114.03623
G1 X168.6 Y141.4 E114.94091
G1 X168.6 Y166.1 E115.76243
G0 F1800 X168.6 Y168.6
G0 F3900 X169 Y169
G1 F2250 X141 Y169 E116.69372
G1 X141 Y141 E117.625
G1 X169 Y141 E118.55629
G1 X169 Y166.5 E119.40442
G0 F1800 X169 Y169
G0 F3900 X169.4 Y169.4
G1 F2250 X140.6 Y169.4 E120.36231
G1 X140.6 Y140.6 E121.3202
G1 X169.4 Y140.6 E122.27809
G1 X169.4 Y166.9 E123.15284
G0 F1800 X169.4 Y169.4
G0 F3900 X169.8 Y169.8
;TYPE:WALL-OUTER
G1 F1350 X140.2 Y169.8 E124.13734
G1 X140.2 Y140.2 E125.12184
G1 X169.8 Y140.2 E126.10634
G1 X169.8 Y167.3 E127.00769
G0 F1080 X169.8 Y169.8
G0 F3900 X169.6 Y169.8
G0 X169.33 Y169.33
G0 X168.21 Y168.21
;TYPE:SKIN
G1 F1350 X141.79 Y168.21 E127.88642
G1 X141.79 Y141.79 E128.76515
G1 X168.21 Y141.79 E129.64388
G1 X168.21 Y165.71 E130.43947
G0 F1080 X168.21 Y168.21
G0 F3900 X167.421 Y168.029
G1 F1350 X168.029 Y167.421 E130.46806
G0 F3900 X168.029 Y166.855
G1 F1350 X166.855 Y168.029 E130.52329
G0 F3900 X166.29 Y168.029
G1 F1350 X168.029 Y166.29 E130.60508
G0 F3900 X168.029 Y165.724
G1 F1350 X165.724 Y168.029 E130.7135
G0 F3900 X165.158 Y168.029
G1 F1350 X168.029 Y165.158 E130.84855
G0 F3900 X168.029 Y164.593
G1 F1350 X164.593 Y168.029 E131.01017
G0 F3900 X164.027 Y168.029
G1 F1350 X168.029 Y164.027 E131.19841
G0 F3900 X168.029 Y163.461
G1 F1350 X163.461 Y168.029 E131.41327
G0 F3900 X162.896 Y168.029
G1 F1350 X168.029 Y162.896 E131.65471
G0 F3900 X168.029 Y162.33
G1 F1350 X162.33 Y168.029 E131.92278
G0 F3900 X161.764 Y168.029
G1 F1350 X168.029 Y161.764 E132.21746
G0 F3900 X168.029 Y161.199
G1 F1350 X161.199 Y168.029 E132.53872
G0 F3900 X160.633 Y168.029
G1 F1350 X168.029 Y160.633 E132.88661
G0 F3900 X168.029 Y160.067
G1 F1350 X160.067 Y168.029 E133.26112
G0 F3900 X159.502 Y168.029
G1 F1350 X168.029 Y159.502 E133.6622
G0 F3900 X168.029 Y158.936
G1 F1350 X158.936 Y168.029 E134.08991
G0 F3900 X158.37 Y168.029
G1 F1350 X168.029 Y158.37 E134.54424
G0 F3900 X168.029 Y157.805
G1 F1350 X157.805 Y168.029 E135.02514
G0 F3900 X157.239 Y168.029
G1 F1350 X168.029 Y157.239 E135.53267
G0 F3900 X168.029 Y156.673
G1 F1350 X156.673 Y168.029 E136.06682
G0 F3900 X156.107 Y168.029
G1 F1350 X168.029 Y156.107 E136.6276
G0 F3900 X168.029 Y155.542
G1 F1350 X155.542 Y168.029 E137.21495
G0 F3900 X154.976 Y168.029
G1 F1350 X168.029 Y154.976 E137.82892
G0 F3900 X168.029 Y154.41
G1 F1350 X154.41 Y168.029 E138.46952
G0 F3900 X153.845 Y168.029
G1 F1350 X168.029 Y153.845 E139.13669
G0 F3900 X168.029 Y153.279
G1 F1350 X153.279 Y168.029 E139.83048
G0 F3900 X152.713 Y168.029
G1 F1350 X168.029 Y152.713 E140.5509
G0 F3900 X168.029 Y152.148
G1 F1350 X152.148 Y168.029 E141.2979
G0 F3900 X151.582 Y168.029
G1 F1350 X168.029 Y151.582 E142.07151
G0 F3900 X168.029 Y151.016
G1 F1350 X151.016 Y168.029 E142.87175
G0 F3900 X150.451 Y168.029
G1 F1350 X168.029 Y150.451 E143.69857
G0 F3900 X168.029 Y149.885
G1 F1350 X149.885 Y168.029 E144.552
G0 F3900 X149.319 Y168.029
G1 F1350 X168.029 Y149.319 E145.43207
G0 F3900 X168.029 Y148.754
G1 F1350 X148.754 Y168.029 E146.3387
G0 F3900 X148.188 Y168.029
G1 F1350 X168.029 Y148.188 E147.27196
G0 F3900 X168.029 Y147.622
G1 F1350 X147.622 Y168.029 E148.23185
G0 F3900 X147.056 Y168.029
G1 F1350 X168.029 Y147.056 E149.21835
G0 F3900 X168.029 Y146.491
G1 F1350 X146.491 Y168.029 E150.23143
G0 F3900 X145.925 Y168.029
G1 F1350 X168.029 Y145.925 E151.27114
G0 F3900 X168.029 Y145.359
G1 F1350 X145.359 Y168.029 E152.33746
G0 F3900 X144.794 Y168.029
G1 F1350 X168.029 Y144.794 E153.43037
G0 F3900 X168.029 Y144.228
G1 F1350 X144.228 Y168.029 E154.54989
G0 F3900 X143.662 Y168.029
G1 F1350 X168.029 Y143.662 E155.69604
G0 F3900 X168.029 Y143.097
G1 F1350 X143.097 Y168.029 E156.86877
G0 F3900 X142.531 Y168.029
G1 F1350 X168.029 Y142.531 E158.06811
G0 F3900 X168.026 Y141.969
G1 F1350 X141.97 Y168.025 E159.29371
G0 F3900 X141.97 Y167.459
G1 F1350 X167.46 Y141.969 E160.49268
G0 F3900 X166.894 Y141.969
G1 F1350 X141.97 Y166.894 E161.66505
G0 F3900 X141.97 Y166.328
G1 F1350 X166.329 Y141.969 E162.81083
G0 F3900 X165.763 Y141.969
G1 F1350 X141.97 Y165.762 E163.92998
G0 F3900 X141.97 Y165.197
G1 F1350 X165.197 Y141.969 E165.02253
G0 F3900 X164.632 Y141.969
G1 F1350 X141.97 Y164.631 E166.08848
G0 F3900 X141.97 Y164.065
G1 F1350 X164.066 Y141.969 E167.1278
G0 F3900 X163.5 Y141.969
G1 F1350 X141.97 Y163.5 E168.14053
G0 F3900 X141.97 Y162.934
G1 F1350 X162.935 Y141.969 E169.12666
G0 F3900 X162.369 Y141.969
G1 F1350 X141.97 Y162.368 E170.08617
G0 F3900 X141.97 Y161.803
G1 F1350 X161.803 Y141.969 E171.01908
G0 F3900 X161.238 Y141.969
G1 F1350 X141.97 Y161.237 E171.92538
G0 F3900 X141.97 Y160.671
G1 F1350 X160.672 Y141.969 E172.80507
G0 F3900 X160.106 Y141.969
G1 F1350 X141.97 Y160.105 E173.65813
G0 F3900 X141.97 Y159.54
G1 F1350 X159.54 Y141.969 E174.48459
G0 F3900 X158.975 Y141.969
G1 F1350 X141.97 Y158.974 E175.28446
G0 F3900 X141.97 Y158.408
G1 F1350 X158.409 Y141.969 E176.0577
G0 F3900 X157.843 Y141.969
G1 F1350 X141.97 Y157.843 E176.80434
G0 F3900 X141.97 Y157.277
G1 F1350 X157.278 Y141.969 E177.52438
G0 F3900 X156.712 Y141.969
G1 F1350 X141.97 Y156.711 E178.2178
G0 F3900 X141.97 Y156.146
G1 F1350 X156.146 Y141.969 E178.88462
G0 F3900 X155.581 Y141.969
G1 F1350 X141.97 Y155.58 E179.52484
G0 F3900 X141.97 Y155.014
G1 F1350 X155.015 Y141.969 E180.13843
G0 F3900 X154.449 Y141.969
G1 F1350 X141.97 Y154.449 E180.72543
G0 F3900 X141.97 Y153.883
G1 F1350 X153.884 Y141.969 E181.28583
G0 F3900 X153.318 Y141.969
G1 F1350 X141.97 Y153.317 E181.8196
G0 F3900 X141.97 Y152.752
G1 F1350 X152.752 Y141.969 E182.32678
G0 F3900 X152.187 Y141.969
G1 F1350 X141.97 Y152.186 E182.80735
G0 F3900 X141.97 Y151.62
G1 F1350 X151.621 Y141.969 E183.26131
G0 F3900 X151.055 Y141.969
G1 F1350 X141.97 Y151.054 E183.68864
G0 F3900 X141.97 Y150.489
G1 F1350 X150.49 Y141.969 E184.08939
G0 F3900 X149.924 Y141.969
G1 F1350 X141.97 Y149.923 E184.46353
G0 F3900 X141.97 Y149.357
G1 F1350 X149.358 Y141.969 E184.81103
G0 F3900 X148.792 Y141.969
G1 F1350 X141.97 Y148.792 E185.13194
G0 F3900 X141.97 Y148.226
G1 F1350 X148.227 Y141.969 E185.42625
G0 F3900 X147.661 Y141.969
G1 F1350 X141.97 Y147.66 E185.69394
G0 F3900 X141.97 Y147.095
G1 F1350 X147.095 Y141.969 E185.93503
G0 F3900 X146.53 Y141.969
G1 F1350 X141.97 Y146.529 E186.14952
G0 F3900 X141.97 Y145.963
G1 F1350 X145.964 Y141.969 E186.33738
G0 F3900 X145.398 Y141.969
G1 F1350 X141.97 Y145.398 E186.49865
G0 F3900 X141.97 Y144.832
G1 F1350 X144.833 Y141.969 E186.63332
G0 F3900 X144.267 Y141.969
G1 F1350 X141.97 Y144.266 E186.74136
G0 F3900 X141.97 Y143.701
G1 F1350 X143.701 Y141.969 E186.8228
G0 F3900 X143.136 Y141.969
G1 F1350 X141.97 Y143.135 E186.87765
G0 F3900 X141.97 Y142.569
G1 F1350 X142.57 Y141.969 E186.90587
G1 X142.64 Y141.899
;MESH:NONMESH
G0 F600 X142.64 Y141.899 Z0.7
G0 F3900 X168.6 Y168.6
;TIME_ELAPSED:265.996655
;LAYER:2
;TYPE:WALL-INNER
;MESH:Tall Box.STL
G1 F3600 X141.4 Y168.6 E187.81055
G1 X141.4 Y141.4 E188.71522
G1 X168.6 Y141.4 E189.6199
G1 X168.6 Y166.1 E190.44142
G0 F2880 X168.6 Y168.6
G0 F6000 X169 Y169
G1 F3600 X141 Y169 E191.37271
G1 X141 Y141 E192.30399
G1 X169 Y141 E193.23527
G1 X169 Y166.5 E194.08341
G0 F2880 X169 Y169
G0 F6000 X169.4 Y169.4
G1 F3600 X140.6 Y169.4 E195.0413
G1 X140.6 Y140.6 E195.99919
G1 X169.4 Y140.6 E196.95708
G1 X169.4 Y166.9 E197.83183
G0 F2880 X169.4 Y169.4
G0 F6000 X169.8 Y169.8
;TYPE:WALL-OUTER
G1 F1800 X140.2 Y169.8 E198.81633
G1 X140.2 Y140.2 E199.80083
G1 X169.8 Y140.2 E200.78533
G1 X169.8 Y167.3 E201.68668
G0 F1440 X169.8 Y169.8
G0 F6000 X169.6 Y169.8
G0 X169.33 Y169.33
G0 X168.21 Y168.21
;TYPE:SKIN
G1 F1800 X141.79 Y168.21 E202.56541
G1 X141.79 Y141.79 E203.44414
G1 X168.21 Y141.79 E204.32287
G1 X168.21 Y165.71 E205.11846
G0 F1440 X168.21 Y168.21
G0 F6000 X168.029 Y142.573
G1 F1800 X167.425 Y141.97 E205.14684
G0 F6000 X166.86 Y141.97
G1 F1800 X168.029 Y143.139 E205.20183
G0 F6000 X168.029 Y143.705
G1 F1800 X166.294 Y141.97 E205.28344
G0 F6000 X165.728 Y141.97
G1 F1800 X168.029 Y144.27 E205.39165
G0 F6000 X168.029 Y144.836
G1 F1800 X165.163 Y141.97 E205.52645
G0 F6000 X164.597 Y141.97
G1 F1800 X168.029 Y145.402 E205.68789
G0 F6000 X168.029 Y145.968
G1 F1800 X164.031 Y141.97 E205.87594
G0 F6000 X163.466 Y141.97
G1 F1800 X168.029 Y146.533 E206.09057
G0 F6000 X168.029 Y147.099
G1 F1800 X162.9 Y141.97 E206.33182
G0 F6000 X162.334 Y141.97
G1 F1800 X168.029 Y147.665 E206.5997
G0 F6000 X168.029 Y148.23
G1 F1800 X161.769 Y141.97 E206.89415
G0 F6000 X161.203 Y141.97
G1 F1800 X168.029 Y148.796 E207.21522
