; G-Code generated by Simplify3D(R) Version 4.1.0
; May 18, 2020 at 12:57:21 PM
; Settings Summary
;   processName,Process1
;   applyToModels,Z9FM3 laser kit  bracket
;   profileName,Z9M3 (modified)
;   profileVersion,2020-04-20 18:05:10
;   baseProfile,Default
;   printMaterial,PLA
;   printQuality,Medium
;   printExtruders,All Extruders
;   extruderName,Extruder 1,Extruder 2,Extruder 3
;   extruderToolheadNumber,0,1,2
;   extruderDiameter,0.4,0.4,0.4
;   extruderAutoWidth,0,0,0
;   extruderWidth,0.4,0.4,0.4
;   extrusionMultiplier,1.2,1.2,1.2
;   extruderUseRetract,1,1,1
;   extruderRetractionDistance,8,8,8
;   extruderExtraRestartDistance,0.15,0.15,0.15
;   extruderRetractionZLift,0,0,0
;   extruderRetractionSpeed,1800,1800,1800
;   extruderUseCoasting,0,0,0
;   extruderCoastingDistance,0.2,0.2,0.2
;   extruderUseWipe,1,0,1
;   extruderWipeDistance,5,3,1.5
;   primaryExtruder,0
;   layerHeight,0.2
;   topSolidLayers,3
;   bottomSolidLayers,3
;   perimeterOutlines,4
;   printPerimetersInsideOut,1
;   startPointOption,3
;   startPointOriginX,150
;   startPointOriginY,150
;   sequentialIslands,0
;   spiralVaseMode,0
;   firstLayerHeightPercentage,100
;   firstLayerWidthPercentage,120
;   firstLayerUnderspeed,0.6
;   useRaft,0
;   raftExtruder,0
;   raftTopLayers,2
;   raftBaseLayers,2
;   raftOffset,3
;   raftSeparationDistance,0.14
;   raftTopInfill,100
;   aboveRaftSpeedMultiplier,0.3
;   useSkirt,0
;   skirtExtruder,0
;   skirtLayers,1
;   skirtOutlines,2
;   skirtOffset,4
;   usePrimePillar,0
;   primePillarExtruder,999
;   primePillarWidth,12
;   primePillarLocation,7
;   primePillarSpeedMultiplier,1
;   useOozeShield,0
;   oozeShieldExtruder,999
;   oozeShieldOffset,2
;   oozeShieldOutlines,1
;   oozeShieldSidewallShape,1
;   oozeShieldSidewallAngle,30
;   oozeShieldSpeedMultiplier,1
;   infillExtruder,0
;   internalInfillPattern,Rectilinear
;   externalInfillPattern,Rectilinear
;   infillPercentage,30
;   outlineOverlapPercentage,15
;   infillExtrusionWidthPercentage,100
;   minInfillLength,5
;   infillLayerInterval,1
;   internalInfillAngles,45,-45
;   overlapInternalInfillAngles,0
;   externalInfillAngles,45,-45
;   generateSupport,0
;   supportExtruder,0
;   supportInfillPercentage,30
;   supportExtraInflation,0
;   supportBaseLayers,0
;   denseSupportExtruder,0
;   denseSupportLayers,0
;   denseSupportInfillPercentage,70
;   supportLayerInterval,1
;   supportHorizontalPartOffset,0.3
;   supportUpperSeparationLayers,1
;   supportLowerSeparationLayers,1
;   supportType,0
;   supportGridSpacing,4
;   maxOverhangAngle,45
;   supportAngles,0
;   temperatureName,Extruder 1,Heated Bed
;   temperatureNumber,0,0
;   temperatureSetpointCount,1,1
;   temperatureSetpointLayers,1,1
;   temperatureSetpointTemperatures,195,50
;   temperatureStabilizeAtStartup,1,1
;   temperatureHeatedBed,0,1
;   fanLayers,1,2
;   fanSpeeds,0,100
;   blipFanToFullPower,0
;   adjustSpeedForCooling,1
;   minSpeedLayerTime,15
;   minCoolingSpeedSlowdown,20
;   increaseFanForCooling,0
;   minFanLayerTime,45
;   maxCoolingFanSpeed,100
;   increaseFanForBridging,1
;   bridgingFanSpeed,100
;   use5D,1
;   relativeEdistances,1
;   allowEaxisZeroing,1
;   independentExtruderAxes,0
;   includeM10123,0
;   stickySupport,1
;   applyToolheadOffsets,0
;   gcodeXoffset,0
;   gcodeYoffset,0
;   gcodeZoffset,0
;   overrideMachineDefinition,1
;   machineTypeOverride,0
;   strokeXoverride,300
;   strokeYoverride,300
;   strokeZoverride,385
;   originOffsetXoverride,0
;   originOffsetYoverride,0
;   originOffsetZoverride,0
;   homeXdirOverride,-1
;   homeYdirOverride,-1
;   homeZdirOverride,-1
;   flipXoverride,1
;   flipYoverride,-1
;   flipZoverride,1
;   toolheadOffsets,0,0|0,0|0,0|0,0|0,0|0,0
;   overrideFirmwareConfiguration,0
;   firmwareTypeOverride,RepRap (Marlin/Repetier/Sprinter)
;   GPXconfigOverride,r2
;   baudRateOverride,115200
;   overridePrinterModels,0
;   printerModelsOverride
;   startingGcode,G28 ; home all axes,M209 S1,G1 Z5 F3000 ; lift,G1 X5 Y10 F1500 ; move to prime,G1 Z0.2 F3000 ; get ready to prime,G92 E0 ; reset extrusion distance,G1 Y150 E15 F600 ; prime nozzle,G1 Y100 F5000 ; quick wipe
;   layerChangeGcode,
;   retractionGcode,
;   toolChangeGcode,
;   endingGcode,G28 X0 Y0,M106 S0 ; turn off FAN,M104 S0 ; turn off extruder,M140 S0 ; turn off bed,M84 ; disable motors
;   exportFileFormat,gcode
;   celebration,0
;   celebrationSong,Random Song
;   postProcessing,
;   defaultSpeed,3000
;   outlineUnderspeed,0.5
;   solidInfillUnderspeed,0.8
;   supportUnderspeed,0.8
;   rapidXYspeed,6000
;   rapidZspeed,480
;   minBridgingArea,50
;   bridgingExtraInflation,0
;   bridgingExtrusionMultiplier,1
;   bridgingSpeedMultiplier,1
;   useFixedBridgingAngle,0
;   fixedBridgingAngle,0
;   applyBridgingToPerimeters,0
;   filamentDiameters,1.75|1.75|1.75|1.75|1.75|1.75
;   filamentPricesPerKg,46|46|46|46|46|46
;   filamentDensities,1.25|1.25|1.25|1.25|1.25|1.25
;   useMinPrintHeight,0
;   minPrintHeight,1
;   useMaxPrintHeight,0
;   maxPrintHeight,10
;   useDiaphragm,0
;   diaphragmLayerInterval,20
;   robustSlicing,1
;   mergeAllIntoSolid,0
;   onlyRetractWhenCrossingOutline,1
;   retractBetweenLayers,0
;   useRetractionMinTravel,1
;   retractionMinTravel,0.5
;   retractWhileWiping,0
;   onlyWipeOutlines,1
;   avoidCrossingOutline,1
;   maxMovementDetourFactor,8
;   toolChangeRetractionDistance,12
;   toolChangeExtraRestartDistance,-0.5
;   toolChangeRetractionSpeed,600
;   externalThinWallType,0
;   internalThinWallType,2
;   thinWallAllowedOverlapPercentage,10
;   singleExtrusionMinLength,1
;   singleExtrusionMinPrintingWidthPercentage,50
;   singleExtrusionMaxPrintingWidthPercentage,200
;   singleExtrusionEndpointExtension,0.2
;   horizontalSizeCompensation,0
G90
M83
M106 S0
M140 S50
M190 S50
M104 S195 T0
M109 S195 T0
G28 ; home all axes
M209 S1
G1 Z5 F3000 ; lift
G1 X5 Y10 F1500 ; move to prime
G1 Z0.2 F3000 ; get ready to prime
G92 E0 ; reset extrusion distance
G1 Y150 E15 F600 ; prime nozzle
G1 Y100 F5000 ; quick wipe
; process Process1
; layer 1, Z = 0.200
T0
; feature inner perimeter
; tool H0.200 W0.480
G1 Z0.200 F480
G1 X153.780 Y124.026 F6000
G1 X153.728 Y123.440 E0.0282 F1350
G1 X153.558 Y122.806 E0.0314
G1 X153.279 Y122.207 E0.0316
G1 X152.900 Y121.666 E0.0317
G1 X152.434 Y121.200 E0.0315
G1 X151.893 Y120.821 E0.0317
G1 X151.294 Y120.542 E0.0317
G1 X150.659 Y120.372 E0.0315
G1 X150.000 Y120.313 E0.0317
G1 X149.341 Y120.372 E0.0317
G1 X148.706 Y120.542 E0.0315
G1 X148.107 Y120.821 E0.0317
G1 X147.566 Y121.200 E0.0317
G1 X147.100 Y121.666 E0.0315
G1 X146.721 Y122.207 E0.0317
G1 X146.442 Y122.806 E0.0316
G1 X146.272 Y123.440 E0.0314
G1 X146.220 Y124.026 E0.0282
G1 X146.220 Y179.974 E2.6796
G1 X146.272 Y180.560 E0.0282
G1 X146.442 Y181.194 E0.0314
G1 X146.721 Y181.793 E0.0316
G1 X147.100 Y182.334 E0.0317
G1 X147.566 Y182.800 E0.0315
G1 X147.877 Y183.018 E0.0182
G1 X147.782 Y183.320 E0.0152
G1 X138.061 Y183.320 E0.4656
G1 X137.812 Y183.302 E0.0120
G1 X137.630 Y183.262 E0.0089
G1 X137.453 Y183.197 E0.0090
G1 X137.289 Y183.107 E0.0090
G1 X137.139 Y182.994 E0.0090
G1 X137.006 Y182.861 E0.0090
G1 X136.893 Y182.711 E0.0090
G1 X136.803 Y182.547 E0.0090
G1 X136.738 Y182.370 E0.0090
G1 X136.698 Y182.188 E0.0089
G1 X136.680 Y181.939 E0.0119
G1 X136.680 Y118.934 E3.0176
G1 X163.320 Y118.934 E1.2759
G1 X163.320 Y181.939 E3.0176
G1 X163.302 Y182.188 E0.0120
G1 X163.262 Y182.370 E0.0089
G1 X163.197 Y182.547 E0.0090
G1 X163.107 Y182.711 E0.0090
G1 X162.994 Y182.861 E0.0090
G1 X162.861 Y182.994 E0.0090
G1 X162.711 Y183.107 E0.0090
G1 X162.547 Y183.197 E0.0090
G1 X162.370 Y183.262 E0.0090
G1 X162.188 Y183.302 E0.0089
G1 X161.939 Y183.320 E0.0120
G1 X152.218 Y183.320 E0.4656
G1 X152.123 Y183.018 E0.0152
G1 X152.434 Y182.800 E0.0182
G1 X152.900 Y182.334 E0.0315
G1 X153.279 Y181.793 E0.0317
G1 X153.558 Y181.194 E0.0316
G1 X153.728 Y180.560 E0.0314
G1 X153.780 Y179.974 E0.0282
G1 X153.780 Y124.026 E2.6796
G1 X152.266 Y123.546 F6000
G1 X152.200 Y123.300
G1 X152.027 Y122.930
G1 X151.793 Y122.595
G1 X151.505 Y122.307
G1 X151.170 Y122.073
G1 X150.800 Y121.900
G1 X150.407 Y121.795
G1 X150.000 Y121.759
G1 X149.593 Y121.795
G1 X149.200 Y121.900
G1 X148.830 Y122.073
G1 X148.495 Y122.307
G1 X148.462 Y122.340
G1 X136.200 Y118.454
G1 X163.800 Y118.454 E1.3219 F1350
G1 X163.800 Y181.957 E3.0414
G1 X163.778 Y182.257 E0.0144
G1 X163.724 Y182.506 E0.0122
G1 X163.634 Y182.747 E0.0123
G1 X163.512 Y182.971 E0.0123
G1 X163.358 Y183.176 E0.0123
G1 X163.176 Y183.358 E0.0123
G1 X162.971 Y183.512 E0.0123
G1 X162.747 Y183.634 E0.0123
G1 X162.506 Y183.724 E0.0123
G1 X162.257 Y183.778 E0.0122
G1 X161.957 Y183.800 E0.0144
G1 X138.043 Y183.800 E1.1453
G1 X137.743 Y183.778 E0.0144
G1 X137.494 Y183.724 E0.0122
G1 X137.253 Y183.634 E0.0123
G1 X137.029 Y183.512 E0.0123
G1 X136.824 Y183.358 E0.0123
G1 X136.642 Y183.176 E0.0123
G1 X136.488 Y182.971 E0.0123
G1 X136.366 Y182.747 E0.0123
G1 X136.276 Y182.506 E0.0123
G1 X136.222 Y182.257 E0.0122
G1 X136.200 Y181.957 E0.0144
G1 X136.200 Y118.454 E3.0414
G1 X147.660 Y144.378 F6000
G1 X147.660 Y124.089
G1 X147.695 Y123.692
G1 X147.800 Y123.300
G1 X147.973 Y122.930
G1 X148.207 Y122.595
G1 X148.495 Y122.307
G1 X148.830 Y122.073
G1 X149.200 Y121.900
G1 X149.593 Y121.795
G1 X150.000 Y121.759
G1 X150.407 Y121.795
G1 X150.800 Y121.900
G1 X151.170 Y122.073
G1 X151.505 Y122.307
G1 X151.793 Y122.595
G1 X152.027 Y122.930
G1 X152.200 Y123.300
G1 X152.305 Y123.692
G1 X152.340 Y124.089
G1 X152.340 Y154.964
G1 X164.280 Y181.974
G1 X164.255 Y182.326 E0.0169 F1350
G1 X164.186 Y182.641 E0.0155
G1 X164.072 Y182.947 E0.0156
G1 X163.916 Y183.232 E0.0156
G1 X163.722 Y183.492 E0.0155
G1 X163.491 Y183.722 E0.0156
G1 X163.232 Y183.916 E0.0155
G1 X162.947 Y184.072 E0.0156
G1 X162.641 Y184.186 E0.0156
G1 X162.326 Y184.255 E0.0155
G1 X161.974 Y184.280 E0.0169
G1 X138.026 Y184.280 E1.1470
G1 X137.674 Y184.255 E0.0169
G1 X137.359 Y184.186 E0.0155
G1 X137.053 Y184.072 E0.0156
G1 X136.768 Y183.916 E0.0156
G1 X136.508 Y183.722 E0.0155
G1 X136.278 Y183.492 E0.0156
G1 X136.084 Y183.232 E0.0155
G1 X135.928 Y182.947 E0.0156
G1 X135.814 Y182.641 E0.0156
G1 X135.745 Y182.326 E0.0155
G1 X135.720 Y181.974 E0.0169
G1 X135.720 Y117.974 E3.0653
G1 X164.280 Y117.974 E1.3679
G1 X164.280 Y181.974 E3.0653
; feature outer perimeter
G1 X164.760 Y181.991 F6000
G1 X164.731 Y182.394 E0.0194 F900
G1 X164.648 Y182.777 E0.0187
G1 X164.510 Y183.147 E0.0189
G1 X164.321 Y183.492 E0.0188
G1 X164.086 Y183.807 E0.0188
G1 X163.807 Y184.086 E0.0189
G1 X163.492 Y184.321 E0.0188
G1 X163.147 Y184.510 E0.0188
G1 X162.777 Y184.648 E0.0189
G1 X162.394 Y184.731 E0.0187
G1 X161.991 Y184.760 E0.0194
G1 X138.009 Y184.760 E1.1486
G1 X137.606 Y184.731 E0.0194
G1 X137.223 Y184.648 E0.0188
G1 X136.853 Y184.510 E0.0189
G1 X136.508 Y184.321 E0.0188
G1 X136.193 Y184.086 E0.0188
G1 X135.914 Y183.807 E0.0189
G1 X135.679 Y183.492 E0.0188
G1 X135.490 Y183.147 E0.0188
G1 X135.352 Y182.777 E0.0189
G1 X135.269 Y182.394 E0.0187
G1 X135.240 Y181.991 E0.0194
G1 X135.240 Y117.494 E3.0891
G1 X164.760 Y117.494 E1.4138
G1 X164.760 Y181.991 E3.0891
G1 X164.731 Y182.394 F900
G1 X164.648 Y182.777
G1 X164.510 Y183.147
G1 X164.321 Y183.492
G1 X164.086 Y183.807
G1 X163.807 Y184.086
G1 X163.492 Y184.321
G1 X163.147 Y184.510
G1 X162.777 Y184.648
G1 X162.394 Y184.731
G1 X161.991 Y184.760
G1 X161.339 Y184.760
; feature inner perimeter
G1 X153.300 Y124.047 F6000
G1 X153.254 Y123.524 E0.0252 F1350
G1 X153.105 Y122.970 E0.0274
G1 X152.862 Y122.448 E0.0276
G1 X152.531 Y121.975 E0.0276
G1 X152.125 Y121.569 E0.0275
G1 X151.652 Y121.238 E0.0276
G1 X151.129 Y120.995 E0.0276
G1 X150.575 Y120.846 E0.0275
G1 X150.000 Y120.795 E0.0276
G1 X149.425 Y120.846 E0.0276
G1 X148.871 Y120.995 E0.0275
G1 X148.348 Y121.238 E0.0276
G1 X147.875 Y121.569 E0.0276
G1 X147.469 Y121.975 E0.0275
G1 X147.138 Y122.448 E0.0276
G1 X146.895 Y122.970 E0.0276
G1 X146.746 Y123.524 E0.0274
G1 X146.700 Y124.047 E0.0252
G1 X146.700 Y179.953 E2.6776
G1 X146.746 Y180.476 E0.0252
G1 X146.895 Y181.030 E0.0274
G1 X147.138 Y181.552 E0.0276
G1 X147.469 Y182.025 E0.0276
G1 X147.875 Y182.431 E0.0275
G1 X148.348 Y182.762 E0.0276
G1 X148.871 Y183.005 E0.0276
G1 X149.425 Y183.154 E0.0275
G1 X150.000 Y183.205 E0.0276
G1 X150.575 Y183.154 E0.0276
G1 X151.129 Y183.005 E0.0275
G1 X151.652 Y182.762 E0.0276
G1 X152.125 Y182.431 E0.0276
G1 X152.531 Y182.025 E0.0275
G1 X152.862 Y181.552 E0.0276
G1 X153.105 Y181.030 E0.0276
G1 X153.254 Y180.476 E0.0274
G1 X153.300 Y179.953 E0.0252
G1 X153.300 Y124.047 E2.6776
G1 X152.820 Y124.068 F6000
G1 X152.779 Y123.608 E0.0221 F1350
G1 X152.652 Y123.135 E0.0234
G1 X152.445 Y122.689 E0.0236
G1 X152.162 Y122.285 E0.0236
G1 X151.815 Y121.938 E0.0235
G1 X151.411 Y121.655 E0.0236
G1 X150.965 Y121.447 E0.0236
G1 X150.491 Y121.320 E0.0235
G1 X150.000 Y121.277 E0.0236
G1 X149.509 Y121.320 E0.0236
G1 X149.035 Y121.447 E0.0235
G1 X148.589 Y121.655 E0.0236
G1 X148.185 Y121.938 E0.0236
G1 X147.838 Y122.285 E0.0235
G1 X147.555 Y122.689 E0.0236
G1 X147.347 Y123.135 E0.0236
G1 X147.221 Y123.608 E0.0234
G1 X147.180 Y124.068 E0.0221
G1 X147.180 Y179.932 E2.6756
G1 X147.221 Y180.392 E0.0221
G1 X147.347 Y180.865 E0.0234
G1 X147.555 Y181.311 E0.0236
G1 X147.838 Y181.715 E0.0236
G1 X148.185 Y182.062 E0.0235
G1 X148.589 Y182.345 E0.0236
G1 X149.035 Y182.553 E0.0236
G1 X149.509 Y182.680 E0.0235
G1 X150.000 Y182.723 E0.0236
G1 X150.491 Y182.680 E0.0236
G1 X150.965 Y182.553 E0.0235
G1 X151.411 Y182.345 E0.0236
G1 X151.815 Y182.062 E0.0236
G1 X152.162 Y181.715 E0.0235
G1 X152.445 Y181.311 E0.0236
G1 X152.652 Y180.865 E0.0236
G1 X152.779 Y180.392 E0.0234
G1 X152.820 Y179.932 E0.0221
G1 X152.820 Y124.068 E2.6756
; feature outer perimeter
G1 X152.338 Y124.070 F6000
G1 X152.305 Y123.692
G1 X152.200 Y123.300
G1 X152.027 Y122.930
G1 X151.793 Y122.595
G1 X151.505 Y122.307
G1 X151.170 Y122.073
G1 X150.800 Y121.900
G1 X150.407 Y121.795
G1 X150.000 Y121.759
G1 X149.593 Y121.795
G1 X149.200 Y121.900
G1 X148.830 Y122.073
G1 X148.495 Y122.307
G1 X148.207 Y122.595
G1 X147.973 Y122.930
G1 X147.800 Y123.300
G1 X147.695 Y123.692
G1 X147.660 Y124.089
G1 X147.660 Y179.911 E2.6735 F900
G1 X147.695 Y180.308 E0.0191
G1 X147.800 Y180.700 E0.0194
G1 X147.973 Y181.070 E0.0196
G1 X148.207 Y181.405 E0.0196
G1 X148.495 Y181.693 E0.0195
G1 X148.830 Y181.927 E0.0196
G1 X149.200 Y182.100 E0.0196
G1 X149.593 Y182.205 E0.0195
G1 X150.000 Y182.241 E0.0196
G1 X150.407 Y182.205 E0.0196
G1 X150.800 Y182.100 E0.0195
G1 X151.170 Y181.927 E0.0196
G1 X151.505 Y181.693 E0.0196
G1 X151.793 Y181.405 E0.0195
G1 X152.027 Y181.070 E0.0196
G1 X152.200 Y180.700 E0.0196
G1 X152.305 Y180.308 E0.0194
G1 X152.340 Y179.911 E0.0191
G1 X152.340 Y124.089 E2.6735
G1 X152.305 Y123.692 E0.0191
G1 X152.200 Y123.300 E0.0194
G1 X152.027 Y122.930 E0.0196
G1 X151.793 Y122.595 E0.0196
G1 X151.505 Y122.307 E0.0195
G1 X151.170 Y122.073 E0.0196
G1 X150.800 Y121.900 E0.0196
G1 X150.407 Y121.795 E0.0195
G1 X150.000 Y121.759 E0.0196
G1 X149.593 Y121.795 E0.0196
G1 X149.200 Y121.900 E0.0195
G1 X148.830 Y122.073 E0.0196
G1 X148.495 Y122.307 E0.0196
G1 X148.207 Y122.595 E0.0195
G1 X147.973 Y122.930 E0.0196
G1 X147.800 Y123.300 E0.0196
G1 X147.695 Y123.692 E0.0194
G1 X147.660 Y124.089 E0.0191
G1 X147.660 Y129.089 F900
; feature gap fill
; tool H0.200 W0.400
G1 X147.660 Y179.911 F6000
G1 X147.695 Y180.308
G1 X147.800 Y180.700
G1 X147.973 Y181.070
G1 X148.172 Y181.354
G1 X148.190 Y183.263
G1 X148.360 Y183.432 E0.0095 F1800
G1 X148.925 Y183.432 E0.0226
G1 X148.883 Y183.390 E0.0024
G1 X151.541 Y183.220 F6000
G1 X151.754 Y183.432 E0.0120 F1800
G1 X151.188 Y183.432 E0.0226
G1 X151.140 Y183.384 E0.0027
; feature solid layer
; tool H0.200 W0.480
G1 X151.209 Y181.901 F6000
G1 X151.505 Y181.693
G1 X151.793 Y181.405
G1 X152.027 Y181.070
G1 X152.200 Y180.700
G1 X152.305 Y180.308
G1 X152.340 Y179.911
G1 X152.340 Y157.587
G1 X153.962 Y122.736
G1 X162.912 Y131.686 E0.6062 F1440
G1 X162.912 Y132.365 E0.0325
G1 X154.152 Y123.605 E0.5933
G1 X154.188 Y124.008 E0.0194
G1 X154.188 Y124.320 E0.0149
G1 X162.912 Y133.044 E0.5909
G1 X162.912 Y133.723 E0.0325
