;FLAVOR:Marlin
;TIME:1472
;Filament used: 0.274867m, 0.403088m, 0m, 0m
;Layer height: 0.2
;MINX:0
;MINY:0
;MINZ:0.36
;MAXX:172.223
;MAXY:158.584
;MAXZ:43.31
;Generated with Cura_SteamEngine 4.12.1
T0
M140 S60
M105
M190 S60
M104 S210
M105
M109 S210
M82 ;absolute extrusion mode
;Z9E4 start gcode
G90 ; absolute coordinates
G28 ; home
G1 Z15 F6000 ; bed down 15mm
M107 ; fan off
;end of start gcode

G92 E0
;start gcode of Extruder 1 
M117 E1 load filament
G91 ; relative coordinates
G1 E35 F1800; push filament 35mm
G90 ;absolute coordinates
G92 E0 ;reset extrusion distance

G92 E0
G1 F2100 E-10
;LAYER_COUNT:210
;LAYER:-6
M107
G0 F6000 X129.558 Y142.756 Z0.36
;TYPE:SUPPORT-INTERFACE
G1 F2100 E0
G1 F1200 X130.016 Y142.404 E0.06916
G1 X130.514 Y142.114 E0.13817
G1 X131.05 Y141.885 E0.20796
G1 X131.574 Y141.736 E0.27319
G1 X131.93 Y141.676 E0.31641
G1 X132.484 Y141.626 E0.38302
G1 X132.706 Y141.616 E0.40963
G1 X167.347 Y141.616 E4.55742
G1 X167.85 Y141.644 E4.61774
G1 X168.432 Y141.736 E4.68829
G1 X168.981 Y141.896 E4.75676
G1 X169.518 Y142.129 E4.82685
G1 X170.015 Y142.424 E4.89605
G1 X170.463 Y142.775 E4.9642
G1 X170.883 Y143.197 E5.03549
G1 X171.235 Y143.655 E5.10465
G1 X171.525 Y144.153 E5.17365
G1 X171.754 Y144.689 E5.24345
G1 X171.903 Y145.213 E5.30867
G1 X171.963 Y145.569 E5.3519
G1 X172.013 Y146.123 E5.41851
G1 X172.023 Y146.345 E5.44511
G1 X172.023 Y153.708 E6.32673
G1 X171.995 Y154.211 E6.38705
G1 X171.903 Y154.793 E6.45761
G1 X171.743 Y155.342 E6.52608
G1 X171.51 Y155.879 E6.59617
G1 X171.215 Y156.376 E6.66537
G1 X170.861 Y156.828 E6.73411
G1 X170.442 Y157.244 E6.80481
G1 X169.984 Y157.596 E6.87397
G1 X169.486 Y157.886 E6.94298
G1 X168.95 Y158.115 E7.01277
G1 X168.426 Y158.264 E7.078
G1 X168.07 Y158.324 E7.12122
G1 X167.516 Y158.374 E7.18783
G1 X167.294 Y158.384 E7.21444
G1 X132.653 Y158.384 E11.36223
G1 X132.15 Y158.356 E11.42255
G1 X131.568 Y158.264 E11.4931
G1 X131.017 Y158.103 E11.56183
G1 X130.481 Y157.87 E11.63181
G1 X129.985 Y157.576 E11.70085
G1 X129.537 Y157.225 E11.769
G1 X129.117 Y156.803 E11.84029
G1 X128.765 Y156.345 E11.90945
G1 X128.475 Y155.847 E11.97845
G1 X128.246 Y155.311 E12.04824
G1 X128.095 Y154.779 E12.11446
G1 X128.037 Y154.431 E12.1567
G1 X127.987 Y153.877 E12.22331
G1 X127.977 Y153.655 E12.24992
G1 X127.977 Y146.292 E13.13154
G1 X128.005 Y145.789 E13.19186
G1 X128.097 Y145.207 E13.26241
G1 X128.257 Y144.658 E13.33088
G1 X128.49 Y144.121 E13.40097
G1 X128.785 Y143.624 E13.47017
G1 X129.136 Y143.176 E13.53832
G1 X129.558 Y142.756 E13.60961
G0 F6000 X129.6 Y142.723
G1 F1200 X129.6 Y157.274 E15.35189
G0 F6000 X131.2 Y158.156
G1 F1200 X131.2 Y141.842 E17.30527
G0 F6000 X132.8 Y141.616
G1 F1200 X132.8 Y158.384 E19.31301
G0 F6000 X134.4 Y158.384
G1 F1200 X134.4 Y141.616 E21.32076
G0 F6000 X136 Y141.616
G1 F1200 X136 Y158.384 E23.3285
G0 F6000 X137.6 Y158.384
G1 F1200 X137.6 Y141.616 E25.33624
G0 F6000 X139.2 Y141.616
G1 F1200 X139.2 Y158.384 E27.34398
G0 F6000 X140.8 Y158.384
G1 F1200 X140.8 Y141.616 E29.35172
G0 F6000 X142.4 Y141.616
G1 F1200 X142.4 Y158.384 E31.35946
G0 F6000 X144 Y158.384
G1 F1200 X144 Y141.616 E33.3672
G0 F6000 X145.6 Y141.616
G1 F1200 X145.6 Y158.384 E35.37495
G0 F6000 X147.2 Y158.384
G1 F1200 X147.2 Y141.616 E37.38269
G0 F6000 X148.8 Y141.616
G1 F1200 X148.8 Y158.384 E39.39043
G0 F6000 X150.4 Y158.384
G1 F1200 X150.4 Y141.616 E41.39817
G0 F6000 X152 Y141.616
G1 F1200 X152 Y158.384 E43.40591
G0 F6000 X153.6 Y158.384
G1 F1200 X153.6 Y141.616 E45.41365
G0 F6000 X155.2 Y141.616
G1 F1200 X155.2 Y158.384 E47.42139
G0 F6000 X156.8 Y158.384
G1 F1200 X156.8 Y141.616 E49.42913
G0 F6000 X158.4 Y141.616
G1 F1200 X158.4 Y158.384 E51.43688
G0 F6000 X160 Y158.384
G1 F1200 X160 Y141.616 E53.44462
G0 F6000 X161.6 Y141.616
G1 F1200 X161.6 Y158.384 E55.45236
G0 F6000 X163.2 Y158.384
G1 F1200 X163.2 Y141.616 E57.4601
G0 F6000 X164.8 Y141.616
G1 F1200 X164.8 Y158.384 E59.46784
G0 F6000 X166.4 Y158.384
G1 F1200 X166.4 Y141.616 E61.47558
G0 F6000 X168 Y141.668
G1 F1200 X168 Y158.331 E63.47075
G0 F6000 X169.6 Y157.82
G1 F1200 X169.6 Y142.178 E65.34367
G0 F6000 X171.2 Y143.61
G1 F1200 X171.2 Y156.396 E66.87462
G0 F6000 X128 Y154.021
G1 F1200 X128 Y145.878 E67.84964
G0 F600 X128 Y145.878 Z0.66
G0 F6000 X128.157 Y155.027
;TIME_ELAPSED:31.872985
;LAYER:-5
;TYPE:SUPPORT
G1 F1200 X131.33 Y158.2 E68.29738
G1 X131.277 Y158.186 E68.30285
G1 X131.016 Y158.102 E68.33021
G1 X130.74 Y157.992 E68.35985
G1 X130.481 Y157.868 E68.38851
G1 X130.223 Y157.727 E68.41784
G1 X129.985 Y157.575 E68.44602
G1 X129.737 Y157.392 E68.47677
G1 X129.537 Y157.224 E68.50284
G1 X129.304 Y157.004 E68.53481
G1 X129.116 Y156.801 E68.56242
G1 X128.925 Y156.567 E68.59256
G1 X128.764 Y156.344 E68.62
G1 X128.602 Y156.085 E68.65048
G1 X128.475 Y155.846 E68.67749
G1 X128.347 Y155.571 E68.70776
G1 X128.246 Y155.31 E68.73568
G0 F6000 X131.33 Y158.2
G1 F1200 X131.568 Y158.263 E68.76025
G1 X131.852 Y158.317 E68.78909
G1 X132.149 Y158.355 E68.81897
G1 X132.527 Y158.379 E68.85676
G1 X132.653 Y158.383 E68.86934
G1 X132.927 Y158.383 E68.89668
G1 X127.976 Y153.432 E69.59532
G1 X127.976 Y152.018 E69.73641
G1 X134.341 Y158.383 E70.63458
G1 X135.756 Y158.383 E70.77577
G1 X127.976 Y150.603 E71.87361
G1 X127.976 Y149.189 E72.0147
G1 X137.17 Y158.383 E73.31207
G1 X138.584 Y158.383 E73.45316
G1 X127.976 Y147.775 E74.95006
G1 X127.976 Y146.361 E75.09115
G1 X139.998 Y158.383 E76.78759
G1 X141.412 Y158.383 E76.92868
G1 X128.125 Y145.096 E78.80362
G1 X128.173 Y144.915 E78.8223
G1 X128.257 Y144.657 E78.84938
G1 X128.368 Y144.378 E78.87934
G1 X128.49 Y144.12 E78.90781
G1 X128.516 Y144.073 E78.91317
G1 X142.827 Y158.383 E80.93254
G1 X144.241 Y158.383 E81.07363
G1 X129.088 Y143.23 E83.21188
G1 X129.136 Y143.174 E83.21924
G1 X129.355 Y142.942 E83.25107
G1 X129.558 Y142.755 E83.27861
G1 X129.788 Y142.566 E83.30832
G1 X129.817 Y142.545 E83.31189
G1 X145.655 Y158.383 E85.5468
G1 X147.069 Y158.383 E85.68789
G1 X130.709 Y142.023 E87.99646
G1 X130.788 Y141.986 E88.00517
G1 X131.05 Y141.884 E88.03322
G1 X131.352 Y141.789 E88.06481
G1 X131.574 Y141.735 E88.08761
G1 X131.798 Y141.697 E88.11028
G1 X148.483 Y158.383 E90.46478
G1 X149.898 Y158.383 E90.60597
G1 X133.13 Y141.615 E92.97212
G1 X134.544 Y141.615 E93.11321
G1 X151.312 Y158.383 E95.47935
G1 X152.726 Y158.383 E95.62044
G1 X135.958 Y141.615 E97.98659
G1 X137.373 Y141.615 E98.12778
G1 X154.14 Y158.383 E100.49385
G1 X155.555 Y158.383 E100.63504
G1 X138.787 Y141.615 E103.00119
G1 X140.201 Y141.615 E103.14228
G1 X156.969 Y158.383 E105.50842
G1 X158.383 Y158.383 E105.64951
G1 X141.615 Y141.615 E108.01566
G1 X143.03 Y141.615 E108.15685
G1 X159.797 Y158.383 E110.52292
G1 X161.211 Y158.383 E110.66401
G1 X144.444 Y141.615 E113.03009
G1 X145.858 Y141.615 E113.17118
G1 X162.626 Y158.383 E115.53732
G1 X164.04 Y158.383 E115.67841
G1 X147.272 Y141.615 E118.04456
G1 X148.686 Y141.615 E118.18565
G1 X165.454 Y158.383 E120.5518
G1 X166.868 Y158.383 E120.69289
G1 X150.101 Y141.615 E123.05896
G1 X151.515 Y141.615 E123.20005
G1 X168.2 Y158.301 E125.55455
G1 X168.425 Y158.263 E125.57732
G1 X168.646 Y158.209 E125.60002
G1 X168.949 Y158.114 E125.63171
G1 X169.21 Y158.012 E125.65967
G1 X169.289 Y157.976 E125.66833
G1 X152.929 Y141.615 E127.97697
G1 X154.343 Y141.615 E128.11806
G1 X170.181 Y157.453 E130.35298
G1 X170.211 Y157.432 E130.35663
G1 X170.441 Y157.243 E130.38633
G1 X170.646 Y157.054 E130.41416
G1 X170.86 Y156.828 E130.44521
G1 X170.91 Y156.768 E130.45301
G1 X155.757 Y141.615 E132.59126
G1 X157.172 Y141.615 E132.73245
G1 X171.483 Y155.926 E134.75188
G1 X171.508 Y155.878 E134.75728
G1 X171.631 Y155.62 E134.7858
G1 X171.742 Y155.342 E134.81567
G1 X171.826 Y155.083 E134.84284
G1 X171.873 Y154.903 E134.8614
G1 X158.586 Y141.615 E136.73641
G1 X160 Y141.615 E136.8775
G1 X172.022 Y153.638 E138.57401
G1 X172.022 Y152.223 E138.7152
G1 X161.414 Y141.615 E140.2121
G1 X162.829 Y141.615 E140.35329
G1 X172.022 Y150.809 E141.65059
G1 X172.022 Y149.395 E141.79168
G1 X164.243 Y141.615 E142.88945
G1 X165.657 Y141.615 E143.03054
G1 X172.022 Y147.981 E143.92878
G1 X172.022 Y146.566 E144.06997
G1 X167.071 Y141.615 E144.76861
G1 X167.346 Y141.615 E144.79605
G1 X167.471 Y141.62 E144.80853
G1 X167.849 Y141.644 E144.84633
G1 X168.147 Y141.681 E144.87629
G1 X168.43 Y141.736 E144.90505
G1 X168.669 Y141.798 E144.92969
G1 X171.841 Y144.971 E145.37737
G0 F6000 X171.752 Y144.688
G1 F1200 X171.651 Y144.427 E145.40529
G1 X171.524 Y144.153 E145.43542
G1 X171.396 Y143.913 E145.46256
G1 X171.234 Y143.654 E145.49305
G1 X171.07 Y143.426 E145.52107
G1 X170.882 Y143.197 E145.55063
G1 X170.695 Y142.995 E145.5781
G1 X170.462 Y142.774 E145.61014
G1 X170.261 Y142.606 E145.63628
G1 X170.013 Y142.424 E145.66698
G1 X169.775 Y142.272 E145.69515
G1 X169.516 Y142.129 E145.72467
G1 X169.259 Y142.007 E145.75306
G1 X168.98 Y141.896 E145.78302
G1 X168.722 Y141.812 E145.81009
G1 X168.669 Y141.798 E145.81556
G0 F600 X168.669 Y141.798 Z0.86
G0 F6000 X168.475 Y141.54
;TIME_ELAPSED:67.524090
;LAYER:-4
;TYPE:SUPPORT-INTERFACE
G1 F1800 X168.18 Y141.483 E145.82556
G1 X167.877 Y141.445 E145.83571
G1 X167.473 Y141.42 E145.84918
G1 X167.354 Y141.416 E145.85314
G1 X132.697 Y141.416 E147.00583
G1 X132.475 Y141.426 E147.01323
G1 X131.906 Y141.477 E147.03223
G1 X131.536 Y141.54 E147.04471
G1 X131.293 Y141.599 E147.05303
G0 F6000 X131.29 Y141.6
G1 F1800 X168.705 Y141.6 E148.29745
G1 X168.77 Y141.617 E148.29969
G1 X169.055 Y141.71 E148.30966
G1 X169.325 Y141.817 E148.31932
G1 X169.626 Y141.96 E148.3304
G1 X169.698 Y142 E148.33314
G1 X130.303 Y142 E149.64343
G1 X130.182 Y142.065 E149.64799
G1 X129.898 Y142.242 E149.65912
G1 X129.679 Y142.4 E149.66811
G1 X170.319 Y142.4 E151.0198
G1 X170.388 Y142.451 E151.02265
G1 X170.609 Y142.637 E151.03226
G1 X170.782 Y142.8 E151.04017
G1 X129.217 Y142.8 E152.42262
G1 X129.2 Y142.815 E152.42338
G1 X128.997 Y143.03 E152.43321
G1 X128.854 Y143.2 E152.4406
G1 X171.144 Y143.2 E153.84717
G1 X171.231 Y143.307 E153.85176
G1 X171.397 Y143.538 E153.86122
G1 X171.436 Y143.6 E153.86366
G1 X128.563 Y143.6 E155.28962
G1 X128.454 Y143.771 E155.29636
G1 X128.328 Y144 E155.30506
G1 X171.67 Y144 E156.74662
G1 X171.707 Y144.069 E156.74922
G1 X171.841 Y144.358 E156.75982
G1 X171.858 Y144.4 E156.76132
G1 X128.144 Y144.4 E158.21526
G1 X128.07 Y144.584 E158.22185
G1 X128 Y144.8 E158.2294
G1 X171.999 Y144.8 E159.69282
G1 X172.04 Y144.932 E159.69741
G1 X172.101 Y145.181 E159.70594
G1 X172.105 Y145.2 E159.70659
G1 X127.893 Y145.2 E161.17708
G1 X127.842 Y145.465 E161.18606
G1 X127.826 Y145.6 E161.19058
G1 X172.167 Y145.6 E162.66537
G1 X172.203 Y146 E162.67873
G1 X127.791 Y146 E164.15588
G1 X127.78 Y146.166 E164.16141
G1 X127.776 Y146.285 E164.16537
G1 X127.776 Y146.4 E164.16919
G1 X172.223 Y146.4 E165.64751
G1 X172.223 Y146.8 E165.66081
G1 X127.776 Y146.8 E167.13912
G1 X127.776 Y147.2 E167.15243
G1 X172.223 Y147.2 E168.63074
G1 X172.223 Y147.6 E168.64405
G1 X127.776 Y147.6 E170.12236
G1 X127.776 Y148 E170.13566
G1 X172.223 Y148 E171.61398
G1 X172.223 Y148.4 E171.62728
G1 X127.776 Y148.4 E173.10559
G1 X127.776 Y148.8 E173.1189
G1 X172.223 Y148.8 E174.59721
G1 X172.223 Y149.2 E174.61051
G1 X127.776 Y149.2 E176.08883
G1 X127.776 Y149.6 E176.10213
G1 X172.223 Y149.6 E177.58045
G1 X172.223 Y150 E177.59375
G1 X127.776 Y150 E179.07206
G1 X127.776 Y150.4 E179.08537
G1 X172.223 Y150.4 E180.56368
G1 X172.223 Y150.8 E180.57698
G1 X127.776 Y150.8 E182.0553
G1 X127.776 Y151.2 E182.0686
G1 X172.223 Y151.2 E183.54691
G1 X172.223 Y151.6 E183.56022
G1 X127.776 Y151.6 E185.03853
G1 X127.776 Y152 E185.05184
G1 X172.223 Y152 E186.53015
G1 X172.223 Y152.4 E186.54345
G1 X127.776 Y152.4 E188.02177
G1 X127.776 Y152.8 E188.03507
G1 X172.223 Y152.8 E189.51338
G1 X172.223 Y153.2 E189.52669
G1 X127.776 Y153.2 E191.005
G1 X127.776 Y153.6 E191.0183
G1 X172.223 Y153.6 E192.49662
G1 X172.223 Y153.715 E192.50044
G1 X172.219 Y153.834 E192.5044
G1 X172.208 Y154 E192.50994
G1 X127.796 Y154 E193.98709
G1 X127.832 Y154.4 E194.00044
G1 X172.173 Y154.4 E195.47523
G1 X172.157 Y154.535 E195.47975
G1 X172.106 Y154.8 E195.48873
G1 X127.894 Y154.8 E196.95923
G1 X127.898 Y154.819 E196.95987
G1 X127.959 Y155.068 E196.9684
G1 X128 Y155.2 E196.973
G1 X171.999 Y155.2 E198.43641
G1 X171.929 Y155.416 E198.44396
G1 X171.855 Y155.6 E198.45056
G1 X128.141 Y155.6 E199.90449
G1 X128.158 Y155.642 E199.906
G1 X128.292 Y155.931 E199.91659
G1 X128.329 Y156 E199.9192
G1 X171.672 Y156 E201.36079
G1 X171.545 Y156.229 E201.3695
G1 X171.436 Y156.4 E201.37624
G1 X128.563 Y156.4 E202.80221
G1 X128.602 Y156.462 E202.80464
G1 X128.768 Y156.693 E202.8141
G1 X128.855 Y156.8 E202.81869
G1 X171.145 Y156.8 E204.22526
G1 X171.015 Y156.957 E204.23204
G1 X170.799 Y157.185 E204.24249
G1 X170.782 Y157.2 E204.24324
G1 X129.217 Y157.2 E205.6257
G1 X129.39 Y157.363 E205.6336
G1 X129.611 Y157.549 E205.64321
G1 X129.68 Y157.6 E205.64606
G1 X170.32 Y157.6 E206.99776
G1 X170.101 Y157.758 E207.00674
G1 X169.818 Y157.934 E207.01782
G1 X169.695 Y158 E207.02247
G1 X130.301 Y158 E208.33272
G1 X130.373 Y158.04 E208.33546
G1 X130.674 Y158.183 E208.34654
G1 X130.943 Y158.29 E208.35617
G1 X131.228 Y158.382 E208.36613
G1 X131.296 Y158.4 E208.36847
G1 X168.711 Y158.4 E209.6129
G0 F6000 X168.708 Y158.401
G1 F1800 X168.464 Y158.46 E209.62125
G1 X168.094 Y158.523 E209.63373
G1 X167.525 Y158.574 E209.65273
G1 X167.303 Y158.584 E209.66012
G1 X132.646 Y158.584 E210.81282
G1 X132.527 Y158.58 E210.81678
G1 X132.123 Y158.555 E210.83024
G1 X131.82 Y158.517 E210.8404
G1 X131.525 Y158.46 E210.85039
G0 F600 X131.525 Y158.46 Z1.06
G0 F6000 X172.021 Y155.13
;TIME_ELAPSED:134.552564
;LAYER:-3
;TYPE:SUPPORT-INTERFACE
G1 F1800 X172.099 Y154.833 E210.8606
G1 X172.156 Y154.534 E210.87073
G1 X172.193 Y154.237 E210.88068
G1 X172.218 Y153.833 E210.89414
G1 X172.222 Y153.714 E210.8981
G1 X172.222 Y146.326 E211.14383
G1 X172.212 Y146.113 E211.15092
G1 X172.161 Y145.544 E211.16992
G1 X172.1 Y145.18 E211.1822
G1 X172.039 Y144.931 E211.19073
G1 X171.999 Y144.804 E211.19515
G1 X171.999 Y155.198 E211.54086
G1 X171.928 Y155.415 E211.54845
G1 X171.822 Y155.682 E211.55801
G1 X171.679 Y155.985 E211.56915
G1 X171.599 Y156.129 E211.57463
G1 X171.599 Y143.87 E211.98237
G1 X171.573 Y143.821 E211.98421
G1 X171.396 Y143.537 E211.99534
G1 X171.23 Y143.306 E212.0048
G1 X171.199 Y143.269 E212.00641
G1 X171.199 Y156.732 E212.45419
G1 X171.187 Y156.748 E212.45486
G1 X171.014 Y156.956 E212.46385
G1 X170.799 Y157.183 E212.47425
G1 X170.799 Y142.817 E212.95207
G1 X170.608 Y142.636 E212.96082
G1 X170.399 Y142.461 E212.96989
G1 X170.399 Y157.536 E213.47128
G1 X170.331 Y157.591 E213.47419
G1 X170.1 Y157.757 E213.48365
G1 X169.999 Y157.82 E213.48761
G1 X169.999 Y142.178 E214.00787
G1 X169.873 Y142.097 E214.01285
G1 X169.625 Y141.959 E214.02229
G1 X169.599 Y141.947 E214.02324
G1 X169.599 Y158.051 E214.55886
G1 X169.569 Y158.067 E214.55999
G1 X169.285 Y158.199 E214.57041
G1 X169.199 Y158.233 E214.57349
G1 X169.199 Y141.767 E215.12115
G1 X169.054 Y141.709 E215.12634
G1 X168.799 Y141.626 E215.13526
G1 X168.799 Y158.372 E215.69223
G1 X168.707 Y158.4 E215.69543
G1 X168.463 Y158.459 E215.70378
G1 X168.399 Y158.47 E215.70594
G1 X168.399 Y141.525 E216.26954
G1 X168.179 Y141.482 E216.27699
G1 X167.999 Y141.46 E216.28302
G1 X167.999 Y158.531 E216.85081
G1 X167.599 Y158.567 E216.86416
G1 X167.599 Y141.427 E217.43424
G1 X167.472 Y141.419 E217.43848
G1 X167.353 Y141.415 E217.44244
G1 X167.199 Y141.415 E217.44756
G1 X167.199 Y158.583 E218.01857
G1 X166.799 Y158.583 E218.03187
G1 X166.799 Y141.415 E218.60288
G1 X166.399 Y141.415 E218.61619
G1 X166.399 Y158.583 E219.1872
G1 X165.999 Y158.583 E219.2005
G1 X165.999 Y141.415 E219.77151
G1 X165.599 Y141.415 E219.78481
G1 X165.599 Y158.583 E220.35582
G1 X165.199 Y158.583 E220.36913
G1 X165.199 Y141.415 E220.94014
G1 X164.799 Y141.415 E220.95344
G1 X164.799 Y158.583 E221.52445
G1 X164.399 Y158.583 E221.53776
G1 X164.399 Y141.415 E222.10877
G1 X163.999 Y141.415 E222.12207
G1 X163.999 Y158.583 E222.69308
G1 X163.599 Y158.583 E222.70638
G1 X163.599 Y141.415 E223.27739
G1 X163.199 Y141.415 E223.2907
G1 X163.199 Y158.583 E223.86171
G1 X162.799 Y158.583 E223.87501
G1 X162.799 Y141.415 E224.44602
