;FLAVOR:Marlin
;TIME:1531
;Filament used: 0.514943m, 0m, 0m, 0m
;Layer height: 0.2
;MINX:124.777
;MINY:138.416
;MINZ:0.3
;MAXX:175.223
;MAXY:161.584
;MAXZ:42.1
;Generated with Cura_SteamEngine 4.12.1
T0
M140 S60
M105
M190 S60
M104 S195
M105
M109 S195
M82 ;absolute extrusion mode
G28
G1 Z15 F300
M107
;Start auto retraction
M207 S10 F2400 
M208 S0 F2400 
M209 S1
;Prime the extruder
G92 E0
G1 F200 E3
G92 E0
G1 X5 Y10 F1500 ; move to prime
G1 Z0.2 F3000 ; get ready to prime
G92 E0 ; reset extrusion distance
G1 Y250 E15 F360 ; prime nozzle
G1 Y100 F4800 ; quick wipe
;Start auto retraction
M207 S10 F2400 
M208 S0 F2400 
M209 S1
G92 E0
G1 F1500 E-12
;LAYER_COUNT:210
;LAYER:0
M107
G0 F3000 X127.2 Y140.565 Z0.3
;TYPE:SKIRT
G1 F1500 E0
G1 F700 X127.799 Y140.05 E0.03941
G1 X128.447 Y139.599 E0.0788
G1 X129.138 Y139.215 E0.11824
G1 X129.863 Y138.903 E0.15762
G1 X130.616 Y138.666 E0.197
G1 X131.39 Y138.507 E0.23642
G1 X132.175 Y138.426 E0.27579
G1 X132.577 Y138.416 E0.29586
G1 X167.423 Y138.416 E2.03433
G1 X168.212 Y138.456 E2.07374
G1 X168.992 Y138.575 E2.11311
G1 X169.757 Y138.773 E2.15253
G1 X170.497 Y139.047 E2.1919
G1 X171.206 Y139.395 E2.2313
G1 X171.877 Y139.813 E2.27074
G1 X172.501 Y140.296 E2.31011
G1 X173.074 Y140.839 E2.3495
G1 X173.589 Y141.438 E2.38891
G1 X174.04 Y142.086 E2.4283
G1 X174.424 Y142.777 E2.46773
G1 X174.736 Y143.502 E2.50711
G1 X174.973 Y144.255 E2.5465
G1 X175.132 Y145.029 E2.58592
G1 X175.213 Y145.814 E2.62529
G1 X175.223 Y146.216 E2.64535
G1 X175.223 Y153.784 E3.02292
G1 X175.183 Y154.573 E3.06233
G1 X175.064 Y155.353 E3.1017
G1 X174.866 Y156.118 E3.14112
G1 X174.592 Y156.858 E3.18049
G1 X174.244 Y157.567 E3.21989
G1 X173.826 Y158.238 E3.25934
G1 X173.343 Y158.862 E3.2987
G1 X172.8 Y159.435 E3.33809
G1 X172.201 Y159.95 E3.3775
G1 X171.553 Y160.401 E3.41689
G1 X170.862 Y160.785 E3.45633
G1 X170.137 Y161.097 E3.4957
G1 X169.384 Y161.334 E3.53509
G1 X168.61 Y161.493 E3.57451
G1 X167.825 Y161.574 E3.61388
G1 X167.423 Y161.584 E3.63394
G1 X132.577 Y161.584 E5.37242
G1 X131.788 Y161.544 E5.41183
G1 X131.008 Y161.425 E5.4512
G1 X130.243 Y161.227 E5.49062
G1 X129.503 Y160.953 E5.52999
G1 X128.794 Y160.605 E5.56939
G1 X128.123 Y160.187 E5.60883
G1 X127.499 Y159.704 E5.6482
G1 X126.926 Y159.161 E5.68758
G1 X126.411 Y158.562 E5.72699
G1 X125.96 Y157.914 E5.76638
G1 X125.576 Y157.223 E5.80582
G1 X125.264 Y156.498 E5.8452
G1 X125.027 Y155.745 E5.88458
G1 X124.868 Y154.971 E5.924
G1 X124.787 Y154.186 E5.96338
G1 X124.777 Y153.784 E5.98344
G1 X124.777 Y146.216 E6.36101
G1 X124.817 Y145.427 E6.40042
G1 X124.936 Y144.647 E6.43979
G1 X125.134 Y143.882 E6.47921
G1 X125.408 Y143.142 E6.51858
G1 X125.756 Y142.433 E6.55798
G1 X126.174 Y141.762 E6.59742
G1 X126.657 Y141.138 E6.63679
G1 X127.2 Y140.565 E6.67617
G0 F3000 X127.593 Y140.746
G1 F700 X128.188 Y140.258 E6.71457
G1 X128.83 Y139.835 E6.75292
G1 X129.513 Y139.48 E6.79133
G1 X130.228 Y139.199 E6.82965
G1 X130.97 Y138.993 E6.86807
G1 X131.728 Y138.865 E6.90642
G1 X132.577 Y138.816 E6.94885
G1 X167.423 Y138.816 E8.68733
G1 X168.191 Y138.856 E8.72569
G1 X168.951 Y138.975 E8.76407
G1 X169.694 Y139.173 E8.80243
G1 X170.413 Y139.447 E8.84082
G1 X171.099 Y139.794 E8.87918
G1 X171.746 Y140.21 E8.91755
G1 X172.346 Y140.691 E8.95592
G1 X172.893 Y141.232 E8.9943
G1 X173.381 Y141.827 E9.03269
G1 X173.804 Y142.469 E9.07105
G1 X174.159 Y143.152 E9.10945
G1 X174.44 Y143.867 E9.14778
G1 X174.646 Y144.609 E9.1862
G1 X174.774 Y145.367 E9.22455
G1 X174.823 Y146.216 E9.26698
G1 X174.823 Y153.784 E9.64454
G1 X174.783 Y154.552 E9.68291
G1 X174.664 Y155.312 E9.72129
G1 X174.466 Y156.055 E9.75965
G1 X174.192 Y156.774 E9.79804
G1 X173.845 Y157.46 E9.83639
G1 X173.429 Y158.107 E9.87477
G1 X172.948 Y158.707 E9.91314
G1 X172.407 Y159.254 E9.95152
G1 X171.812 Y159.742 E9.98991
G1 X171.17 Y160.165 E10.02827
G1 X170.487 Y160.52 E10.06667
G1 X169.772 Y160.801 E10.105
G1 X169.03 Y161.007 E10.14342
G1 X168.272 Y161.135 E10.18177
G1 X167.423 Y161.184 E10.2242
G1 X132.577 Y161.184 E11.96267
G1 X131.809 Y161.144 E12.00104
G1 X131.049 Y161.025 E12.03942
G1 X130.306 Y160.827 E12.07778
G1 X129.587 Y160.553 E12.11617
G1 X128.901 Y160.206 E12.15452
G1 X128.254 Y159.79 E12.19289
G1 X127.654 Y159.309 E12.23126
G1 X127.107 Y158.768 E12.26964
G1 X126.619 Y158.173 E12.30803
G1 X126.196 Y157.531 E12.34639
G1 X125.841 Y156.848 E12.38479
G1 X125.56 Y156.133 E12.42312
G1 X125.354 Y155.391 E12.46154
G1 X125.226 Y154.633 E12.49989
G1 X125.177 Y153.784 E12.54232
G1 X125.177 Y146.216 E12.91989
G1 X125.217 Y145.448 E12.95826
G1 X125.336 Y144.688 E12.99664
G1 X125.534 Y143.945 E13.035
G1 X125.808 Y143.226 E13.07338
G1 X126.155 Y142.54 E13.11174
G1 X126.571 Y141.893 E13.15011
G1 X127.052 Y141.293 E13.18848
G1 X127.593 Y140.746 E13.22686
G0 F3000 X127.985 Y140.932
G1 F700 X128.575 Y140.473 E13.26416
G1 X129.211 Y140.078 E13.30151
G1 X129.885 Y139.754 E13.33882
G1 X130.59 Y139.504 E13.37614
G1 X131.318 Y139.33 E13.41348
G1 X132.06 Y139.235 E13.4508
G1 X132.577 Y139.216 E13.47661
G1 X167.423 Y139.216 E15.21508
G1 X168.17 Y139.256 E15.25241
G1 X168.908 Y139.375 E15.2897
G1 X169.63 Y139.573 E15.32705
G1 X170.326 Y139.846 E15.36435
G1 X170.989 Y140.193 E15.40168
G1 X171.612 Y140.608 E15.43903
G1 X172.186 Y141.087 E15.47633
G1 X172.707 Y141.624 E15.51366
G1 X173.166 Y142.214 E15.55095
G1 X173.561 Y142.85 E15.5883
G1 X173.885 Y143.524 E15.62561
G1 X174.135 Y144.229 E15.66293
G1 X174.309 Y144.957 E15.70027
G1 X174.404 Y145.699 E15.73759
G1 X174.423 Y146.216 E15.7634
G1 X174.423 Y153.784 E16.14097
G1 X174.383 Y154.531 E16.1783
G1 X174.264 Y155.269 E16.21559
G1 X174.066 Y155.991 E16.25294
G1 X173.793 Y156.687 E16.29024
G1 X173.446 Y157.35 E16.32757
G1 X173.031 Y157.973 E16.36492
G1 X172.552 Y158.547 E16.40222
G1 X172.015 Y159.068 E16.43955
G1 X171.425 Y159.527 E16.47684
G1 X170.789 Y159.922 E16.51419
G1 X170.115 Y160.246 E16.5515
G1 X169.41 Y160.496 E16.58882
G1 X168.682 Y160.67 E16.62616
G1 X167.94 Y160.765 E16.66348
G1 X167.423 Y160.784 E16.68929
G1 X132.577 Y160.784 E18.42777
G1 X131.83 Y160.744 E18.46509
G1 X131.092 Y160.625 E18.50238
G1 X130.37 Y160.427 E18.53973
G1 X129.674 Y160.154 E18.57703
G1 X129.011 Y159.807 E18.61437
G1 X128.388 Y159.392 E18.65171
G1 X127.814 Y158.913 E18.68901
G1 X127.293 Y158.376 E18.72634
G1 X126.834 Y157.786 E18.76363
G1 X126.439 Y157.15 E18.80099
G1 X126.115 Y156.476 E18.83829
G1 X125.865 Y155.771 E18.87561
G1 X125.691 Y155.043 E18.91296
G1 X125.596 Y154.301 E18.95028
G1 X125.577 Y153.784 E18.97609
G1 X125.577 Y146.216 E19.35366
G1 X125.617 Y145.469 E19.39098
G1 X125.736 Y144.731 E19.42827
G1 X125.934 Y144.009 E19.46562
G1 X126.207 Y143.313 E19.50292
G1 X126.554 Y142.65 E19.54026
G1 X126.969 Y142.027 E19.5776
G1 X127.448 Y141.453 E19.6149
G1 X127.985 Y140.932 E19.65223
G0 F3000 X127.842 Y141.618
G1 F700 X128.376 Y141.125 E19.68849
G1 X128.961 Y140.695 E19.72471
G1 X129.59 Y140.331 E19.76097
G1 X130.255 Y140.038 E19.79722
G1 X130.948 Y139.82 E19.83347
G1 X131.66 Y139.68 E19.86967
G1 X132.577 Y139.616 E19.91553
G1 X167.423 Y139.616 E21.654
G1 X168.148 Y139.656 E21.69023
G1 X168.865 Y139.775 E21.72649
G1 X169.564 Y139.973 E21.76273
G1 X170.237 Y140.246 E21.79897
G1 X170.876 Y140.591 E21.8352
G1 X171.473 Y141.005 E21.87144
G1 X172.021 Y141.481 E21.90766
G1 X172.514 Y142.015 E21.94391
G1 X172.944 Y142.6 E21.98014
G1 X173.308 Y143.229 E22.01639
G1 X173.601 Y143.894 E22.05265
G1 X173.819 Y144.587 E22.08889
G1 X173.959 Y145.299 E22.12509
G1 X174.023 Y146.216 E22.17095
G1 X174.023 Y153.784 E22.54852
G1 X173.983 Y154.509 E22.58475
G1 X173.864 Y155.226 E22.62101
G1 X173.666 Y155.925 E22.65725
G1 X173.393 Y156.598 E22.69349
G1 X173.048 Y157.237 E22.72972
G1 X172.634 Y157.834 E22.76596
G1 X172.158 Y158.382 E22.80218
G1 X171.624 Y158.875 E22.83844
G1 X171.039 Y159.305 E22.87466
G1 X170.41 Y159.669 E22.91091
G1 X169.745 Y159.962 E22.94717
G1 X169.052 Y160.18 E22.98341
G1 X168.34 Y160.32 E23.01962
G1 X167.423 Y160.384 E23.06548
G1 X132.577 Y160.384 E24.80395
G1 X131.852 Y160.344 E24.84018
G1 X131.135 Y160.225 E24.87644
G1 X130.436 Y160.027 E24.91268
G1 X129.763 Y159.754 E24.94891
G1 X129.124 Y159.409 E24.98514
G1 X128.527 Y158.995 E25.02139
G1 X127.979 Y158.519 E25.0576
G1 X127.486 Y157.985 E25.09386
G1 X127.056 Y157.4 E25.13008
G1 X126.692 Y156.771 E25.16634
G1 X126.399 Y156.106 E25.2026
G1 X126.181 Y155.413 E25.23884
G1 X126.041 Y154.701 E25.27504
G1 X125.977 Y153.784 E25.3209
G1 X125.977 Y146.216 E25.69847
G1 X126.017 Y145.491 E25.7347
G1 X126.136 Y144.774 E25.77096
G1 X126.334 Y144.075 E25.8072
G1 X126.607 Y143.402 E25.84344
G1 X126.952 Y142.763 E25.87967
G1 X127.366 Y142.166 E25.91591
G1 X127.842 Y141.618 E25.95212
G0 F3000 X128.236 Y141.789
G1 F700 X128.766 Y141.325 E25.98727
G1 X129.345 Y140.925 E26.02238
G1 X129.966 Y140.593 E26.05751
G1 X130.62 Y140.333 E26.09262
G1 X131.3 Y140.149 E26.12777
G1 X131.996 Y140.043 E26.16289
G1 X132.577 Y140.016 E26.19191
G1 X167.423 Y140.016 E27.93038
G1 X168.126 Y140.056 E27.96551
G1 X168.82 Y140.175 E28.00064
G1 X169.495 Y140.373 E28.03573
G1 X170.144 Y140.645 E28.07084
G1 X170.758 Y140.99 E28.10598
G1 X171.329 Y141.401 E28.14108
G1 X171.85 Y141.875 E28.17622
G1 X172.314 Y142.405 E28.21136
G1 X172.714 Y142.984 E28.24647
G1 X173.046 Y143.605 E28.2816
G1 X173.306 Y144.259 E28.31672
G1 X173.49 Y144.939 E28.35186
G1 X173.596 Y145.635 E28.38699
G1 X173.623 Y146.216 E28.416
G1 X173.623 Y153.784 E28.79357
G1 X173.583 Y154.487 E28.8287
G1 X173.464 Y155.181 E28.86383
G1 X173.266 Y155.856 E28.89893
G1 X172.994 Y156.505 E28.93403
G1 X172.649 Y157.119 E28.96917
G1 X172.238 Y157.69 E29.00427
G1 X171.764 Y158.211 E29.03941
G1 X171.234 Y158.675 E29.07455
G1 X170.655 Y159.075 E29.10966
G1 X170.034 Y159.407 E29.14479
G1 X169.38 Y159.667 E29.17991
G1 X168.7 Y159.851 E29.21505
G1 X168.004 Y159.957 E29.25018
G1 X167.423 Y159.984 E29.27919
G1 X132.577 Y159.984 E31.01767
G1 X131.874 Y159.944 E31.0528
G1 X131.18 Y159.825 E31.08793
G1 X130.505 Y159.627 E31.12302
G1 X129.856 Y159.355 E31.15813
G1 X129.242 Y159.01 E31.19326
G1 X128.671 Y158.599 E31.22836
G1 X128.15 Y158.125 E31.2635
G1 X127.686 Y157.595 E31.29865
G1 X127.286 Y157.016 E31.33376
G1 X126.954 Y156.395 E31.36889
G1 X126.694 Y155.741 E31.404
G1 X126.51 Y155.061 E31.43915
G1 X126.404 Y154.365 E31.47427
G1 X126.377 Y153.784 E31.50329
G1 X126.377 Y146.216 E31.88086
G1 X126.417 Y145.513 E31.91599
G1 X126.536 Y144.819 E31.95112
G1 X126.734 Y144.144 E31.98621
G1 X127.006 Y143.495 E32.02132
G1 X127.351 Y142.881 E32.05645
G1 X127.762 Y142.31 E32.09155
G1 X128.236 Y141.789 E32.12669
G0 F3000 X128.63 Y141.967
G1 F700 X129.155 Y141.533 E32.16068
G1 X129.727 Y141.164 E32.19464
G1 X130.339 Y140.865 E32.22862
G1 X130.981 Y140.64 E32.26256
G1 X131.646 Y140.491 E32.29656
G1 X132.577 Y140.416 E32.34316
G1 X167.423 Y140.416 E34.08163
G1 X168.103 Y140.456 E34.11562
G1 X168.773 Y140.575 E34.14956
G1 X169.425 Y140.772 E34.18355
G1 X170.049 Y141.044 E34.21751
G1 X170.637 Y141.388 E34.25149
G1 X171.181 Y141.798 E34.28548
G1 X171.672 Y142.269 E34.31942
G1 X172.106 Y142.794 E34.35341
G1 X172.475 Y143.366 E34.38737
G1 X172.774 Y143.978 E34.42135
G1 X172.999 Y144.62 E34.45529
G1 X173.148 Y145.285 E34.48929
G1 X173.223 Y146.216 E34.53589
G1 X173.223 Y153.784 E34.91345
G1 X173.183 Y154.464 E34.94744
G1 X173.064 Y155.134 E34.98139
G1 X172.867 Y155.786 E35.01537
G1 X172.595 Y156.41 E35.04933
G1 X172.251 Y156.998 E35.08332
G1 X171.841 Y157.542 E35.1173
G1 X171.37 Y158.033 E35.15125
G1 X170.845 Y158.467 E35.18523
G1 X170.273 Y158.836 E35.21919
G1 X169.661 Y159.135 E35.25317
G1 X169.019 Y159.36 E35.28711
G1 X168.354 Y159.509 E35.32111
G1 X167.423 Y159.584 E35.36771
G1 X132.577 Y159.584 E37.10618
G1 X131.897 Y159.544 E37.14017
G1 X131.227 Y159.425 E37.17412
G1 X130.575 Y159.228 E37.2081
G1 X129.951 Y158.956 E37.24206
G1 X129.363 Y158.612 E37.27604
G1 X128.819 Y158.202 E37.31003
G1 X128.328 Y157.731 E37.34397
G1 X127.894 Y157.206 E37.37796
G1 X127.525 Y156.634 E37.41192
G1 X127.226 Y156.022 E37.4459
G1 X127.001 Y155.38 E37.47984
G1 X126.852 Y154.715 E37.51384
G1 X126.777 Y153.784 E37.56044
G1 X126.777 Y146.216 E37.93801
G1 X126.817 Y145.536 E37.97199
G1 X126.936 Y144.866 E38.00594
G1 X127.133 Y144.214 E38.03992
G1 X127.405 Y143.59 E38.07388
G1 X127.749 Y143.002 E38.10787
G1 X128.159 Y142.458 E38.14185
G1 X128.63 Y141.967 E38.1758
G0 F3000 X129.022 Y142.151
G1 F700 X129.542 Y141.75 E38.20856
G1 X130.106 Y141.414 E38.24131
G1 X130.708 Y141.15 E38.27411
G1 X131.337 Y140.96 E38.30689
G1 X131.984 Y140.849 E38.33964
G1 X132.577 Y140.816 E38.36927
G1 X167.423 Y140.816 E40.10774
G1 X168.079 Y140.856 E40.14053
G1 X168.725 Y140.975 E40.1733
G1 X169.352 Y141.172 E40.20609
G1 X169.95 Y141.444 E40.23887
G1 X170.511 Y141.786 E40.27165
G1 X171.026 Y142.194 E40.30443
G1 X171.488 Y142.661 E40.3372
G1 X171.889 Y143.181 E40.36996
G1 X172.225 Y143.745 E40.40271
G1 X172.489 Y144.347 E40.43551
G1 X172.679 Y144.976 E40.46829
G1 X172.79 Y145.623 E40.50104
G1 X172.823 Y146.216 E40.53067
G1 X172.823 Y153.784 E40.90824
G1 X172.783 Y154.44 E40.94103
G1 X172.664 Y155.086 E40.9738
G1 X172.467 Y155.713 E41.00659
G1 X172.195 Y156.311 E41.03936
G1 X171.853 Y156.872 E41.07214
G1 X171.445 Y157.387 E41.10492
G1 X170.978 Y157.849 E41.1377
G1 X170.458 Y158.25 E41.17046
G1 X169.894 Y158.586 E41.20321
G1 X169.292 Y158.85 E41.23601
G1 X168.663 Y159.04 E41.26879
G1 X168.016 Y159.151 E41.30154
G1 X167.423 Y159.184 E41.33117
G1 X132.577 Y159.184 E43.06964
G1 X131.921 Y159.144 E43.10243
G1 X131.275 Y159.025 E43.1352
G1 X130.648 Y158.828 E43.16799
G1 X130.05 Y158.556 E43.20077
G1 X129.489 Y158.214 E43.23355
G1 X128.974 Y157.806 E43.26632
G1 X128.512 Y157.339 E43.2991
G1 X128.111 Y156.819 E43.33186
G1 X127.775 Y156.255 E43.36461
G1 X127.511 Y155.653 E43.39741
G1 X127.321 Y155.024 E43.43019
G1 X127.21 Y154.377 E43.46294
G1 X127.177 Y153.784 E43.49257
G1 X127.177 Y146.216 E43.87014
G1 X127.217 Y145.56 E43.90293
G1 X127.336 Y144.914 E43.9357
G1 X127.533 Y144.287 E43.96849
G1 X127.805 Y143.689 E44.00126
G1 X128.147 Y143.128 E44.03404
G1 X128.555 Y142.613 E44.06682
G1 X129.022 Y142.151 E44.0996
G0 F3000 X128.95 Y142.775
G1 F700 X129.413 Y142.345 E44.13112
G1 X129.927 Y141.976 E44.16269
G1 X130.483 Y141.676 E44.19421
G1 X131.072 Y141.448 E44.22572
G1 X131.686 Y141.296 E44.25727
G1 X132.577 Y141.216 E44.3019
G1 X167.423 Y141.216 E46.04038
G1 X168.054 Y141.256 E46.07192
G1 X168.675 Y141.375 E46.10347
G1 X169.275 Y141.572 E46.13497
G1 X169.847 Y141.843 E46.16655
G1 X170.379 Y142.183 E46.19805
G1 X170.864 Y142.589 E46.22961
G1 X171.294 Y143.052 E46.26113
G1 X171.663 Y143.566 E46.2927
G1 X171.963 Y144.122 E46.32422
G1 X172.191 Y144.711 E46.35573
G1 X172.343 Y145.325 E46.38729
G1 X172.423 Y146.216 E46.43192
G1 X172.423 Y153.784 E46.80949
G1 X172.383 Y154.415 E46.84103
G1 X172.264 Y155.036 E46.87258
G1 X172.067 Y155.636 E46.90408
G1 X171.796 Y156.208 E46.93566
G1 X171.456 Y156.74 E46.96716
G1 X171.05 Y157.225 E46.99871
G1 X170.587 Y157.655 E47.03024
G1 X170.073 Y158.024 E47.06181
G1 X169.517 Y158.324 E47.09333
G1 X168.928 Y158.552 E47.12484
G1 X168.314 Y158.704 E47.15639
G1 X167.423 Y158.784 E47.20102
G1 X132.577 Y158.784 E48.9395
G1 X131.946 Y158.744 E48.97104
G1 X131.325 Y158.625 E49.00259
G1 X130.725 Y158.428 E49.03409
G1 X130.153 Y158.157 E49.06567
G1 X129.621 Y157.817 E49.09717
G1 X129.136 Y157.411 E49.12873
G1 X128.706 Y156.948 E49.16025
G1 X128.337 Y156.434 E49.19182
G1 X128.037 Y155.878 E49.22334
G1 X127.809 Y155.289 E49.25485
G1 X127.657 Y154.675 E49.2864
G1 X127.577 Y153.784 E49.33104
G1 X127.577 Y146.216 E49.7086
G1 X127.617 Y145.585 E49.74015
G1 X127.736 Y144.964 E49.77169
G1 X127.933 Y144.364 E49.8032
G1 X128.204 Y143.792 E49.83478
G1 X128.544 Y143.26 E49.86628
G1 X128.95 Y142.775 E49.89783
G0 F3000 X129.344 Y142.944
G1 F700 X129.802 Y142.547 E49.92807
G1 X130.309 Y142.214 E49.95833
G1 X130.855 Y141.95 E49.98859
G1 X131.431 Y141.761 E50.01884
G1 X132.027 Y141.649 E50.04909
G1 X132.577 Y141.616 E50.07658
G1 X167.423 Y141.616 E51.81505
G1 X168.028 Y141.656 E51.8453
G1 X168.622 Y141.775 E51.87553
G1 X169.196 Y141.971 E51.90579
G1 X169.739 Y142.242 E51.93606
G1 X170.242 Y142.581 E51.96633
