; Generated with "ZONESTAR Laser Engraving Gcode generator V3"
;
M106 S0 ; turn off laser
G21; Set units to millimeters
G90; Use absolute coordinates
G28; home all axes
G92 X-5 Y0 Z0; Coordinate Offset
M0 turn on laser power and press knob ;Wait for laser turn on
;
G1 Z20 F400 ;Move up Z axis before engraving
;
G0 X65.0 Y83.0 F1200
M106 S255
G4 P20
G1 X66.1 Y83.0 F480
M106 S0
G4 P100
G0 X66.3 Y83.1 F1200
M106 S255
G4 P20
G1 X64.7 Y83.1 F480
M106 S0
G4 P100
G0 X64.6 Y83.2 F1200
M106 S255
G4 P20
G1 X66.4 Y83.2 F480
M106 S0
G4 P100
G0 X66.5 Y83.3 F1200
M106 S255
G4 P20
G1 X64.5 Y83.3 F480
M106 S0
G4 P100
G0 X64.4 Y83.4 F1200
M106 S255
G4 P20
G1 X66.6 Y83.4 F480
M106 S0
G4 P100
G0 X66.8 Y83.5 F1200
M106 S255
G4 P20
G1 X64.3 Y83.5 F480
M106 S0
G4 P100
G0 X64.2 Y83.6 F1200
M106 S255
G4 P20
G1 X66.8 Y83.6 F480
M106 S0
G4 P100
G0 X66.9 Y83.7 F1200
M106 S255
G4 P20
G1 X64.1 Y83.7 F480
M106 S0
G4 P100
G0 X64.0 Y83.8 F1200
M106 S255
G4 P20
G1 X66.9 Y83.8 F480
M106 S0
G4 P100
G0 X67.0 Y83.9 F1200
M106 S255
G4 P20
G1 X64.0 Y83.9 F480
M106 S0
G4 P100
G0 X64.0 Y84.0 F1200
M106 S255
G4 P20
G1 X67.0 Y84.0 F480
M106 S0
G4 P100
G0 X67.1 Y84.1 F1200
M106 S255
G4 P20
G1 X63.9 Y84.1 F480
M106 S0
G4 P100
G0 X63.9 Y84.2 F1200
M106 S255
G4 P20
G1 X67.2 Y84.2 F480
M106 S0
G4 P100
G0 X67.2 Y84.3 F1200
M106 S255
G4 P20
G1 X63.9 Y84.3 F480
M106 S0
G4 P100
G0 X63.9 Y84.4 F1200
M106 S255
G4 P20
G1 X67.3 Y84.4 F480
M106 S0
G4 P100
G0 X67.3 Y84.5 F1200
M106 S255
G4 P20
G1 X63.9 Y84.5 F480
M106 S0
G4 P100
G0 X63.9 Y84.6 F1200
M106 S255
G4 P20
G1 X67.4 Y84.6 F480
M106 S0
G4 P100
G0 X67.5 Y84.7 F1200
M106 S255
G4 P20
G1 X63.9 Y84.7 F480
M106 S0
G4 P100
G0 X63.9 Y84.8 F1200
M106 S255
G4 P20
G1 X67.6 Y84.8 F480
M106 S0
G4 P100
G0 X67.6 Y84.9 F1200
M106 S255
G4 P20
G1 X63.9 Y84.9 F480
M106 S0
G4 P100
G0 X63.9 Y85.0 F1200
M106 S255
G4 P20
G1 X67.7 Y85.0 F480
M106 S0
G4 P100
G0 X67.8 Y85.1 F1200
M106 S255
G4 P20
G1 X63.9 Y85.1 F480
M106 S0
G4 P100
G0 X64.0 Y85.2 F1200
M106 S255
G4 P20
G1 X67.9 Y85.2 F480
M106 S0
G4 P100
G0 X67.9 Y85.3 F1200
M106 S255
G4 P20
G1 X64.0 Y85.3 F480
M106 S0
G4 P100
G0 X64.0 Y85.4 F1200
M106 S255
G4 P20
G1 X68.0 Y85.4 F480
M106 S0
G4 P100
G0 X68.1 Y85.5 F1200
M106 S255
G4 P20
G1 X64.0 Y85.5 F480
M106 S0
G4 P100
G0 X64.1 Y85.6 F1200
M106 S255
G4 P20
G1 X68.2 Y85.6 F480
M106 S0
G4 P100
G0 X68.3 Y85.7 F1200
M106 S255
G4 P20
G1 X64.1 Y85.7 F480
M106 S0
G4 P100
G0 X64.2 Y85.8 F1200
M106 S255
G4 P20
G1 X68.3 Y85.8 F480
M106 S0
G4 P100
G0 X68.4 Y85.9 F1200
M106 S255
G4 P20
G1 X64.2 Y85.9 F480
M106 S0
G4 P100
G0 X64.3 Y86.0 F1200
M106 S255
G4 P20
G1 X68.5 Y86.0 F480
M106 S0
G4 P100
G0 X68.6 Y86.1 F1200
M106 S255
G4 P20
G1 X64.3 Y86.1 F480
M106 S0
G4 P100
G0 X64.3 Y86.2 F1200
M106 S255
G4 P20
G1 X68.7 Y86.2 F480
M106 S0
G4 P100
G0 X68.8 Y86.3 F1200
M106 S255
G4 P20
G1 X64.4 Y86.3 F480
M106 S0
G4 P100
G0 X64.4 Y86.4 F1200
M106 S255
G4 P20
G1 X68.9 Y86.4 F480
M106 S0
G4 P100
G0 X69.0 Y86.5 F1200
M106 S255
G4 P20
G1 X64.5 Y86.5 F480
M106 S0
G4 P100
G0 X64.5 Y86.6 F1200
M106 S255
G4 P20
G1 X69.1 Y86.6 F480
M106 S0
G4 P100
G0 X69.2 Y86.7 F1200
M106 S255
G4 P20
G1 X64.6 Y86.7 F480
M106 S0
G4 P100
G0 X64.6 Y86.8 F1200
M106 S255
G4 P20
G1 X69.3 Y86.8 F480
M106 S0
G4 P100
G0 X69.4 Y86.9 F1200
M106 S255
G4 P20
G1 X64.7 Y86.9 F480
M106 S0
G4 P100
G0 X64.7 Y87.0 F1200
M106 S255
G4 P20
G1 X69.5 Y87.0 F480
M106 S0
G4 P100
G0 X69.6 Y87.1 F1200
M106 S255
G4 P20
G1 X64.8 Y87.1 F480
M106 S0
G4 P100
G0 X64.8 Y87.2 F1200
M106 S255
G4 P20
G1 X69.7 Y87.2 F480
M106 S0
G4 P100
G0 X69.9 Y87.3 F1200
M106 S255
G4 P20
G1 X64.9 Y87.3 F480
M106 S0
G4 P100
G0 X64.9 Y87.4 F1200
M106 S255
G4 P20
G1 X70.0 Y87.4 F480
M106 S0
G4 P100
G0 X70.1 Y87.5 F1200
M106 S255
G4 P20
G1 X65.0 Y87.5 F480
M106 S0
G4 P100
G0 X65.0 Y87.6 F1200
M106 S255
G4 P20
G1 X70.2 Y87.6 F480
M106 S0
G4 P100
G0 X70.3 Y87.7 F1200
M106 S255
G4 P20
G1 X65.1 Y87.7 F480
M106 S0
G4 P100
G0 X65.1 Y87.8 F1200
M106 S255
G4 P20
G1 X70.4 Y87.8 F480
M106 S0
G4 P100
G0 X70.6 Y87.9 F1200
M106 S255
G4 P20
G1 X65.2 Y87.9 F480
M106 S0
G4 P100
G0 X65.2 Y88.0 F1200
M106 S255
G4 P20
G1 X70.7 Y88.0 F480
M106 S0
G4 P100
G0 X70.8 Y88.1 F1200
M106 S255
G4 P20
G1 X65.3 Y88.1 F480
M106 S0
G4 P100
G0 X65.3 Y88.2 F1200
M106 S255
G4 P20
G1 X70.9 Y88.2 F480
M106 S0
G4 P100
G0 X97.1 Y88.3 F1200
M106 S255
G4 P20
G1 X96.9 Y88.3 F480
M106 S0
G4 P100
G0 X71.1 Y88.3 F1200
M106 S255
G4 P20
G1 X65.3 Y88.3 F480
M106 S0
G4 P100
G0 X65.4 Y88.4 F1200
M106 S255
G4 P20
G1 X71.2 Y88.4 F480
M106 S0
G4 P100
G0 X96.7 Y88.4 F1200
M106 S255
G4 P20
G1 X97.4 Y88.4 F480
M106 S0
G4 P100
G0 X97.6 Y88.5 F1200
M106 S255
G4 P20
G1 X96.6 Y88.5 F480
M106 S0
G4 P100
G0 X71.3 Y88.5 F1200
M106 S255
G4 P20
G1 X65.4 Y88.5 F480
M106 S0
G4 P100
G0 X65.4 Y88.6 F1200
M106 S255
G4 P20
G1 X71.5 Y88.6 F480
M106 S0
G4 P100
G0 X96.5 Y88.6 F1200
M106 S255
G4 P20
G1 X97.7 Y88.6 F480
M106 S0
G4 P100
G0 X97.7 Y88.7 F1200
M106 S255
G4 P20
G1 X96.5 Y88.7 F480
M106 S0
G4 P100
G0 X71.7 Y88.7 F1200
M106 S255
G4 P20
G1 X65.5 Y88.7 F480
M106 S0
G4 P100
G0 X65.5 Y88.8 F1200
M106 S255
G4 P20
G1 X71.8 Y88.8 F480
M106 S0
G4 P100
G0 X96.5 Y88.8 F1200
M106 S255
G4 P20
G1 X97.7 Y88.8 F480
M106 S0
G4 P100
G0 X97.7 Y88.9 F1200
M106 S255
G4 P20
G1 X96.4 Y88.9 F480
M106 S0
G4 P100
G0 X71.9 Y88.9 F1200
M106 S255
G4 P20
G1 X65.6 Y88.9 F480
M106 S0
G4 P100
G0 X65.6 Y89.0 F1200
M106 S255
G4 P20
G1 X72.1 Y89.0 F480
M106 S0
G4 P100
G0 X96.4 Y89.0 F1200
M106 S255
G4 P20
G1 X97.8 Y89.0 F480
M106 S0
G4 P100
G0 X97.8 Y89.1 F1200
M106 S255
G4 P20
G1 X96.3 Y89.1 F480
M106 S0
G4 P100
G0 X72.2 Y89.1 F1200
M106 S255
G4 P20
G1 X65.6 Y89.1 F480
M106 S0
G4 P100
G0 X65.6 Y89.2 F1200
M106 S255
G4 P20
G1 X72.3 Y89.2 F480
M106 S0
G4 P100
G0 X96.3 Y89.2 F1200
M106 S255
G4 P20
G1 X97.8 Y89.2 F480
M106 S0
G4 P100
G0 X97.9 Y89.3 F1200
M106 S255
G4 P20
G1 X96.2 Y89.3 F480
M106 S0
G4 P100
G0 X72.5 Y89.3 F1200
M106 S255
G4 P20
G1 X65.6 Y89.3 F480
M106 S0
G4 P100
G0 X65.7 Y89.4 F1200
M106 S255
G4 P20
G1 X72.6 Y89.4 F480
M106 S0
G4 P100
G0 X96.2 Y89.4 F1200
M106 S255
G4 P20
G1 X97.9 Y89.4 F480
M106 S0
G4 P100
G0 X97.9 Y89.5 F1200
M106 S255
G4 P20
G1 X96.1 Y89.5 F480
M106 S0
G4 P100
G0 X72.8 Y89.5 F1200
M106 S255
G4 P20
G1 X65.7 Y89.5 F480
M106 S0
G4 P100
G0 X65.7 Y89.6 F1200
M106 S255
G4 P20
G1 X73.0 Y89.6 F480
M106 S0
G4 P100
G0 X96.1 Y89.6 F1200
M106 S255
G4 P20
G1 X98.0 Y89.6 F480
M106 S0
G4 P100
G0 X98.0 Y89.7 F1200
M106 S255
G4 P20
G1 X96.1 Y89.7 F480
M106 S0
G4 P100
G0 X73.1 Y89.7 F1200
M106 S255
G4 P20
G1 X65.7 Y89.7 F480
M106 S0
G4 P100
G0 X65.7 Y89.8 F1200
M106 S255
G4 P20
G1 X73.3 Y89.8 F480
M106 S0
G4 P100
G0 X96.0 Y89.8 F1200
M106 S255
G4 P20
G1 X98.1 Y89.8 F480
M106 S0
G4 P100
G0 X98.1 Y89.9 F1200
M106 S255
G4 P20
G1 X96.0 Y89.9 F480
M106 S0
G4 P100
G0 X73.4 Y89.9 F1200
M106 S255
G4 P20
G1 X65.7 Y89.9 F480
M106 S0
G4 P100
G0 X65.7 Y90.0 F1200
M106 S255
G4 P20
G1 X73.6 Y90.0 F480
M106 S0
G4 P100
G0 X96.0 Y90.0 F1200
M106 S255
G4 P20
G1 X98.2 Y90.0 F480
M106 S0
G4 P100
G0 X98.2 Y90.1 F1200
M106 S255
G4 P20
G1 X95.9 Y90.1 F480
M106 S0
G4 P100
G0 X73.7 Y90.1 F1200
M106 S255
G4 P20
G1 X65.7 Y90.1 F480
M106 S0
G4 P100
G0 X65.7 Y90.2 F1200
M106 S255
G4 P20
G1 X73.9 Y90.2 F480
M106 S0
G4 P100
G0 X95.9 Y90.2 F1200
M106 S255
G4 P20
G1 X98.3 Y90.2 F480
M106 S0
G4 P100
G0 X98.4 Y90.3 F1200
M106 S255
G4 P20
G1 X95.9 Y90.3 F480
M106 S0
G4 P100
G0 X74.0 Y90.3 F1200
M106 S255
G4 P20
G1 X65.6 Y90.3 F480
M106 S0
G4 P100
G0 X65.6 Y90.4 F1200
M106 S255
G4 P20
G1 X74.2 Y90.4 F480
M106 S0
G4 P100
G0 X95.8 Y90.4 F1200
M106 S255
G4 P20
G1 X98.5 Y90.4 F480
M106 S0
G4 P100
G0 X98.5 Y90.5 F1200
M106 S255
G4 P20
G1 X95.8 Y90.5 F480
M106 S0
G4 P100
G0 X74.4 Y90.5 F1200
M106 S255
G4 P20
G1 X65.6 Y90.5 F480
M106 S0
G4 P100
G0 X65.6 Y90.6 F1200
M106 S255
G4 P20
G1 X74.5 Y90.6 F480
M106 S0
G4 P100
G0 X95.8 Y90.6 F1200
M106 S255
G4 P20
G1 X98.6 Y90.6 F480
M106 S0
G4 P100
G0 X98.7 Y90.7 F1200
M106 S255
G4 P20
G1 X95.8 Y90.7 F480
M106 S0
G4 P100
G0 X74.7 Y90.7 F1200
M106 S255
G4 P20
G1 X65.5 Y90.7 F480
M106 S0
G4 P100
G0 X65.5 Y90.8 F1200
M106 S255
G4 P20
G1 X74.9 Y90.8 F480
M106 S0
G4 P100
G0 X95.7 Y90.8 F1200
M106 S255
G4 P20
G1 X98.9 Y90.8 F480
M106 S0
G4 P100
G0 X99.0 Y90.9 F1200
M106 S255
G4 P20
G1 X95.7 Y90.9 F480
M106 S0
G4 P100
G0 X75.0 Y90.9 F1200
M106 S255
G4 P20
G1 X65.5 Y90.9 F480
M106 S0
G4 P100
G0 X65.4 Y91.0 F1200
M106 S255
G4 P20
G1 X75.2 Y91.0 F480
M106 S0
G4 P100
G0 X95.7 Y91.0 F1200
M106 S255
G4 P20
G1 X99.2 Y91.0 F480
M106 S0
G4 P100
G0 X99.4 Y91.1 F1200
M106 S255
G4 P20
G1 X95.7 Y91.1 F480
M106 S0
G4 P100
G0 X75.3 Y91.1 F1200
M106 S255
G4 P20
G1 X65.4 Y91.1 F480
M106 S0
G4 P100
G0 X65.4 Y91.2 F1200
M106 S255
G4 P20
G1 X75.5 Y91.2 F480
M106 S0
G4 P100
G0 X95.7 Y91.2 F1200
M106 S255
G4 P20
G1 X99.6 Y91.2 F480
M106 S0
G4 P100
G0 X99.9 Y91.3 F1200
M106 S255
G4 P20
G1 X95.7 Y91.3 F480
M106 S0
G4 P100
G0 X75.7 Y91.3 F1200
M106 S255
G4 P20
G1 X65.3 Y91.3 F480
M106 S0
G4 P100
G0 X65.3 Y91.4 F1200
M106 S255
G4 P20
G1 X75.8 Y91.4 F480
M106 S0
G4 P100
G0 X95.6 Y91.4 F1200
M106 S255
G4 P20
G1 X100.3 Y91.4 F480
M106 S0
G4 P100
G0 X100.9 Y91.5 F1200
M106 S255
G4 P20
G1 X95.6 Y91.5 F480
M106 S0
G4 P100
G0 X76.0 Y91.5 F1200
M106 S255
G4 P20
G1 X65.3 Y91.5 F480
M106 S0
G4 P100
G0 X65.3 Y91.6 F1200
M106 S255
G4 P20
G1 X76.2 Y91.6 F480
M106 S0
G4 P100
G0 X95.6 Y91.6 F1200
M106 S255
G4 P20
G1 X101.5 Y91.6 F480
M106 S0
G4 P100
G0 X102.0 Y91.7 F1200
M106 S255
G4 P20
G1 X95.6 Y91.7 F480
M106 S0
G4 P100
G0 X76.3 Y91.7 F1200
M106 S255
G4 P20
G1 X65.3 Y91.7 F480
M106 S0
G4 P100
G0 X65.3 Y91.8 F1200
M106 S255
G4 P20
G1 X76.5 Y91.8 F480
M106 S0
G4 P100
G0 X95.6 Y91.8 F1200
M106 S255
G4 P20
G1 X102.3 Y91.8 F480
M106 S0
G4 P100
G0 X102.6 Y91.9 F1200
M106 S255
G4 P20
G1 X95.6 Y91.9 F480
M106 S0
G4 P100
G0 X76.7 Y91.9 F1200
M106 S255
G4 P20
G1 X65.2 Y91.9 F480
M106 S0
G4 P100
G0 X65.2 Y92.0 F1200
M106 S255
G4 P20
G1 X76.8 Y92.0 F480
M106 S0
G4 P100
G0 X95.6 Y92.0 F1200
M106 S255
G4 P20
G1 X102.9 Y92.0 F480
M106 S0
G4 P100
G0 X116.7 Y92.1 F1200
M106 S255
G4 P20
G1 X116.3 Y92.1 F480
M106 S0
G4 P100
G0 X103.2 Y92.1 F1200
M106 S255
G4 P20
G1 X95.6 Y92.1 F480
M106 S0
G4 P100
G0 X77.0 Y92.1 F1200
M106 S255
G4 P20
G1 X65.2 Y92.1 F480
M106 S0
G4 P100
G0 X65.2 Y92.2 F1200
M106 S255
G4 P20
G1 X77.2 Y92.2 F480
M106 S0
G4 P100
G0 X95.6 Y92.2 F1200
M106 S255
G4 P20
G1 X103.3 Y92.2 F480
M106 S0
G4 P100
G0 X116.2 Y92.2 F1200
M106 S255
G4 P20
G1 X116.8 Y92.2 F480
M106 S0
G4 P100
G0 X116.9 Y92.3 F1200
M106 S255
G4 P20
G1 X116.1 Y92.3 F480
M106 S0
G4 P100
G0 X103.5 Y92.3 F1200
M106 S255
G4 P20
G1 X95.6 Y92.3 F480
M106 S0
G4 P100
G0 X81.9 Y92.3 F1200
M106 S255
G4 P20
G1 X80.7 Y92.3 F480
M106 S0
G4 P100
G0 X77.3 Y92.3 F1200
M106 S255
G4 P20
G1 X65.2 Y92.3 F480
M106 S0
G4 P100
G0 X65.2 Y92.4 F1200
M106 S255
G4 P20
G1 X77.5 Y92.4 F480
M106 S0
G4 P100
G0 X79.1 Y92.4 F1200
M106 S255
G4 P20
G1 X83.3 Y92.4 F480
M106 S0
G4 P100
G0 X95.6 Y92.4 F1200
M106 S255
G4 P20
G1 X103.7 Y92.4 F480
M106 S0
G4 P100
G0 X115.9 Y92.4 F1200
M106 S255
G4 P20
G1 X117.0 Y92.4 F480
M106 S0
G4 P100
G0 X117.0 Y92.5 F1200
M106 S255
G4 P20
G1 X115.7 Y92.5 F480
M106 S0
G4 P100
G0 X103.8 Y92.5 F1200
M106 S255
G4 P20
G1 X95.6 Y92.5 F480
M106 S0
G4 P100
G0 X84.1 Y92.5 F1200
M106 S255
G4 P20
G1 X78.2 Y92.5 F480
M106 S0
G4 P100
G0 X77.6 Y92.5 F1200
M106 S255
G4 P20
G1 X65.1 Y92.5 F480
M106 S0
G4 P100
G0 X65.1 Y92.6 F1200
M106 S255
G4 P20
G1 X84.5 Y92.6 F480
M106 S0
G4 P100
G0 X95.6 Y92.6 F1200
M106 S255
G4 P20
G1 X104.0 Y92.6 F480
M106 S0
G4 P100
G0 X115.5 Y92.6 F1200
M106 S255
G4 P20
G1 X116.9 Y92.6 F480
M106 S0
G4 P100
G0 X116.9 Y92.7 F1200
M106 S255
G4 P20
G1 X115.4 Y92.7 F480
M106 S0
G4 P100
G0 X104.1 Y92.7 F1200
M106 S255
G4 P20
G1 X95.6 Y92.7 F480
M106 S0
G4 P100
G0 X85.0 Y92.7 F1200
M106 S255
G4 P20
G1 X65.1 Y92.7 F480
M106 S0
G4 P100
G0 X65.1 Y92.8 F1200
M106 S255
G4 P20
G1 X85.4 Y92.8 F480
M106 S0
G4 P100
G0 X95.6 Y92.8 F1200
M106 S255
G4 P20
G1 X104.2 Y92.8 F480
M106 S0
G4 P100
G0 X115.2 Y92.8 F1200
M106 S255
G4 P20
G1 X116.8 Y92.8 F480
M106 S0
G4 P100
G0 X116.7 Y92.9 F1200
M106 S255
G4 P20
G1 X114.9 Y92.9 F480
M106 S0
G4 P100
G0 X104.3 Y92.9 F1200
M106 S255
G4 P20
G1 X95.6 Y92.9 F480
M106 S0
G4 P100
G0 X85.8 Y92.9 F1200
M106 S255
G4 P20
G1 X65.1 Y92.9 F480
M106 S0
G4 P100
G0 X65.1 Y93.0 F1200
M106 S255
G4 P20
G1 X86.2 Y93.0 F480
M106 S0
G4 P100
G0 X95.6 Y93.0 F1200
M106 S255
G4 P20
G1 X104.5 Y93.0 F480
M106 S0
G4 P100
G0 X114.7 Y93.0 F1200
M106 S255
G4 P20
G1 X116.7 Y93.0 F480
M106 S0
G4 P100
G0 X116.6 Y93.1 F1200
M106 S255
G4 P20
G1 X114.5 Y93.1 F480
M106 S0
G4 P100
G0 X104.6 Y93.1 F1200
M106 S255
G4 P20
G1 X95.6 Y93.1 F480
M106 S0
G4 P100
G0 X86.4 Y93.1 F1200
M106 S255
G4 P20
G1 X65.1 Y93.1 F480
M106 S0
G4 P100
G0 X65.1 Y93.2 F1200
M106 S255
G4 P20
G1 X86.7 Y93.2 F480
M106 S0
G4 P100
G0 X95.6 Y93.2 F1200
M106 S255
G4 P20
G1 X104.6 Y93.2 F480
M106 S0
G4 P100
G0 X114.1 Y93.2 F1200
M106 S255
G4 P20
G1 X116.6 Y93.2 F480
M106 S0
G4 P100
G0 X116.5 Y93.3 F1200
M106 S255
G4 P20
G1 X113.7 Y93.3 F480
M106 S0
G4 P100
G0 X109.9 Y93.3 F1200
M106 S255
G4 P20
G1 X107.2 Y93.3 F480
M106 S0
G4 P100
G0 X104.8 Y93.3 F1200
M106 S255
G4 P20
G1 X95.6 Y93.3 F480
M106 S0
G4 P100
G0 X87.0 Y93.3 F1200
M106 S255
G4 P20
G1 X65.1 Y93.3 F480
M106 S0
G4 P100
G0 X65.1 Y93.4 F1200
M106 S255
G4 P20
G1 X87.2 Y93.4 F480
M106 S0
G4 P100
G0 X95.7 Y93.4 F1200
M106 S255
G4 P20
G1 X104.9 Y93.4 F480
M106 S0
G4 P100
G0 X106.8 Y93.4 F1200
M106 S255
G4 P20
G1 X110.9 Y93.4 F480
M106 S0
G4 P100
G0 X113.0 Y93.4 F1200
M106 S255
G4 P20
G1 X116.4 Y93.4 F480
M106 S0
G4 P100
G0 X116.3 Y93.5 F1200
M106 S255
G4 P20
G1 X106.5 Y93.5 F480
M106 S0
G4 P100
G0 X105.0 Y93.5 F1200
M106 S255
G4 P20
G1 X95.7 Y93.5 F480
M106 S0
G4 P100
G0 X87.4 Y93.5 F1200
M106 S255
G4 P20
G1 X65.1 Y93.5 F480
M106 S0
G4 P100
G0 X65.1 Y93.6 F1200
M106 S255
G4 P20
G1 X87.6 Y93.6 F480
M106 S0
G4 P100
G0 X95.7 Y93.6 F1200
M106 S255
G4 P20
G1 X105.0 Y93.6 F480
M106 S0
G4 P100
G0 X106.3 Y93.6 F1200
M106 S255
G4 P20
G1 X116.3 Y93.6 F480
M106 S0
G4 P100
G0 X116.2 Y93.7 F1200
M106 S255
G4 P20
G1 X106.1 Y93.7 F480
M106 S0
G4 P100
G0 X105.1 Y93.7 F1200
M106 S255
G4 P20
G1 X95.7 Y93.7 F480
M106 S0
G4 P100
G0 X87.9 Y93.7 F1200
M106 S255
G4 P20
G1 X65.1 Y93.7 F480
M106 S0
G4 P100
G0 X65.1 Y93.8 F1200
M106 S255
G4 P20
G1 X88.1 Y93.8 F480
M106 S0
G4 P100
G0 X95.7 Y93.8 F1200
M106 S255
G4 P20
G1 X105.2 Y93.8 F480
M106 S0
G4 P100
G0 X106.0 Y93.8 F1200
M106 S255
G4 P20
G1 X116.1 Y93.8 F480
M106 S0
G4 P100
G0 X116.0 Y93.9 F1200
M106 S255
G4 P20
G1 X105.8 Y93.9 F480
M106 S0
G4 P100
G0 X105.3 Y93.9 F1200
M106 S255
G4 P20
G1 X95.8 Y93.9 F480
M106 S0
G4 P100
G0 X88.3 Y93.9 F1200
M106 S255
G4 P20
G1 X65.1 Y93.9 F480
M106 S0
G4 P100
G0 X65.1 Y94.0 F1200
M106 S255
G4 P20
G1 X88.5 Y94.0 F480
M106 S0
G4 P100
G0 X95.8 Y94.0 F1200
M106 S255
G4 P20
G1 X105.4 Y94.0 F480
M106 S0
G4 P100
G0 X105.7 Y94.0 F1200
M106 S255
G4 P20
G1 X115.9 Y94.0 F480
M106 S0
G4 P100
G0 X115.9 Y94.1 F1200
M106 S255
G4 P20
G1 X95.8 Y94.1 F480
M106 S0
G4 P100
G0 X88.7 Y94.1 F1200
M106 S255
G4 P20
G1 X74.4 Y94.1 F480
M106 S0
G4 P100
G0 X73.5 Y94.1 F1200
M106 S255
G4 P20
G1 X65.1 Y94.1 F480
M106 S0
G4 P100
G0 X65.1 Y94.2 F1200
M106 S255
G4 P20
G1 X73.3 Y94.2 F480
M106 S0
G4 P100
G0 X74.6 Y94.2 F1200
M106 S255
G4 P20
G1 X88.9 Y94.2 F480
M106 S0
G4 P100
G0 X95.8 Y94.2 F1200
M106 S255
G4 P20
G1 X115.8 Y94.2 F480
M106 S0
G4 P100
G0 X115.7 Y94.3 F1200
M106 S255
G4 P20
G1 X95.9 Y94.3 F480
M106 S0
G4 P100
G0 X89.1 Y94.3 F1200
M106 S255
G4 P20
G1 X74.7 Y94.3 F480
M106 S0
G4 P100
G0 X73.2 Y94.3 F1200
M106 S255
G4 P20
G1 X65.1 Y94.3 F480
M106 S0
G4 P100
G0 X65.1 Y94.4 F1200
M106 S255
G4 P20
G1 X73.2 Y94.4 F480
M106 S0
G4 P100
G0 X74.8 Y94.4 F1200
M106 S255
G4 P20
G1 X89.2 Y94.4 F480
M106 S0
G4 P100
G0 X95.9 Y94.4 F1200
M106 S255
G4 P20
G1 X115.6 Y94.4 F480
M106 S0
G4 P100
G0 X115.5 Y94.5 F1200
M106 S255
G4 P20
G1 X96.0 Y94.5 F480
M106 S0
G4 P100
G0 X89.2 Y94.5 F1200
M106 S255
G4 P20
G1 X74.8 Y94.5 F480
M106 S0
G4 P100
G0 X73.1 Y94.5 F1200
M106 S255
G4 P20
G1 X65.1 Y94.5 F480
M106 S0
G4 P100
G0 X65.1 Y94.6 F1200
M106 S255
G4 P20
G1 X73.0 Y94.6 F480
M106 S0
G4 P100
G0 X74.9 Y94.6 F1200
M106 S255
G4 P20
G1 X89.3 Y94.6 F480
M106 S0
G4 P100
G0 X96.0 Y94.6 F1200
M106 S255
G4 P20
G1 X115.4 Y94.6 F480
M106 S0
G4 P100
G0 X115.4 Y94.7 F1200
M106 S255
G4 P20
G1 X96.1 Y94.7 F480
M106 S0
G4 P100
G0 X89.3 Y94.7 F1200
M106 S255
G4 P20
G1 X74.9 Y94.7 F480
M106 S0
G4 P100
G0 X73.0 Y94.7 F1200
M106 S255
G4 P20
G1 X65.1 Y94.7 F480
M106 S0
G4 P100
G0 X65.1 Y94.8 F1200
M106 S255
G4 P20
G1 X73.0 Y94.8 F480
M106 S0
G4 P100
G0 X74.9 Y94.8 F1200
M106 S255
G4 P20
G1 X89.3 Y94.8 F480
M106 S0
G4 P100
G0 X96.1 Y94.8 F1200
M106 S255
G4 P20
G1 X115.3 Y94.8 F480
M106 S0
G4 P100
G0 X115.2 Y94.9 F1200
M106 S255
G4 P20
G1 X96.1 Y94.9 F480
M106 S0
G4 P100
G0 X89.4 Y94.9 F1200
M106 S255
G4 P20
G1 X75.0 Y94.9 F480
M106 S0
G4 P100
G0 X73.0 Y94.9 F1200
M106 S255
G4 P20
G1 X65.1 Y94.9 F480
M106 S0
G4 P100
G0 X65.1 Y95.0 F1200
M106 S255
G4 P20
G1 X73.0 Y95.0 F480
M106 S0
G4 P100
G0 X75.0 Y95.0 F1200
M106 S255
G4 P20
G1 X86.4 Y95.0 F480
M106 S0
G4 P100
G0 X87.7 Y95.0 F1200
M106 S255
G4 P20
G1 X89.4 Y95.0 F480
M106 S0
G4 P100
G0 X96.2 Y95.0 F1200
M106 S255
G4 P20
G1 X115.1 Y95.0 F480
M106 S0
G4 P100
G0 X115.0 Y95.1 F1200
M106 S255
G4 P20
G1 X96.2 Y95.1 F480
M106 S0
G4 P100
G0 X89.3 Y95.1 F1200
M106 S255
G4 P20
G1 X88.4 Y95.1 F480
M106 S0
G4 P100
G0 X85.7 Y95.1 F1200
M106 S255
G4 P20
G1 X74.9 Y95.1 F480
M106 S0
G4 P100
G0 X73.0 Y95.1 F1200
M106 S255
G4 P20
G1 X65.1 Y95.1 F480
M106 S0
G4 P100
G0 X65.1 Y95.2 F1200
M106 S255
G4 P20
G1 X73.0 Y95.2 F480
M106 S0
G4 P100
G0 X74.9 Y95.2 F1200
M106 S255
G4 P20
G1 X85.4 Y95.2 F480
M106 S0
G4 P100
G0 X88.9 Y95.2 F1200
M106 S255
G4 P20
G1 X89.3 Y95.2 F480
M106 S0
G4 P100
G0 X96.3 Y95.2 F1200
M106 S255
G4 P20
G1 X114.9 Y95.2 F480
M106 S0
G4 P100
G0 X114.8 Y95.3 F1200
M106 S255
G4 P20
G1 X96.3 Y95.3 F480
M106 S0
G4 P100
G0 X89.2 Y95.3 F1200
M106 S255
G4 P20
G1 X89.2 Y95.3 F480
M106 S0
G4 P100
G0 X85.2 Y95.3 F1200
M106 S255
G4 P20
G1 X74.9 Y95.3 F480
M106 S0
G4 P100
G0 X73.1 Y95.3 F1200
M106 S255
G4 P20
G1 X65.1 Y95.3 F480
M106 S0
G4 P100
G0 X65.2 Y95.4 F1200
M106 S255
G4 P20
G1 X73.1 Y95.4 F480
M106 S0
G4 P100
G0 X74.8 Y95.4 F1200
M106 S255
G4 P20
G1 X84.9 Y95.4 F480
M106 S0
G4 P100
G0 X96.4 Y95.4 F1200
M106 S255
G4 P20
G1 X114.7 Y95.4 F480
M106 S0
G4 P100
G0 X114.6 Y95.5 F1200
M106 S255
G4 P20
G1 X96.5 Y95.5 F480
M106 S0
G4 P100
G0 X84.7 Y95.5 F1200
M106 S255
G4 P20
G1 X74.8 Y95.5 F480
M106 S0
G4 P100
G0 X73.2 Y95.5 F1200
M106 S255
G4 P20
G1 X65.2 Y95.5 F480
M106 S0
G4 P100
G0 X65.2 Y95.6 F1200
M106 S255
G4 P20
G1 X73.3 Y95.6 F480
M106 S0
G4 P100
G0 X74.7 Y95.6 F1200
M106 S255
G4 P20
G1 X84.5 Y95.6 F480
M106 S0
G4 P100
G0 X96.5 Y95.6 F1200
M106 S255
G4 P20
G1 X114.5 Y95.6 F480
M106 S0
G4 P100
G0 X114.4 Y95.7 F1200
M106 S255
G4 P20
G1 X96.6 Y95.7 F480
M106 S0
G4 P100
G0 X84.4 Y95.7 F1200
M106 S255
G4 P20
G1 X74.6 Y95.7 F480
M106 S0
G4 P100
G0 X73.4 Y95.7 F1200
M106 S255
G4 P20
G1 X65.2 Y95.7 F480
M106 S0
G4 P100
G0 X65.2 Y95.8 F1200
M106 S255
G4 P20
G1 X73.6 Y95.8 F480
M106 S0
G4 P100
G0 X74.4 Y95.8 F1200
M106 S255
G4 P20
G1 X84.3 Y95.8 F480
M106 S0
G4 P100
G0 X96.6 Y95.8 F1200
M106 S255
G4 P20
G1 X114.3 Y95.8 F480
M106 S0
G4 P100
G0 X114.2 Y95.9 F1200
M106 S255
G4 P20
G1 X96.7 Y95.9 F480
M106 S0
G4 P100
G0 X84.1 Y95.9 F1200
M106 S255
G4 P20
G1 X65.2 Y95.9 F480
M106 S0
G4 P100
G0 X65.2 Y96.0 F1200
M106 S255
G4 P20
G1 X84.0 Y96.0 F480
M106 S0
G4 P100
G0 X96.8 Y96.0 F1200
M106 S255
G4 P20
G1 X114.1 Y96.0 F480
M106 S0
G4 P100
G0 X114.0 Y96.1 F1200
M106 S255
G4 P20
G1 X96.9 Y96.1 F480
M106 S0
G4 P100
G0 X83.9 Y96.1 F1200
M106 S255
G4 P20
G1 X65.2 Y96.1 F480
M106 S0
G4 P100
G0 X65.3 Y96.2 F1200
M106 S255
G4 P20
G1 X83.8 Y96.2 F480
M106 S0
G4 P100
G0 X96.9 Y96.2 F1200
M106 S255
G4 P20
G1 X113.9 Y96.2 F480
M106 S0
G4 P100
G0 X113.7 Y96.3 F1200
M106 S255
G4 P20
G1 X97.0 Y96.3 F480
M106 S0
G4 P100
G0 X83.7 Y96.3 F1200
M106 S255
G4 P20
G1 X65.3 Y96.3 F480
M106 S0
G4 P100
G0 X65.3 Y96.4 F1200
M106 S255
G4 P20
G1 X83.7 Y96.4 F480
M106 S0
G4 P100
G0 X97.1 Y96.4 F1200
M106 S255
G4 P20
G1 X113.6 Y96.4 F480
M106 S0
G4 P100
G0 X113.5 Y96.5 F1200
M106 S255
G4 P20
G1 X97.2 Y96.5 F480
M106 S0
G4 P100
G0 X83.6 Y96.5 F1200
M106 S255
G4 P20
G1 X65.3 Y96.5 F480
M106 S0
G4 P100
G0 X65.3 Y96.6 F1200
M106 S255
G4 P20
G1 X83.5 Y96.6 F480
M106 S0
G4 P100
G0 X97.3 Y96.6 F1200
M106 S255
G4 P20
G1 X113.4 Y96.6 F480
M106 S0
G4 P100
G0 X113.2 Y96.7 F1200
M106 S255
G4 P20
G1 X97.3 Y96.7 F480
M106 S0
G4 P100
G0 X83.5 Y96.7 F1200
M106 S255
G4 P20
G1 X65.3 Y96.7 F480
M106 S0
G4 P100
G0 X65.4 Y96.8 F1200
M106 S255
G4 P20
G1 X83.4 Y96.8 F480
M106 S0
G4 P100
G0 X97.4 Y96.8 F1200
M106 S255
G4 P20
G1 X113.1 Y96.8 F480
M106 S0
G4 P100
G0 X113.0 Y96.9 F1200
M106 S255
G4 P20
G1 X97.5 Y96.9 F480
M106 S0
G4 P100
G0 X83.4 Y96.9 F1200
M106 S255
G4 P20
G1 X65.4 Y96.9 F480
M106 S0
G4 P100
G0 X65.4 Y97.0 F1200
M106 S255
G4 P20
G1 X83.4 Y97.0 F480
M106 S0
G4 P100
G0 X97.6 Y97.0 F1200
M106 S255
G4 P20
G1 X112.8 Y97.0 F480
M106 S0
G4 P100
G0 X112.7 Y97.1 F1200
M106 S255
G4 P20
G1 X97.7 Y97.1 F480
M106 S0
G4 P100
G0 X83.5 Y97.1 F1200
M106 S255
G4 P20
G1 X65.4 Y97.1 F480
M106 S0
G4 P100
G0 X65.5 Y97.2 F1200
M106 S255
G4 P20
G1 X83.7 Y97.2 F480
M106 S0
G4 P100
G0 X97.8 Y97.2 F1200
M106 S255
G4 P20
G1 X112.5 Y97.2 F480
M106 S0
G4 P100
G0 X112.4 Y97.3 F1200
M106 S255
G4 P20
G1 X97.9 Y97.3 F480
M106 S0
G4 P100
G0 X83.8 Y97.3 F1200
M106 S255
G4 P20
G1 X65.5 Y97.3 F480
M106 S0
G4 P100
G0 X65.5 Y97.4 F1200
M106 S255
G4 P20
G1 X83.9 Y97.4 F480
M106 S0
G4 P100
G0 X98.0 Y97.4 F1200
M106 S255
G4 P20
G1 X112.2 Y97.4 F480
M106 S0
G4 P100
G0 X112.0 Y97.5 F1200
M106 S255
G4 P20
G1 X98.1 Y97.5 F480
M106 S0
G4 P100
G0 X84.0 Y97.5 F1200
M106 S255
G4 P20
G1 X65.6 Y97.5 F480
M106 S0
G4 P100
G0 X65.6 Y97.6 F1200
M106 S255
G4 P20
G1 X84.2 Y97.6 F480
M106 S0
G4 P100
G0 X98.2 Y97.6 F1200
M106 S255
G4 P20
G1 X111.9 Y97.6 F480
M106 S0
G4 P100
G0 X111.7 Y97.7 F1200
M106 S255
G4 P20
G1 X98.3 Y97.7 F480
M106 S0
G4 P100
G0 X84.3 Y97.7 F1200
M106 S255
G4 P20
G1 X65.6 Y97.7 F480
M106 S0
G4 P100
G0 X65.6 Y97.8 F1200
M106 S255
G4 P20
G1 X84.4 Y97.8 F480
M106 S0
G4 P100
G0 X98.4 Y97.8 F1200
M106 S255
G4 P20
G1 X111.5 Y97.8 F480
M106 S0
G4 P100
G0 X111.4 Y97.9 F1200
M106 S255
G4 P20
G1 X98.5 Y97.9 F480
M106 S0
G4 P100
G0 X84.6 Y97.9 F1200
M106 S255
G4 P20
G1 X65.7 Y97.9 F480
M106 S0
G4 P100
G0 X65.7 Y98.0 F1200
M106 S255
G4 P20
G1 X84.7 Y98.0 F480
M106 S0
G4 P100
G0 X98.6 Y98.0 F1200
M106 S255
G4 P20
G1 X111.1 Y98.0 F480
M106 S0
G4 P100
G0 X110.9 Y98.1 F1200
M106 S255
G4 P20
G1 X98.7 Y98.1 F480
M106 S0
G4 P100
G0 X84.9 Y98.1 F1200
M106 S255
G4 P20
G1 X65.7 Y98.1 F480
M106 S0
G4 P100
G0 X65.7 Y98.2 F1200
M106 S255
G4 P20
G1 X85.0 Y98.2 F480
M106 S0
G4 P100
G0 X98.9 Y98.2 F1200
M106 S255
G4 P20
G1 X110.7 Y98.2 F480
M106 S0
G4 P100
G0 X110.5 Y98.3 F1200
M106 S255
G4 P20
G1 X99.0 Y98.3 F480
M106 S0
G4 P100
G0 X85.1 Y98.3 F1200
M106 S255
G4 P20
G1 X65.8 Y98.3 F480
M106 S0
G4 P100
G0 X65.8 Y98.4 F1200
M106 S255
G4 P20
G1 X85.3 Y98.4 F480
M106 S0
G4 P100
G0 X99.1 Y98.4 F1200
M106 S255
G4 P20
G1 X110.3 Y98.4 F480
M106 S0
G4 P100
G0 X109.9 Y98.5 F1200
M106 S255
G4 P20
G1 X99.2 Y98.5 F480
M106 S0
G4 P100
G0 X85.4 Y98.5 F1200
M106 S255
G4 P20
G1 X65.8 Y98.5 F480
M106 S0
G4 P100
G0 X65.9 Y98.6 F1200
M106 S255
G4 P20
G1 X85.6 Y98.6 F480
M106 S0
G4 P100
G0 X99.4 Y98.6 F1200
M106 S255
G4 P20
G1 X109.7 Y98.6 F480
M106 S0
G4 P100
G0 X109.5 Y98.7 F1200
M106 S255
G4 P20
G1 X99.5 Y98.7 F480
M106 S0
G4 P100
G0 X85.7 Y98.7 F1200
M106 S255
G4 P20
G1 X65.9 Y98.7 F480
M106 S0
G4 P100
G0 X65.9 Y98.8 F1200
M106 S255
G4 P20
G1 X85.9 Y98.8 F480
M106 S0
G4 P100
G0 X99.6 Y98.8 F1200
M106 S255
G4 P20
G1 X109.1 Y98.8 F480
M106 S0
G4 P100
G0 X108.8 Y98.9 F1200
M106 S255
G4 P20
G1 X99.7 Y98.9 F480
M106 S0
G4 P100
G0 X86.1 Y98.9 F1200
M106 S255
G4 P20
G1 X66.0 Y98.9 F480
M106 S0
G4 P100
G0 X66.0 Y99.0 F1200
M106 S255
G4 P20
G1 X86.2 Y99.0 F480
M106 S0
G4 P100
G0 X99.6 Y99.0 F1200
M106 S255
G4 P20
G1 X108.4 Y99.0 F480
M106 S0
G4 P100
G0 X108.1 Y99.1 F1200
M106 S255
G4 P20
G1 X99.5 Y99.1 F480
M106 S0
G4 P100
G0 X86.3 Y99.1 F1200
M106 S255
G4 P20
G1 X66.0 Y99.1 F480
M106 S0
G4 P100
G0 X66.1 Y99.2 F1200
M106 S255
G4 P20
G1 X86.5 Y99.2 F480
M106 S0
G4 P100
G0 X99.3 Y99.2 F1200
M106 S255
G4 P20
G1 X107.6 Y99.2 F480
M106 S0
G4 P100
G0 X107.0 Y99.3 F1200
M106 S255
G4 P20
G1 X99.1 Y99.3 F480
M106 S0
G4 P100
G0 X86.7 Y99.3 F1200
M106 S255
G4 P20
G1 X66.1 Y99.3 F480
M106 S0
G4 P100
G0 X66.1 Y99.4 F1200
M106 S255
G4 P20
G1 X86.9 Y99.4 F480
M106 S0
G4 P100
G0 X98.9 Y99.4 F1200
M106 S255
G4 P20
G1 X106.4 Y99.4 F480
M106 S0
G4 P100
G0 X106.2 Y99.5 F1200
M106 S255
G4 P20
G1 X98.7 Y99.5 F480
M106 S0
G4 P100
G0 X87.0 Y99.5 F1200
M106 S255
G4 P20
G1 X66.2 Y99.5 F480
M106 S0
G4 P100
G0 X66.2 Y99.6 F1200
M106 S255
G4 P20
G1 X87.2 Y99.6 F480
M106 S0
G4 P100
G0 X98.5 Y99.6 F1200
M106 S255
G4 P20
G1 X106.1 Y99.6 F480
M106 S0
G4 P100
G0 X106.1 Y99.7 F1200
M106 S255
G4 P20
G1 X98.3 Y99.7 F480
M106 S0
G4 P100
G0 X87.5 Y99.7 F1200
M106 S255
G4 P20
G1 X66.3 Y99.7 F480
M106 S0
G4 P100
G0 X66.3 Y99.8 F1200
M106 S255
G4 P20
G1 X87.7 Y99.8 F480
M106 S0
G4 P100
G0 X98.1 Y99.8 F1200
M106 S255
G4 P20
G1 X106.0 Y99.8 F480
M106 S0
G4 P100
G0 X105.9 Y99.9 F1200
M106 S255
G4 P20
G1 X97.8 Y99.9 F480
M106 S0
G4 P100
G0 X87.9 Y99.9 F1200
M106 S255
G4 P20
G1 X66.3 Y99.9 F480
M106 S0
G4 P100
G0 X66.4 Y100.0 F1200
M106 S255
G4 P20
G1 X88.1 Y100.0 F480
M106 S0
G4 P100
G0 X97.7 Y100.0 F1200
M106 S255
G4 P20
G1 X105.9 Y100.0 F480
M106 S0
G4 P100
G0 X105.8 Y100.1 F1200
M106 S255
G4 P20
G1 X97.4 Y100.1 F480
M106 S0
G4 P100
G0 X88.3 Y100.1 F1200
M106 S255
G4 P20
G1 X66.4 Y100.1 F480
M106 S0
G4 P100
G0 X66.5 Y100.2 F1200
M106 S255
G4 P20
G1 X88.6 Y100.2 F480
M106 S0
G4 P100
G0 X97.1 Y100.2 F1200
M106 S255
G4 P20
G1 X105.8 Y100.2 F480
M106 S0
G4 P100
G0 X105.7 Y100.3 F1200
M106 S255
G4 P20
G1 X96.8 Y100.3 F480
M106 S0
G4 P100
G0 X88.8 Y100.3 F1200
M106 S255
G4 P20
G1 X66.5 Y100.3 F480
M106 S0
G4 P100
G0 X66.5 Y100.4 F1200
M106 S255
G4 P20
G1 X89.1 Y100.4 F480
M106 S0
G4 P100
G0 X96.6 Y100.4 F1200
M106 S255
G4 P20
G1 X105.7 Y100.4 F480
M106 S0
G4 P100
G0 X105.6 Y100.5 F1200
M106 S255
G4 P20
G1 X96.2 Y100.5 F480
M106 S0
G4 P100
G0 X89.4 Y100.5 F1200
M106 S255
G4 P20
G1 X66.6 Y100.5 F480
M106 S0
G4 P100
G0 X66.6 Y100.6 F1200
M106 S255
G4 P20
G1 X89.8 Y100.6 F480
M106 S0
G4 P100
G0 X95.9 Y100.6 F1200
M106 S255
G4 P20
G1 X105.5 Y100.6 F480
M106 S0
G4 P100
G0 X105.5 Y100.7 F1200
M106 S255
G4 P20
G1 X95.5 Y100.7 F480
M106 S0
G4 P100
G0 X90.2 Y100.7 F1200
M106 S255
G4 P20
G1 X66.7 Y100.7 F480
M106 S0
G4 P100
G0 X66.7 Y100.8 F1200
M106 S255
G4 P20
G1 X90.5 Y100.8 F480
M106 S0
G4 P100
G0 X95.1 Y100.8 F1200
M106 S255
G4 P20
G1 X105.4 Y100.8 F480
M106 S0
G4 P100
G0 X105.4 Y100.9 F1200
M106 S255
G4 P20
G1 X94.6 Y100.9 F480
M106 S0
G4 P100
G0 X91.0 Y100.9 F1200
M106 S255
G4 P20
G1 X66.8 Y100.9 F480
M106 S0
G4 P100
G0 X66.8 Y101.0 F1200
M106 S255
G4 P20
G1 X91.9 Y101.0 F480
M106 S0
G4 P100
G0 X93.7 Y101.0 F1200
M106 S255
G4 P20
G1 X105.3 Y101.0 F480
M106 S0
G4 P100
G0 X105.3 Y101.1 F1200
M106 S255
G4 P20
G1 X66.9 Y101.1 F480
M106 S0
G4 P100
G0 X66.9 Y101.2 F1200
M106 S255
G4 P20
G1 X105.2 Y101.2 F480
M106 S0
G4 P100
G0 X105.2 Y101.3 F1200
M106 S255
G4 P20
G1 X67.0 Y101.3 F480
M106 S0
G4 P100
G0 X67.0 Y101.4 F1200
M106 S255
G4 P20
G1 X105.1 Y101.4 F480
M106 S0
G4 P100
G0 X105.0 Y101.5 F1200
M106 S255
G4 P20
G1 X67.0 Y101.5 F480
M106 S0
G4 P100
G0 X67.1 Y101.6 F1200
M106 S255
G4 P20
G1 X105.0 Y101.6 F480
M106 S0
G4 P100
G0 X104.9 Y101.7 F1200
M106 S255
G4 P20
G1 X67.1 Y101.7 F480
M106 S0
G4 P100
G0 X67.2 Y101.8 F1200
M106 S255
G4 P20
G1 X104.9 Y101.8 F480
M106 S0
G4 P100
G0 X104.8 Y101.9 F1200
M106 S255
G4 P20
G1 X67.2 Y101.9 F480
M106 S0
G4 P100
G0 X67.3 Y102.0 F1200
M106 S255
G4 P20
G1 X104.7 Y102.0 F480
M106 S0
G4 P100
G0 X104.7 Y102.1 F1200
M106 S255
G4 P20
G1 X67.4 Y102.1 F480
M106 S0
G4 P100
G0 X67.4 Y102.2 F1200
M106 S255
G4 P20
G1 X104.6 Y102.2 F480
M106 S0
G4 P100
G0 X104.6 Y102.3 F1200
M106 S255
G4 P20
G1 X67.4 Y102.3 F480
M106 S0
G4 P100
G0 X67.5 Y102.4 F1200
M106 S255
G4 P20
G1 X104.5 Y102.4 F480
M106 S0
G4 P100
G0 X104.4 Y102.5 F1200
M106 S255
G4 P20
G1 X67.5 Y102.5 F480
M106 S0
G4 P100
G0 X67.6 Y102.6 F1200
M106 S255
G4 P20
G1 X104.4 Y102.6 F480
M106 S0
G4 P100
G0 X104.3 Y102.7 F1200
M106 S255
G4 P20
G1 X67.7 Y102.7 F480
M106 S0
G4 P100
G0 X67.7 Y102.8 F1200
M106 S255
G4 P20
G1 X104.3 Y102.8 F480
M106 S0
G4 P100
G0 X104.2 Y102.9 F1200
M106 S255
G4 P20
G1 X67.8 Y102.9 F480
M106 S0
G4 P100
G0 X67.8 Y103.0 F1200
M106 S255
G4 P20
G1 X104.1 Y103.0 F480
M106 S0
G4 P100
G0 X104.1 Y103.1 F1200
M106 S255
G4 P20
G1 X67.9 Y103.1 F480
M106 S0
G4 P100
G0 X67.9 Y103.2 F1200
M106 S255
G4 P20
G1 X104.0 Y103.2 F480
M106 S0
G4 P100
G0 X103.9 Y103.3 F1200
M106 S255
G4 P20
G1 X68.0 Y103.3 F480
M106 S0
G4 P100
G0 X68.0 Y103.4 F1200
M106 S255
G4 P20
G1 X103.9 Y103.4 F480
M106 S0
G4 P100
G0 X103.8 Y103.5 F1200
M106 S255
G4 P20
G1 X68.1 Y103.5 F480
M106 S0
G4 P100
G0 X68.2 Y103.6 F1200
M106 S255
G4 P20
G1 X103.7 Y103.6 F480
M106 S0
G4 P100
G0 X103.7 Y103.7 F1200
M106 S255
G4 P20
G1 X68.2 Y103.7 F480
M106 S0
G4 P100
G0 X68.3 Y103.8 F1200
M106 S255
G4 P20
G1 X103.6 Y103.8 F480
M106 S0
G4 P100
G0 X103.5 Y103.9 F1200
M106 S255
G4 P20
G1 X68.3 Y103.9 F480
M106 S0
G4 P100
G0 X68.4 Y104.0 F1200
M106 S255
G4 P20
G1 X103.5 Y104.0 F480
M106 S0
G4 P100
G0 X103.4 Y104.1 F1200
M106 S255
G4 P20
G1 X68.5 Y104.1 F480
M106 S0
G4 P100
G0 X68.5 Y104.2 F1200
M106 S255
G4 P20
G1 X103.3 Y104.2 F480
M106 S0
G4 P100
G0 X103.3 Y104.3 F1200
M106 S255
G4 P20
G1 X68.6 Y104.3 F480
M106 S0
G4 P100
G0 X68.6 Y104.4 F1200
M106 S255
G4 P20
G1 X103.2 Y104.4 F480
M106 S0
G4 P100
G0 X103.1 Y104.5 F1200
M106 S255
G4 P20
G1 X68.7 Y104.5 F480
M106 S0
G4 P100
G0 X68.8 Y104.6 F1200
M106 S255
G4 P20
G1 X103.0 Y104.6 F480
M106 S0
G4 P100
G0 X103.0 Y104.7 F1200
M106 S255
G4 P20
G1 X68.8 Y104.7 F480
M106 S0
G4 P100
G0 X68.9 Y104.8 F1200
M106 S255
G4 P20
G1 X102.9 Y104.8 F480
M106 S0
G4 P100
G0 X102.8 Y104.9 F1200
M106 S255
G4 P20
G1 X68.9 Y104.9 F480
M106 S0
G4 P100
G0 X69.0 Y105.0 F1200
M106 S255
G4 P20
G1 X102.8 Y105.0 F480
M106 S0
G4 P100
G0 X102.7 Y105.1 F1200
M106 S255
G4 P20
G1 X69.1 Y105.1 F480
M106 S0
G4 P100
G0 X69.1 Y105.2 F1200
M106 S255
G4 P20
G1 X102.6 Y105.2 F480
M106 S0
G4 P100
G0 X102.5 Y105.3 F1200
M106 S255
G4 P20
G1 X69.2 Y105.3 F480
M106 S0
G4 P100
G0 X69.3 Y105.4 F1200
M106 S255
G4 P20
G1 X102.5 Y105.4 F480
M106 S0
G4 P100
G0 X102.4 Y105.5 F1200
M106 S255
G4 P20
G1 X69.3 Y105.5 F480
M106 S0
G4 P100
G0 X69.4 Y105.6 F1200
M106 S255
G4 P20
G1 X102.3 Y105.6 F480
M106 S0
G4 P100
G0 X102.2 Y105.7 F1200
M106 S255
G4 P20
G1 X69.5 Y105.7 F480
M106 S0
G4 P100
G0 X69.5 Y105.8 F1200
M106 S255
G4 P20
G1 X102.2 Y105.8 F480
M106 S0
G4 P100
G0 X102.1 Y105.9 F1200
M106 S255
G4 P20
G1 X69.6 Y105.9 F480
M106 S0
G4 P100
G0 X69.6 Y106.0 F1200
M106 S255
G4 P20
G1 X102.0 Y106.0 F480
M106 S0
G4 P100
G0 X101.9 Y106.1 F1200
M106 S255
G4 P20
G1 X69.7 Y106.1 F480
M106 S0
G4 P100
G0 X69.8 Y106.2 F1200
M106 S255
G4 P20
G1 X101.9 Y106.2 F480
M106 S0
G4 P100
G0 X101.8 Y106.3 F1200
M106 S255
G4 P20
G1 X69.9 Y106.3 F480
M106 S0
G4 P100
G0 X69.9 Y106.4 F1200
M106 S255
G4 P20
G1 X101.7 Y106.4 F480
M106 S0
G4 P100
G0 X101.6 Y106.5 F1200
M106 S255
G4 P20
G1 X70.0 Y106.5 F480
M106 S0
G4 P100
G0 X70.1 Y106.6 F1200
M106 S255
G4 P20
G1 X101.5 Y106.6 F480
M106 S0
G4 P100
G0 X101.5 Y106.7 F1200
M106 S255
G4 P20
G1 X70.1 Y106.7 F480
M106 S0
G4 P100
G0 X70.2 Y106.8 F1200
M106 S255
G4 P20
G1 X101.4 Y106.8 F480
M106 S0
G4 P100
G0 X101.3 Y106.9 F1200
M106 S255
G4 P20
G1 X70.3 Y106.9 F480
M106 S0
G4 P100
G0 X70.3 Y107.0 F1200
M106 S255
G4 P20
G1 X101.2 Y107.0 F480
M106 S0
G4 P100
G0 X101.1 Y107.1 F1200
M106 S255
G4 P20
G1 X70.4 Y107.1 F480
M106 S0
G4 P100
G0 X70.5 Y107.2 F1200
M106 S255
G4 P20
G1 X101.0 Y107.2 F480
M106 S0
G4 P100
G0 X101.0 Y107.3 F1200
M106 S255
G4 P20
G1 X70.5 Y107.3 F480
M106 S0
G4 P100
G0 X70.6 Y107.4 F1200
M106 S255
G4 P20
G1 X100.9 Y107.4 F480
M106 S0
G4 P100
G0 X100.8 Y107.5 F1200
M106 S255
G4 P20
G1 X70.7 Y107.5 F480
M106 S0
G4 P100
G0 X70.8 Y107.6 F1200
M106 S255
G4 P20
G1 X100.7 Y107.6 F480
M106 S0
G4 P100
G0 X100.6 Y107.7 F1200
M106 S255
G4 P20
G1 X70.8 Y107.7 F480
M106 S0
G4 P100
G0 X70.9 Y107.8 F1200
M106 S255
G4 P20
G1 X100.5 Y107.8 F480
M106 S0
G4 P100
G0 X100.4 Y107.9 F1200
M106 S255
G4 P20
G1 X71.0 Y107.9 F480
M106 S0
G4 P100
G0 X71.1 Y108.0 F1200
M106 S255
G4 P20
G1 X100.3 Y108.0 F480
M106 S0
G4 P100
G0 X100.3 Y108.1 F1200
M106 S255
G4 P20
G1 X71.1 Y108.1 F480
M106 S0
G4 P100
G0 X71.2 Y108.2 F1200
M106 S255
G4 P20
G1 X100.2 Y108.2 F480
M106 S0
G4 P100
G0 X100.1 Y108.3 F1200
M106 S255
G4 P20
G1 X71.3 Y108.3 F480
M106 S0
G4 P100
G0 X71.4 Y108.4 F1200
M106 S255
G4 P20
G1 X100.0 Y108.4 F480
M106 S0
G4 P100
G0 X99.9 Y108.5 F1200
M106 S255
G4 P20
G1 X71.4 Y108.5 F480
M106 S0
G4 P100
G0 X71.5 Y108.6 F1200
M106 S255
G4 P20
G1 X99.8 Y108.6 F480
M106 S0
G4 P100
G0 X99.7 Y108.7 F1200
M106 S255
G4 P20
G1 X71.6 Y108.7 F480
M106 S0
G4 P100
G0 X71.7 Y108.8 F1200
M106 S255
G4 P20
G1 X99.6 Y108.8 F480
M106 S0
G4 P100
G0 X99.5 Y108.9 F1200
M106 S255
G4 P20
G1 X71.7 Y108.9 F480
M106 S0
G4 P100
G0 X71.8 Y109.0 F1200
M106 S255
G4 P20
G1 X99.4 Y109.0 F480
M106 S0
G4 P100
G0 X99.3 Y109.1 F1200
M106 S255
G4 P20
G1 X71.9 Y109.1 F480
M106 S0
G4 P100
G0 X72.0 Y109.2 F1200
M106 S255
G4 P20
G1 X99.2 Y109.2 F480
M106 S0
G4 P100
G0 X99.0 Y109.3 F1200
M106 S255
G4 P20
G1 X72.1 Y109.3 F480
M106 S0
G4 P100
G0 X72.1 Y109.4 F1200
M106 S255
G4 P20
G1 X99.0 Y109.4 F480
M106 S0
G4 P100
G0 X98.9 Y109.5 F1200
M106 S255
G4 P20
G1 X72.2 Y109.5 F480
M106 S0
G4 P100
G0 X72.3 Y109.6 F1200
M106 S255
G4 P20
G1 X98.7 Y109.6 F480
M106 S0
G4 P100
G0 X98.6 Y109.7 F1200
M106 S255
G4 P20
G1 X72.4 Y109.7 F480
M106 S0
G4 P100
G0 X72.5 Y109.8 F1200
M106 S255
G4 P20
G1 X98.5 Y109.8 F480
M106 S0
G4 P100
G0 X98.4 Y109.9 F1200
M106 S255
G4 P20
G1 X72.5 Y109.9 F480
M106 S0
G4 P100
G0 X72.6 Y110.0 F1200
M106 S255
G4 P20
G1 X98.3 Y110.0 F480
M106 S0
G4 P100
G0 X98.2 Y110.1 F1200
M106 S255
G4 P20
G1 X72.7 Y110.1 F480
M106 S0
G4 P100
G0 X72.8 Y110.2 F1200
M106 S255
G4 P20
G1 X98.1 Y110.2 F480
M106 S0
G4 P100
G0 X98.0 Y110.3 F1200
M106 S255
G4 P20
G1 X72.9 Y110.3 F480
M106 S0
G4 P100
G0 X72.9 Y110.4 F1200
M106 S255
G4 P20
G1 X97.9 Y110.4 F480
M106 S0
G4 P100
G0 X97.7 Y110.5 F1200
M106 S255
G4 P20
G1 X73.0 Y110.5 F480
M106 S0
G4 P100
G0 X73.1 Y110.6 F1200
M106 S255
G4 P20
G1 X97.6 Y110.6 F480
M106 S0
G4 P100
G0 X97.5 Y110.7 F1200
M106 S255
G4 P20
G1 X73.2 Y110.7 F480
M106 S0
G4 P100
G0 X73.3 Y110.8 F1200
M106 S255
G4 P20
G1 X97.4 Y110.8 F480
M106 S0
G4 P100
G0 X97.2 Y110.9 F1200
M106 S255
G4 P20
G1 X73.4 Y110.9 F480
M106 S0
G4 P100
G0 X73.4 Y111.0 F1200
M106 S255
G4 P20
G1 X97.1 Y111.0 F480
M106 S0
G4 P100
G0 X97.0 Y111.1 F1200
M106 S255
G4 P20
G1 X73.5 Y111.1 F480
M106 S0
G4 P100
G0 X73.6 Y111.2 F1200
M106 S255
G4 P20
G1 X96.9 Y111.2 F480
M106 S0
G4 P100
G0 X96.7 Y111.3 F1200
M106 S255
G4 P20
G1 X73.7 Y111.3 F480
M106 S0
G4 P100
G0 X73.8 Y111.4 F1200
M106 S255
G4 P20
G1 X96.6 Y111.4 F480
M106 S0
G4 P100
G0 X96.5 Y111.5 F1200
M106 S255
G4 P20
G1 X73.8 Y111.5 F480
M106 S0
G4 P100
G0 X73.9 Y111.6 F1200
M106 S255
G4 P20
G1 X96.3 Y111.6 F480
M106 S0
G4 P100
G0 X96.2 Y111.7 F1200
M106 S255
G4 P20
G1 X74.0 Y111.7 F480
M106 S0
G4 P100
G0 X74.1 Y111.8 F1200
M106 S255
G4 P20
G1 X96.0 Y111.8 F480
M106 S0
G4 P100
G0 X95.9 Y111.9 F1200
M106 S255
G4 P20
G1 X74.2 Y111.9 F480
M106 S0
G4 P100
G0 X74.3 Y112.0 F1200
M106 S255
G4 P20
G1 X95.7 Y112.0 F480
M106 S0
G4 P100
G0 X95.6 Y112.1 F1200
M106 S255
G4 P20
G1 X74.3 Y112.1 F480
M106 S0
G4 P100
G0 X74.4 Y112.2 F1200
M106 S255
G4 P20
G1 X95.4 Y112.2 F480
M106 S0
G4 P100
G0 X95.3 Y112.3 F1200
M106 S255
G4 P20
G1 X74.5 Y112.3 F480
M106 S0
G4 P100
G0 X74.6 Y112.4 F1200
M106 S255
G4 P20
G1 X95.1 Y112.4 F480
M106 S0
G4 P100
G0 X95.0 Y112.5 F1200
M106 S255
G4 P20
G1 X74.7 Y112.5 F480
M106 S0
G4 P100
G0 X74.8 Y112.6 F1200
M106 S255
G4 P20
G1 X94.8 Y112.6 F480
M106 S0
G4 P100
G0 X94.6 Y112.7 F1200
M106 S255
G4 P20
G1 X74.9 Y112.7 F480
M106 S0
G4 P100
G0 X75.0 Y112.8 F1200
M106 S255
G4 P20
G1 X94.4 Y112.8 F480
M106 S0
G4 P100
G0 X94.3 Y112.9 F1200
M106 S255
G4 P20
G1 X75.1 Y112.9 F480
M106 S0
G4 P100
G0 X75.1 Y113.0 F1200
M106 S255
G4 P20
G1 X94.1 Y113.0 F480
M106 S0
G4 P100
G0 X93.9 Y113.1 F1200
M106 S255
G4 P20
G1 X75.2 Y113.1 F480
M106 S0
G4 P100
G0 X75.3 Y113.2 F1200
M106 S255
G4 P20
G1 X93.7 Y113.2 F480
M106 S0
G4 P100
G0 X93.5 Y113.3 F1200
M106 S255
G4 P20
G1 X75.4 Y113.3 F480
M106 S0
G4 P100
G0 X75.4 Y113.4 F1200
M106 S255
G4 P20
G1 X93.3 Y113.4 F480
M106 S0
G4 P100
G0 X93.0 Y113.5 F1200
M106 S255
G4 P20
G1 X75.5 Y113.5 F480
M106 S0
G4 P100
G0 X75.5 Y113.6 F1200
M106 S255
G4 P20
G1 X92.9 Y113.6 F480
M106 S0
G4 P100
G0 X92.7 Y113.7 F1200
M106 S255
G4 P20
G1 X75.5 Y113.7 F480
M106 S0
G4 P100
G0 X75.5 Y113.8 F1200
M106 S255
G4 P20
G1 X92.4 Y113.8 F480
M106 S0
G4 P100
G0 X92.2 Y113.9 F1200
M106 S255
G4 P20
G1 X75.5 Y113.9 F480
M106 S0
G4 P100
G0 X75.6 Y114.0 F1200
M106 S255
G4 P20
G1 X91.9 Y114.0 F480
M106 S0
G4 P100
G0 X91.7 Y114.1 F1200
M106 S255
G4 P20
G1 X75.6 Y114.1 F480
M106 S0
G4 P100
G0 X75.6 Y114.2 F1200
M106 S255
G4 P20
G1 X91.4 Y114.2 F480
M106 S0
G4 P100
G0 X91.1 Y114.3 F1200
M106 S255
G4 P20
G1 X75.6 Y114.3 F480
M106 S0
G4 P100
G0 X75.6 Y114.4 F1200
M106 S255
G4 P20
G1 X90.8 Y114.4 F480
M106 S0
G4 P100
G0 X90.5 Y114.5 F1200
M106 S255
G4 P20
G1 X75.7 Y114.5 F480
M106 S0
G4 P100
G0 X75.7 Y114.6 F1200
M106 S255
G4 P20
G1 X90.1 Y114.6 F480
M106 S0
G4 P100
G0 X89.7 Y114.7 F1200
M106 S255
G4 P20
G1 X75.7 Y114.7 F480
M106 S0
G4 P100
G0 X75.8 Y114.8 F1200
M106 S255
G4 P20
G1 X89.3 Y114.8 F480
M106 S0
G4 P100
G0 X89.0 Y114.9 F1200
M106 S255
G4 P20
G1 X75.8 Y114.9 F480
M106 S0
G4 P100
G0 X75.8 Y115.0 F1200
M106 S255
G4 P20
G1 X88.5 Y115.0 F480
M106 S0
G4 P100
G0 X87.9 Y115.1 F1200
M106 S255
G4 P20
G1 X75.9 Y115.1 F480
M106 S0
G4 P100
G0 X75.9 Y115.2 F1200
M106 S255
G4 P20
G1 X81.2 Y115.2 F480
M106 S0
G4 P100
G0 X81.5 Y115.2 F1200
M106 S255
G4 P20
G1 X87.1 Y115.2 F480
M106 S0
G4 P100
G0 X86.2 Y115.3 F1200
M106 S255
G4 P20
G1 X82.5 Y115.3 F480
M106 S0
G4 P100
G0 X81.2 Y115.3 F1200
M106 S255
G4 P20
G1 X75.9 Y115.3 F480
M106 S0
G4 P100
G0 X75.9 Y115.4 F1200
M106 S255
G4 P20
G1 X81.3 Y115.4 F480
M106 S0
G4 P100
G0 X83.3 Y115.4 F1200
M106 S255
G4 P20
G1 X85.2 Y115.4 F480
M106 S0
G4 P100
G0 X81.4 Y115.5 F1200
M106 S255
G4 P20
G1 X76.0 Y115.5 F480
M106 S0
G4 P100
G0 X76.0 Y115.6 F1200
M106 S255
G4 P20
G1 X81.5 Y115.6 F480
M106 S0
G4 P100
G0 X81.7 Y115.7 F1200
M106 S255
G4 P20
G1 X76.0 Y115.7 F480
M106 S0
G4 P100
G0 X76.1 Y115.8 F1200
M106 S255
G4 P20
G1 X81.8 Y115.8 F480
M106 S0
G4 P100
G0 X81.9 Y115.9 F1200
M106 S255
G4 P20
G1 X76.1 Y115.9 F480
M106 S0
G4 P100
G0 X76.1 Y116.0 F1200
M106 S255
G4 P20
G1 X82.1 Y116.0 F480
M106 S0
G4 P100
G0 X82.3 Y116.1 F1200
M106 S255
G4 P20
G1 X76.2 Y116.1 F480
M106 S0
G4 P100
G0 X76.2 Y116.2 F1200
M106 S255
G4 P20
G1 X82.5 Y116.2 F480
M106 S0
G4 P100
G0 X82.7 Y116.3 F1200
M106 S255
G4 P20
G1 X76.3 Y116.3 F480
M106 S0
G4 P100
G0 X76.3 Y116.4 F1200
M106 S255
G4 P20
G1 X82.9 Y116.4 F480
M106 S0
G4 P100
G0 X83.2 Y116.5 F1200
M106 S255
G4 P20
G1 X76.3 Y116.5 F480
M106 S0
G4 P100
G0 X76.4 Y116.6 F1200
M106 S255
G4 P20
G1 X83.4 Y116.6 F480
M106 S0
G4 P100
G0 X83.8 Y116.7 F1200
M106 S255
G4 P20
G1 X76.4 Y116.7 F480
M106 S0
G4 P100
G0 X76.4 Y116.8 F1200
M106 S255
G4 P20
G1 X84.1 Y116.8 F480
M106 S0
G4 P100
G0 X84.4 Y116.9 F1200
M106 S255
G4 P20
G1 X76.5 Y116.9 F480
M106 S0
G4 P100
G0 X76.5 Y117.0 F1200
M106 S255
G4 P20
G1 X84.5 Y117.0 F480
M106 S0
G4 P100
G0 X84.6 Y117.1 F1200
M106 S255
G4 P20
G1 X76.6 Y117.1 F480
M106 S0
G4 P100
G0 X76.6 Y117.2 F1200
M106 S255
G4 P20
G1 X84.7 Y117.2 F480
M106 S0
G4 P100
G0 X84.7 Y117.3 F1200
M106 S255
G4 P20
G1 X76.7 Y117.3 F480
M106 S0
G4 P100
G0 X76.7 Y117.4 F1200
M106 S255
G4 P20
G1 X84.7 Y117.4 F480
M106 S0
G4 P100
G0 X84.7 Y117.5 F1200
M106 S255
G4 P20
G1 X76.7 Y117.5 F480
M106 S0
G4 P100
G0 X76.8 Y117.6 F1200
M106 S255
G4 P20
G1 X84.6 Y117.6 F480
M106 S0
G4 P100
G0 X84.6 Y117.7 F1200
M106 S255
G4 P20
G1 X76.8 Y117.7 F480
M106 S0
G4 P100
G0 X76.9 Y117.8 F1200
M106 S255
G4 P20
G1 X84.5 Y117.8 F480
M106 S0
G4 P100
G0 X84.5 Y117.9 F1200
M106 S255
G4 P20
G1 X76.9 Y117.9 F480
M106 S0
G4 P100
G0 X77.0 Y118.0 F1200
M106 S255
G4 P20
G1 X84.4 Y118.0 F480
M106 S0
G4 P100
G0 X84.4 Y118.1 F1200
M106 S255
G4 P20
G1 X77.0 Y118.1 F480
M106 S0
G4 P100
G0 X77.1 Y118.2 F1200
M106 S255
G4 P20
G1 X84.3 Y118.2 F480
M106 S0
G4 P100
G0 X84.2 Y118.3 F1200
M106 S255
G4 P20
G1 X77.2 Y118.3 F480
M106 S0
G4 P100
G0 X77.2 Y118.4 F1200
M106 S255
G4 P20
G1 X84.2 Y118.4 F480
M106 S0
G4 P100
G0 X84.1 Y118.5 F1200
M106 S255
G4 P20
G1 X77.3 Y118.5 F480
M106 S0
G4 P100
G0 X77.3 Y118.6 F1200
M106 S255
G4 P20
G1 X84.1 Y118.6 F480
M106 S0
G4 P100
G0 X84.0 Y118.7 F1200
M106 S255
G4 P20
G1 X77.4 Y118.7 F480
M106 S0
G4 P100
G0 X77.4 Y118.8 F1200
M106 S255
G4 P20
G1 X84.0 Y118.8 F480
M106 S0
G4 P100
G0 X84.0 Y118.9 F1200
M106 S255
G4 P20
G1 X77.5 Y118.9 F480
M106 S0
G4 P100
G0 X77.5 Y119.0 F1200
M106 S255
G4 P20
G1 X83.9 Y119.0 F480
M106 S0
G4 P100
G0 X83.9 Y119.1 F1200
M106 S255
G4 P20
G1 X77.6 Y119.1 F480
M106 S0
G4 P100
G0 X77.7 Y119.2 F1200
M106 S255
G4 P20
G1 X83.8 Y119.2 F480
M106 S0
G4 P100
G0 X83.8 Y119.3 F1200
M106 S255
G4 P20
G1 X77.7 Y119.3 F480
M106 S0
G4 P100
G0 X77.8 Y119.4 F1200
M106 S255
G4 P20
G1 X83.7 Y119.4 F480
M106 S0
G4 P100
G0 X83.7 Y119.5 F1200
M106 S255
G4 P20
G1 X77.8 Y119.5 F480
M106 S0
G4 P100
G0 X77.9 Y119.6 F1200
M106 S255
G4 P20
G1 X83.7 Y119.6 F480
M106 S0
G4 P100
G0 X83.6 Y119.7 F1200
M106 S255
G4 P20
G1 X78.0 Y119.7 F480
M106 S0
G4 P100
G0 X78.1 Y119.8 F1200
M106 S255
G4 P20
G1 X83.6 Y119.8 F480
M106 S0
G4 P100
G0 X83.6 Y119.9 F1200
M106 S255
G4 P20
G1 X78.1 Y119.9 F480
M106 S0
G4 P100
G0 X78.2 Y120.0 F1200
M106 S255
G4 P20
G1 X83.6 Y120.0 F480
M106 S0
G4 P100
G0 X83.6 Y120.1 F1200
M106 S255
G4 P20
G1 X78.3 Y120.1 F480
M106 S0
G4 P100
G0 X78.4 Y120.2 F1200
M106 S255
G4 P20
G1 X83.6 Y120.2 F480
M106 S0
G4 P100
G0 X83.5 Y120.3 F1200
M106 S255
G4 P20
G1 X78.4 Y120.3 F480
M106 S0
G4 P100
G0 X78.5 Y120.4 F1200
M106 S255
G4 P20
G1 X83.5 Y120.4 F480
M106 S0
G4 P100
G0 X83.5 Y120.5 F1200
M106 S255
G4 P20
G1 X78.6 Y120.5 F480
M106 S0
G4 P100
G0 X78.6 Y120.6 F1200
M106 S255
G4 P20
G1 X83.5 Y120.6 F480
M106 S0
G4 P100
G0 X83.5 Y120.7 F1200
M106 S255
G4 P20
G1 X78.7 Y120.7 F480
M106 S0
G4 P100
G0 X78.8 Y120.8 F1200
M106 S255
G4 P20
G1 X83.5 Y120.8 F480
M106 S0
G4 P100
G0 X83.5 Y120.9 F1200
M106 S255
G4 P20
G1 X78.9 Y120.9 F480
M106 S0
G4 P100
G0 X79.0 Y121.0 F1200
M106 S255
G4 P20
G1 X83.5 Y121.0 F480
M106 S0
G4 P100
G0 X83.5 Y121.1 F1200
M106 S255
G4 P20
G1 X79.1 Y121.1 F480
M106 S0
G4 P100
G0 X79.1 Y121.2 F1200
M106 S255
G4 P20
G1 X83.5 Y121.2 F480
M106 S0
G4 P100
G0 X83.6 Y121.3 F1200
M106 S255
G4 P20
G1 X79.2 Y121.3 F480
M106 S0
G4 P100
G0 X79.3 Y121.4 F1200
M106 S255
G4 P20
G1 X83.6 Y121.4 F480
M106 S0
G4 P100
G0 X83.6 Y121.5 F1200
M106 S255
G4 P20
G1 X79.4 Y121.5 F480
M106 S0
G4 P100
G0 X79.5 Y121.6 F1200
M106 S255
G4 P20
G1 X83.6 Y121.6 F480
M106 S0
G4 P100
G0 X83.6 Y121.7 F1200
M106 S255
G4 P20
G1 X79.6 Y121.7 F480
M106 S0
G4 P100
G0 X79.7 Y121.8 F1200
M106 S255
G4 P20
G1 X83.6 Y121.8 F480
M106 S0
G4 P100
G0 X83.7 Y121.9 F1200
M106 S255
G4 P20
G1 X79.8 Y121.9 F480
M106 S0
G4 P100
G0 X79.9 Y122.0 F1200
M106 S255
G4 P20
G1 X83.7 Y122.0 F480
M106 S0
G4 P100
G0 X83.7 Y122.1 F1200
M106 S255
G4 P20
G1 X80.0 Y122.1 F480
M106 S0
G4 P100
G0 X80.1 Y122.2 F1200
M106 S255
G4 P20
G1 X83.8 Y122.2 F480
M106 S0
G4 P100
G0 X83.8 Y122.3 F1200
M106 S255
G4 P20
G1 X80.2 Y122.3 F480
M106 S0
G4 P100
G0 X80.3 Y122.4 F1200
M106 S255
G4 P20
G1 X83.9 Y122.4 F480
M106 S0
G4 P100
G0 X83.9 Y122.5 F1200
M106 S255
G4 P20
G1 X80.4 Y122.5 F480
M106 S0
G4 P100
G0 X80.6 Y122.6 F1200
M106 S255
G4 P20
G1 X84.0 Y122.6 F480
M106 S0
G4 P100
G0 X84.0 Y122.7 F1200
M106 S255
G4 P20
G1 X80.7 Y122.7 F480
M106 S0
G4 P100
G0 X80.8 Y122.8 F1200
M106 S255
G4 P20
G1 X84.1 Y122.8 F480
M106 S0
G4 P100
G0 X84.2 Y122.9 F1200
M106 S255
G4 P20
G1 X80.9 Y122.9 F480
M106 S0
G4 P100
G0 X81.0 Y123.0 F1200
M106 S255
G4 P20
G1 X84.2 Y123.0 F480
M106 S0
G4 P100
G0 X84.3 Y123.1 F1200
M106 S255
G4 P20
G1 X81.2 Y123.1 F480
M106 S0
G4 P100
G0 X81.3 Y123.2 F1200
M106 S255
G4 P20
G1 X84.4 Y123.2 F480
M106 S0
G4 P100
G0 X84.5 Y123.3 F1200
M106 S255
G4 P20
G1 X81.4 Y123.3 F480
M106 S0
G4 P100
G0 X81.6 Y123.4 F1200
M106 S255
G4 P20
G1 X84.5 Y123.4 F480
M106 S0
G4 P100
G0 X84.6 Y123.5 F1200
M106 S255
G4 P20
G1 X81.7 Y123.5 F480
M106 S0
G4 P100
G0 X81.8 Y123.6 F1200
M106 S255
G4 P20
G1 X84.7 Y123.6 F480
M106 S0
G4 P100
G0 X84.8 Y123.7 F1200
M106 S255
G4 P20
G1 X82.0 Y123.7 F480
M106 S0
G4 P100
G0 X82.2 Y123.8 F1200
M106 S255
G4 P20
G1 X84.9 Y123.8 F480
M106 S0
G4 P100
G0 X85.0 Y123.9 F1200
M106 S255
G4 P20
G1 X82.3 Y123.9 F480
M106 S0
G4 P100
G0 X82.4 Y124.0 F1200
M106 S255
G4 P20
G1 X85.1 Y124.0 F480
M106 S0
G4 P100
G0 X85.2 Y124.1 F1200
M106 S255
G4 P20
G1 X82.6 Y124.1 F480
M106 S0
G4 P100
G0 X82.8 Y124.2 F1200
M106 S255
G4 P20
G1 X85.4 Y124.2 F480
M106 S0
G4 P100
G0 X85.5 Y124.3 F1200
M106 S255
G4 P20
G1 X83.0 Y124.3 F480
M106 S0
G4 P100
G0 X83.1 Y124.4 F1200
M106 S255
G4 P20
G1 X85.6 Y124.4 F480
M106 S0
G4 P100
G0 X85.8 Y124.5 F1200
M106 S255
G4 P20
G1 X83.3 Y124.5 F480
M106 S0
G4 P100
G0 X83.5 Y124.6 F1200
M106 S255
G4 P20
G1 X85.9 Y124.6 F480
M106 S0
G4 P100
G0 X86.1 Y124.7 F1200
M106 S255
G4 P20
G1 X83.7 Y124.7 F480
M106 S0
G4 P100
G0 X83.9 Y124.8 F1200
M106 S255
G4 P20
G1 X86.2 Y124.8 F480
M106 S0
G4 P100
G0 X86.3 Y124.9 F1200
M106 S255
G4 P20
G1 X84.1 Y124.9 F480
M106 S0
G4 P100
G0 X84.3 Y125.0 F1200
M106 S255
G4 P20
G1 X86.4 Y125.0 F480
M106 S0
G4 P100
G0 X86.4 Y125.1 F1200
M106 S255
G4 P20
G1 X84.5 Y125.1 F480
M106 S0
G4 P100
G0 X84.7 Y125.2 F1200
M106 S255
G4 P20
G1 X86.4 Y125.2 F480
M106 S0
G4 P100
G0 X86.4 Y125.3 F1200
M106 S255
G4 P20
G1 X84.9 Y125.3 F480
M106 S0
G4 P100
G0 X85.2 Y125.4 F1200
M106 S255
G4 P20
G1 X86.4 Y125.4 F480
M106 S0
G4 P100
G0 X86.4 Y125.5 F1200
M106 S255
G4 P20
G1 X85.5 Y125.5 F480
M106 S0
G4 P100
G0 X85.7 Y125.6 F1200
M106 S255
G4 P20
G1 X86.3 Y125.6 F480
M106 S0
G4 P100
G0 X86.2 Y125.7 F1200
M106 S255
G4 P20
G1 X85.9 Y125.7 F480
M106 S0
G4 P100
G28 X0 Y0; home
